;FLAVOR:Marlin
;TIME:5853
;Filament used: 3.39764m
;Layer height: 0.2
;MINX:110.052
;MINY:125.7
;MINZ:0.2
;MAXX:167.05
;MAXY:172.838
;MAXZ:35.4
;POSTPROCESSED
;Generated with Cura_SteamEngine 5.4.0
M140 S95
M105
M190 S95
M82 ;absolute extrusion mode
M201 X500.00 Y500.00 Z100.00 E5000.00 ;Setup machine max acceleration
M203 X500.00 Y500.00 Z10.00 E50.00 ;Setup machine max feedrate
M204 P500.00 R1000.00 T500.00 ;Setup Print/Retract/Travel acceleration
M205 X8.00 Y8.00 Z0.40 E5.00 ;Setup Jerk
M220 S100 ;Reset Feedrate
M221 S100 ;Reset Flowrate
M140 S95.0 ; set bed temp
M190 S95.0 ; wait for bed temp
G28 X Y; home X Y
G28 Z; home Z
G29;
M420 S1; save bed mesh
G92 E0 ;Reset Extruder
G1 Z2.0 F3000 ;Move Z Axis up
G1 X10.1 Y20 Z0 F5000.0 ;Move to start position
M104 S245.0 ; wait for extruder printing temp
M109 S245.0 ; wait for extruder printing temp
G1 X10.1 Y200.0 Z0.28 F1500.0 E15 ;Draw the first line
G1 X10.4 Y200.0 Z0.28 F5000.0 ;Move to side a little
G1 X10.4 Y20 Z0.28 F1500.0 E30 ;Draw the second line
G92 E0 ;Reset Extruder
G92 E0
G92 E0
G1 F3000 E-4
;LAYER_COUNT:177
;LAYER:0
M106 S127.5
G0 F12000 X128.755 Y129.666 Z0.2
;TYPE:SKIRT
G1 F3000 E0
G1 F600 X129.314 Y129.275 E0.02112
G1 X130.939 Y128.642 E0.07512
G1 X131.775 Y128.448 E0.1017
G1 X137.971 Y128.448 E0.29356
G1 X139.386 Y128.796 E0.33868
G1 X140.902 Y129.582 E0.39156
G1 X141.978 Y130.735 E0.44039
G1 X142.878 Y132.243 E0.49477
G1 X143.1 Y133.594 E0.53717
G1 X143.133 Y141.108 E0.76984
G1 X157.363 Y126.877 E1.39302
G1 X158.798 Y126.106 E1.44346
G1 X160.156 Y125.7 E1.48735
G1 X161.871 Y125.7 E1.54045
G1 X163.286 Y126.048 E1.58558
G1 X164.802 Y126.834 E1.63845
G1 X165.878 Y127.987 E1.68729
G1 X166.778 Y129.495 E1.74167
G1 X167 Y130.846 E1.78406
G1 X167.05 Y167.652 E2.92377
G1 X166.702 Y169.067 E2.96889
G1 X165.919 Y170.579 E3.02161
G1 X164.772 Y171.647 E3.07014
G1 X163.4 Y172.466 E3.11962
G1 X162.836 Y172.63 E3.13781
G1 X161.505 Y172.816 E3.17942
G1 X159.112 Y172.837 E3.25353
G1 X155.417 Y172.822 E3.36794
G1 X153.88 Y172.742 E3.4156
G1 X151.875 Y172.568 E3.47792
G1 X150.845 Y172.491 E3.5099
G1 X149.745 Y172.45 E3.54399
G1 X148.542 Y172.496 E3.58127
G1 X145.427 Y172.752 E3.67805
G1 X144.305 Y172.818 E3.71285
G1 X143.783 Y172.83 E3.72902
G1 X139.56 Y172.838 E3.85979
G1 X137.89 Y172.454 E3.91285
G1 X136.196 Y171.413 E3.97442
G1 X135.221 Y170.312 E4.01995
G1 X134.724 Y169.589 E4.04712
G1 X133.909 Y169.995 E4.07532
G1 X133.256 Y170.278 E4.09735
G1 X132.564 Y170.55 E4.12038
G1 X131.91 Y170.77 E4.14174
G1 X131.178 Y170.981 E4.16533
G1 X130.463 Y171.156 E4.18813
G1 X129.751 Y171.296 E4.2106
G1 X129.05 Y171.403 E4.23255
G1 X128.319 Y171.487 E4.25534
G1 X127.575 Y171.537 E4.27843
G1 X126.831 Y171.552 E4.30147
G1 X126.156 Y171.532 E4.32238
G1 X125.412 Y171.491 E4.34546
G1 X124.762 Y171.424 E4.36569
G1 X123.987 Y171.307 E4.38996
G1 X123.278 Y171.17 E4.41232
G1 X122.55 Y170.99 E4.43554
G1 X121.868 Y170.799 E4.45747
G1 X121.166 Y170.565 E4.48039
G1 X120.559 Y170.336 E4.50047
G1 X119.825 Y170.014 E4.52529
G1 X119.165 Y169.691 E4.54805
G1 X118.505 Y169.333 E4.5713
G1 X117.917 Y168.982 E4.5925
G1 X117.283 Y168.567 E4.61597
G1 X116.721 Y168.156 E4.63753
G1 X116.105 Y167.666 E4.6619
G1 X115.568 Y167.201 E4.68389
G1 X115.099 Y166.761 E4.70381
G1 X114.526 Y166.168 E4.72934
G1 X114.049 Y165.633 E4.75154
G1 X113.607 Y165.093 E4.77315
G1 X113.152 Y164.478 E4.79683
G1 X112.756 Y163.891 E4.81876
G1 X112.347 Y163.228 E4.84288
G1 X111.997 Y162.598 E4.8652
G1 X111.663 Y161.932 E4.88827
G1 X111.39 Y161.318 E4.90908
G1 X111.107 Y160.607 E4.93277
G1 X110.863 Y159.916 E4.95546
G1 X110.66 Y159.242 E4.97726
G1 X110.483 Y158.543 E4.99959
G1 X110.34 Y157.852 E5.02144
G1 X110.214 Y157.083 E5.04557
G1 X110.125 Y156.347 E5.06853
G1 X110.071 Y155.61 E5.09141
G1 X110.052 Y154.912 E5.11303
G1 X110.061 Y154.184 E5.13557
G1 X110.095 Y153.508 E5.15653
G1 X110.178 Y152.729 E5.18079
G1 X110.282 Y152.001 E5.20356
G1 X110.413 Y151.283 E5.22616
G1 X110.566 Y150.62 E5.24723
G1 X110.77 Y149.884 E5.27088
G1 X110.979 Y149.241 E5.29182
G1 X111.263 Y148.491 E5.31665
G1 X111.549 Y147.82 E5.33924
G1 X111.87 Y147.148 E5.3623
G1 X112.199 Y146.534 E5.38387
G1 X112.585 Y145.881 E5.40736
G1 X112.975 Y145.286 E5.42939
G1 X113.378 Y144.716 E5.451
G1 X113.842 Y144.123 E5.47432
G1 X114.306 Y143.581 E5.49641
G1 X114.798 Y143.045 E5.51894
G1 X115.221 Y142.622 E5.53746
G1 X128.178 Y130.219 E6.09287
G0 F540 X128.755 Y129.666
G0 F12000 X129.032 Y129.955
G1 F600 X129.504 Y129.63 E6.11062
G1 X131.029 Y129.032 E6.16134
G1 X131.822 Y128.848 E6.18655
G1 X137.925 Y128.848 E6.37553
G1 X139.243 Y129.172 E6.41756
G1 X140.657 Y129.905 E6.46687
G1 X141.657 Y130.977 E6.51227
G1 X142.495 Y132.381 E6.5629
G1 X142.705 Y133.659 E6.603
G1 X142.737 Y142.07 E6.86345
G1 X157.606 Y127.2 E7.51461
G1 X158.951 Y126.477 E7.56189
G1 X160.213 Y126.1 E7.60268
G1 X161.825 Y126.1 E7.65259
G1 X163.143 Y126.424 E7.69462
G1 X164.557 Y127.157 E7.74394
G1 X165.557 Y128.229 E7.78933
G1 X166.395 Y129.633 E7.83996
G1 X166.605 Y130.911 E7.88007
G1 X166.65 Y167.606 E9.01634
G1 X166.326 Y168.924 E9.05836
G1 X165.596 Y170.334 E9.10753
G1 X164.53 Y171.326 E9.15262
G1 X163.239 Y172.097 E9.19918
G1 X162.78 Y172.234 E9.21402
G1 X161.501 Y172.416 E9.25402
G1 X159.114 Y172.437 E9.32794
G1 X155.438 Y172.423 E9.44176
G1 X153.915 Y172.343 E9.48899
G1 X151.91 Y172.169 E9.55131
G1 X150.863 Y172.091 E9.58382
G1 X149.748 Y172.05 E9.61837
G1 X149.026 Y172.071 E9.64073
G1 X148.52 Y172.096 E9.65642
G1 X145.404 Y172.353 E9.75324
G1 X144.296 Y172.418 E9.7876
G1 X143.782 Y172.43 E9.80353
G1 X139.606 Y172.438 E9.93284
G1 X138.044 Y172.079 E9.98246
G1 X136.456 Y171.102 E10.0402
G1 X135.551 Y170.085 E10.08235
G1 X134.978 Y169.251 E10.11369
G1 X134.892 Y169.042 E10.12068
G1 X134.423 Y169.298 E10.13723
G1 X133.75 Y169.628 E10.16044
G1 X133.11 Y169.906 E10.18205
G1 X132.436 Y170.171 E10.20447
G1 X131.799 Y170.386 E10.22529
G1 X131.083 Y170.593 E10.24837
G1 X130.386 Y170.764 E10.27059
G1 X129.691 Y170.901 E10.29253
G1 X129.004 Y171.006 E10.31405
G1 X128.292 Y171.088 E10.33624
G1 X127.567 Y171.137 E10.35874
G1 X126.842 Y171.152 E10.3812
G1 X126.178 Y171.133 E10.40177
G1 X125.453 Y171.093 E10.42425
G1 X124.803 Y171.026 E10.44448
G1 X124.063 Y170.914 E10.46766
G1 X123.354 Y170.777 E10.49002
G1 X122.658 Y170.605 E10.51222
G1 X121.976 Y170.414 E10.53415
G1 X121.307 Y170.191 E10.55599
G1 X120.72 Y169.97 E10.57541
G1 X120.001 Y169.655 E10.59971
G1 X119.356 Y169.34 E10.62194
G1 X118.71 Y168.989 E10.64471
G1 X118.136 Y168.647 E10.6654
G1 X117.519 Y168.244 E10.68822
G1 X116.97 Y167.843 E10.70927
G1 X116.367 Y167.363 E10.73313
G1 X115.842 Y166.909 E10.75463
G1 X115.373 Y166.469 E10.77454
G1 X114.824 Y165.902 E10.79898
G1 X114.358 Y165.38 E10.82065
G1 X113.928 Y164.855 E10.84166
G1 X113.483 Y164.254 E10.86482
G1 X113.096 Y163.681 E10.88623
G1 X112.697 Y163.034 E10.90976
G1 X112.355 Y162.419 E10.93155
G1 X112.029 Y161.769 E10.95407
G1 X111.756 Y161.155 E10.97488
G1 X111.484 Y160.474 E10.99759
G1 X111.246 Y159.801 E11.01969
G1 X111.048 Y159.144 E11.04094
G1 X110.875 Y158.462 E11.06273
G1 X110.735 Y157.787 E11.08407
G1 X110.611 Y157.035 E11.10767
G1 X110.524 Y156.318 E11.13004
G1 X110.471 Y155.599 E11.15236
G1 X110.452 Y154.916 E11.17352
G1 X110.46 Y154.204 E11.19557
G1 X110.493 Y153.55 E11.21584
G1 X110.574 Y152.785 E11.23967
G1 X110.675 Y152.073 E11.26193
G1 X110.803 Y151.373 E11.28397
G1 X110.956 Y150.71 E11.30504
G1 X111.151 Y150.007 E11.32763
G1 X111.353 Y149.383 E11.34794
G1 X111.631 Y148.648 E11.37227
G1 X111.91 Y147.992 E11.39434
G1 X112.223 Y147.337 E11.41682
G1 X112.552 Y146.723 E11.43839
G1 X112.92 Y146.1 E11.4608
G1 X113.302 Y145.517 E11.48238
G1 X113.705 Y144.947 E11.504
G1 X114.146 Y144.383 E11.52617
G1 X114.601 Y143.851 E11.54784
G1 X115.081 Y143.328 E11.56983
G1 X115.498 Y142.911 E11.58809
G1 X128.455 Y130.508 E12.14349
G0 F540 X129.032 Y129.955
G0 F12000 X129.259 Y130.285
G1 F600 X129.695 Y129.985 E12.15988
G1 X131.119 Y129.422 E12.2073
G1 X131.869 Y129.248 E12.23114
G1 X137.879 Y129.248 E12.41724
G1 X139.1 Y129.548 E12.45617
G1 X140.41 Y130.227 E12.50186
G1 X141.338 Y131.222 E12.54399
G1 X142.112 Y132.519 E12.59076
G1 X142.31 Y133.724 E12.62858
G1 X142.34 Y143.033 E12.91683
G1 X157.849 Y127.523 E13.59601
G1 X159.103 Y126.849 E13.6401
G1 X160.271 Y126.5 E13.67785
G1 X161.779 Y126.5 E13.72454
G1 X163 Y126.8 E13.76347
G1 X164.31 Y127.479 E13.80916
G1 X165.238 Y128.474 E13.85129
G1 X166.012 Y129.771 E13.89806
G1 X166.21 Y130.976 E13.93588
G1 X166.25 Y167.56 E15.06871
G1 X165.95 Y168.781 E15.10764
G1 X165.273 Y170.089 E15.15325
G1 X164.288 Y171.005 E15.1949
G1 X163.079 Y171.727 E15.2385
G1 X162.722 Y171.838 E15.25008
G1 X161.497 Y172.016 E15.28841
G1 X159.115 Y172.037 E15.36217
G1 X155.459 Y172.024 E15.47538
G1 X153.95 Y171.944 E15.52217
G1 X151.945 Y171.77 E15.58449
G1 X150.881 Y171.691 E15.61753
G1 X149.752 Y171.65 E15.65251
G1 X149.006 Y171.671 E15.67562
G1 X148.498 Y171.696 E15.69137
G1 X145.381 Y171.954 E15.78822
G1 X144.286 Y172.018 E15.82218
G1 X143.781 Y172.03 E15.83783
G1 X139.652 Y172.038 E15.96568
G1 X138.197 Y171.703 E16.01191
G1 X136.716 Y170.793 E16.06574
G1 X135.85 Y169.819 E16.1061
G1 X135.308 Y169.025 E16.13587
G1 X135.114 Y168.446 E16.15477
G1 X134.823 Y168.625 E16.16535
G1 X134.247 Y168.939 E16.18567
G1 X133.59 Y169.261 E16.20832
G1 X132.964 Y169.534 E16.22947
G1 X132.308 Y169.792 E16.2513
G1 X131.687 Y170.002 E16.2716
G1 X130.988 Y170.205 E16.29414
G1 X130.308 Y170.372 E16.31582
G1 X129.63 Y170.506 E16.33722
G1 X128.958 Y170.609 E16.35827
G1 X128.265 Y170.689 E16.37987
G1 X127.558 Y170.737 E16.40181
G1 X126.853 Y170.752 E16.42365
G1 X126.2 Y170.734 E16.44388
G1 X125.494 Y170.695 E16.46577
G1 X124.844 Y170.628 E16.48601
G1 X124.139 Y170.521 E16.50809
G1 X123.43 Y170.384 E16.53045
G1 X122.766 Y170.22 E16.55163
G1 X122.102 Y170.034 E16.57298
G1 X121.448 Y169.817 E16.59432
G1 X120.88 Y169.603 E16.61311
G1 X120.177 Y169.296 E16.63686
G1 X119.547 Y168.988 E16.65858
G1 X118.915 Y168.645 E16.68085
G1 X118.341 Y168.303 E16.70154
G1 X117.755 Y167.921 E16.7232
G1 X117.219 Y167.53 E16.74374
G1 X116.629 Y167.061 E16.76708
G1 X116.116 Y166.617 E16.78809
G1 X115.647 Y166.177 E16.808
G1 X115.122 Y165.635 E16.83137
G1 X114.667 Y165.126 E16.85251
G1 X114.249 Y164.617 E16.8729
G1 X113.814 Y164.03 E16.89552
G1 X113.436 Y163.471 E16.91642
G1 X113.046 Y162.839 E16.93942
G1 X112.712 Y162.239 E16.96068
G1 X112.394 Y161.606 E16.98262
G1 X112.127 Y161.007 E17.00292
G1 X111.861 Y160.341 E17.02513
G1 X111.629 Y159.685 E17.04668
G1 X111.436 Y159.046 E17.06735
G1 X111.267 Y158.38 E17.08862
G1 X111.13 Y157.722 E17.10943
G1 X111.008 Y156.987 E17.1325
G1 X110.923 Y156.288 E17.15431
G1 X110.871 Y155.588 E17.17604
G1 X110.852 Y154.92 E17.19674
G1 X110.859 Y154.224 E17.21829
G1 X110.891 Y153.592 E17.23789
G1 X110.97 Y152.841 E17.26127
G1 X111.068 Y152.145 E17.28303
G1 X111.193 Y151.463 E17.3045
G1 X111.346 Y150.8 E17.32557
G1 X111.532 Y150.13 E17.3471
G1 X111.734 Y149.506 E17.36741
G1 X111.999 Y148.804 E17.39065
G1 X112.271 Y148.164 E17.41218
G1 X112.575 Y147.526 E17.43407
G1 X112.897 Y146.926 E17.45515
G1 X113.255 Y146.319 E17.47697
G1 X113.629 Y145.748 E17.49811
G1 X114.032 Y145.178 E17.51972
G1 X114.45 Y144.643 E17.54075
G1 X114.896 Y144.121 E17.56201
G1 X115.364 Y143.611 E17.58344
G1 X115.775 Y143.2 E17.60144
G1 X128.682 Y130.838 E18.15485
G0 F540 X129.259 Y130.285
G0 F12000 X129.536 Y130.574
G1 F600 X129.883 Y130.341 E18.16779
G1 X131.209 Y129.812 E18.212
G1 X131.916 Y129.648 E18.23447
G1 X137.833 Y129.648 E18.41769
G1 X138.957 Y129.924 E18.45353
G1 X140.163 Y130.549 E18.49559
G1 X141.016 Y131.464 E18.53433
G1 X141.729 Y132.659 E18.57742
G1 X141.915 Y133.789 E18.61288
G1 X141.943 Y143.996 E18.92894
G1 X158.092 Y127.846 E19.63615
G1 X159.255 Y127.221 E19.67704
G1 X160.329 Y126.9 E19.71175
G1 X161.733 Y126.9 E19.75522
G1 X162.857 Y127.176 E19.79106
G1 X164.063 Y127.801 E19.83312
G1 X164.916 Y128.716 E19.87186
G1 X165.629 Y129.911 E19.91495
G1 X165.815 Y131.041 E19.95041
G1 X165.85 Y167.514 E21.0798
G1 X165.574 Y168.638 E21.11564
G1 X164.95 Y169.844 E21.15769
G1 X164.046 Y170.684 E21.1959
G1 X162.916 Y171.359 E21.23666
G1 X162.663 Y171.442 E21.2449
G1 X161.493 Y171.616 E21.28153
G1 X159.116 Y171.637 E21.35514
G1 X155.48 Y171.625 E21.46773
G1 X153.985 Y171.545 E21.51409
G1 X151.98 Y171.371 E21.5764
G1 X150.9 Y171.291 E21.60994
G1 X149.755 Y171.25 E21.64542
G1 X148.986 Y171.271 E21.66924
G1 X148.476 Y171.296 E21.68505
G1 X145.358 Y171.555 E21.78193
G1 X144.276 Y171.618 E21.81549
G1 X143.78 Y171.63 E21.83085
G1 X139.698 Y171.638 E21.95725
G1 X138.351 Y171.328 E22.00006
G1 X136.975 Y170.482 E22.05007
G1 X136.18 Y169.593 E22.087
G1 X135.669 Y168.845 E22.11505
G1 X135.334 Y167.842 E22.1478
G1 X134.631 Y168.274 E22.17335
G1 X134.071 Y168.58 E22.19311
G1 X133.43 Y168.894 E22.21521
G1 X132.817 Y169.162 E22.23593
G1 X132.18 Y169.413 E22.25713
G1 X131.575 Y169.618 E22.27691
G1 X130.893 Y169.817 E22.29891
G1 X130.23 Y169.98 E22.32005
G1 X129.569 Y170.111 E22.34091
G1 X128.912 Y170.212 E22.3615
G1 X128.238 Y170.29 E22.38251
G1 X127.549 Y170.337 E22.40389
G1 X126.864 Y170.352 E22.42511
G1 X126.222 Y170.335 E22.44499
G1 X125.535 Y170.297 E22.4663
G1 X124.904 Y170.232 E22.48594
G1 X124.215 Y170.128 E22.50752
G1 X123.506 Y169.991 E22.52988
G1 X122.874 Y169.835 E22.55004
G1 X122.228 Y169.654 E22.57081
G1 X121.589 Y169.442 E22.59166
G1 X121.04 Y169.236 E22.60982
G1 X120.353 Y168.937 E22.63302
G1 X119.738 Y168.636 E22.65422
G1 X119.12 Y168.301 E22.67599
G1 X118.546 Y167.959 E22.69667
G1 X117.991 Y167.598 E22.71718
G1 X117.468 Y167.217 E22.73721
G1 X116.891 Y166.759 E22.76002
G1 X116.39 Y166.325 E22.78055
G1 X115.921 Y165.885 E22.80046
G1 X115.42 Y165.368 E22.82275
G1 X114.976 Y164.872 E22.84337
G1 X114.57 Y164.378 E22.86317
G1 X114.145 Y163.806 E22.88523
G1 X113.776 Y163.261 E22.90561
G1 X113.395 Y162.644 E22.92807
G1 X113.069 Y162.059 E22.94881
G1 X112.759 Y161.443 E22.97016
G1 X112.498 Y160.858 E22.99
G1 X112.238 Y160.208 E23.01167
G1 X112.012 Y159.569 E23.03266
G1 X111.824 Y158.948 E23.05275
G1 X111.659 Y158.298 E23.07352
G1 X111.525 Y157.656 E23.09383
G1 X111.405 Y156.939 E23.11634
G1 X111.322 Y156.258 E23.13758
G1 X111.271 Y155.576 E23.15876
G1 X111.252 Y154.924 E23.17896
G1 X111.258 Y154.244 E23.20001
G1 X111.289 Y153.634 E23.21893
G1 X111.366 Y152.896 E23.2419
G1 X111.461 Y152.217 E23.26313
G1 X111.583 Y151.553 E23.28404
G1 X111.736 Y150.89 E23.30511
G1 X111.913 Y150.253 E23.32558
G1 X112.115 Y149.629 E23.34589
G1 X112.367 Y148.96 E23.36803
G1 X112.632 Y148.336 E23.38902
G1 X112.928 Y147.715 E23.41032
G1 X113.242 Y147.129 E23.43091
G1 X113.59 Y146.538 E23.45214
G1 X113.955 Y145.979 E23.47282
G1 X114.348 Y145.424 E23.49387
G1 X114.754 Y144.903 E23.51433
G1 X115.191 Y144.391 E23.53517
G1 X115.647 Y143.894 E23.55606
G1 X116.052 Y143.489 E23.57379
G1 X128.959 Y131.127 E24.1272
G0 F540 X129.536 Y130.574
G0 F12000 X129.813 Y130.863
G1 F600 X130.069 Y130.698 E24.13663
G1 X131.357 Y130.184 E24.17958
G1 X131.961 Y130.048 E24.19875
G1 X137.786 Y130.048 E24.37912
G1 X138.815 Y130.301 E24.41193
G1 X139.916 Y130.871 E24.45032
G1 X140.694 Y131.706 E24.48566
G1 X141.346 Y132.799 E24.52507
G1 X141.52 Y133.854 E24.55818
G1 X141.545 Y144.96 E24.90208
G1 X158.335 Y128.169 E25.63736
G1 X159.407 Y127.593 E25.67504
G1 X160.387 Y127.3 E25.70672
G1 X161.686 Y127.3 E25.74694
G1 X162.715 Y127.553 E25.77975
G1 X163.816 Y128.123 E25.81814
G1 X164.594 Y128.958 E25.85348
G1 X165.246 Y130.051 E25.89289
G1 X165.42 Y131.106 E25.926
G1 X165.45 Y167.468 E27.05196
G1 X165.198 Y168.495 E27.0847
G1 X164.627 Y169.599 E27.12319
G1 X163.804 Y170.363 E27.15796
G1 X162.75 Y170.993 E27.19599
G1 X162.604 Y171.046 E27.2008
G1 X161.434 Y171.22 E27.23742
G1 X159.117 Y171.237 E27.30917
G1 X155.502 Y171.226 E27.42111
G1 X154.02 Y171.146 E27.46707
G1 X152.015 Y170.972 E27.52939
G1 X150.917 Y170.891 E27.56348
G1 X149.758 Y170.85 E27.59939
G1 X148.967 Y170.871 E27.62389
G1 X148.452 Y170.896 E27.63986
G1 X145.335 Y171.156 E27.73671
G1 X144.266 Y171.218 E27.76987
G1 X143.779 Y171.23 E27.78495
G1 X139.744 Y171.238 E27.9099
G1 X138.505 Y170.953 E27.94927
