;FLAVOR:Marlin
;TIME:4345
;Filament used: 3.22847m
;Layer height: 0.2
;MINX:74.938
;MINY:74.225
;MINZ:0.2
;MAXX:126.247
;MAXY:123.428
;MAXZ:39.6
;Generated with Cura_SteamEngine 5.4.0
M82 ;absolute extrusion mode
M140 S65.0 ; set bed temp  ; set bed temperature and continue 
M104 S230.0   ; set hot end temperature and continue
M106 S190; fan on for correct PID
G4  P3000 ; wait 3 sec
;G1 X20 Y20 F3000 ; go to parking pos.
M109 S230.0   ; wait for hot end temperature to reach e.g. 210 °C
G1 E-5 F300
M106 S0; fan off
G28 ; Home all axes
G1 Z10 F300 ; Z raise
;BED_MESH_CALIBRATE PROFILE=mesh1 METHOD=automatic
G4  P1000 ; wait a second
; prime nozzle


G1 X30 Y191 F7200 ; move to start
G1 Z0.3 F800 ; Move to layer height
G92 E0.0 
G1 X170 Y191 E20 F800 ; print prime line
G1 X170 Y190 F7200 ; move to start
G1 X30 Y190 E40 F800 ; print prime line
G92 E0
G92 E0
G1 F4800 E-2
;LAYER_COUNT:199
;LAYER:0
M107 P1
G0 F7200 X77.77 Y87.062 Z0.2
;TYPE:SKIRT
G1 F1920 E0
G1 F1200 X78.579 Y86.464 E0.03764
G1 X79.309 Y86.056 E0.06893
G1 X80.431 Y85.602 E0.11422
G1 X81.433 Y85.345 E0.15293
G1 X82.017 Y85.262 E0.175
G1 X102.462 Y85.239 E0.94001
G1 X103.441 Y85.361 E0.97692
G1 X104.293 Y85.569 E1.00974
G1 X105.251 Y85.935 E1.04811
G1 X105.63 Y86.142 E1.06427
G1 X105.689 Y85.984 E1.07058
G1 X105.735 Y81.669 E1.23205
G1 X105.973 Y80.166 E1.28899
G1 X106.003 Y80.056 E1.29325
G1 X106.399 Y78.92 E1.33827
G1 X106.818 Y78.117 E1.37216
G1 X107.363 Y77.309 E1.40863
G1 X107.811 Y76.777 E1.43465
G1 X108.562 Y76.056 E1.4736
G1 X109.204 Y75.573 E1.50367
G1 X110.224 Y75 E1.54744
G1 X111.302 Y74.582 E1.5907
G1 X112.12 Y74.378 E1.62225
G1 X113.394 Y74.233 E1.67023
G1 X118.374 Y74.225 E1.85657
G1 X119.965 Y74.404 E1.91647
G1 X120.659 Y74.58 E1.94326
G1 X121.553 Y74.92 E1.97905
G1 X122.817 Y75.622 E2.03315
G1 X123.52 Y76.165 E2.06639
G1 X124.364 Y77.007 E2.111
G1 X124.904 Y77.709 E2.14414
G1 X125.436 Y78.627 E2.18384
G1 X125.682 Y79.183 E2.20659
G1 X126.17 Y80.974 E2.27605
G1 X126.22 Y81.388 E2.29165
G1 X126.247 Y89.305 E2.58789
G1 X126.066 Y90.742 E2.64208
G1 X125.895 Y91.396 E2.66738
G1 X125.597 Y92.181 E2.69879
G1 X124.83 Y93.576 E2.75836
G1 X124.424 Y94.112 E2.78352
G1 X124.752 Y94.965 E2.81772
G1 X124.949 Y95.828 E2.85084
G1 X125.062 Y97.09 E2.89825
G1 X125.027 Y98.193 E2.93954
G1 X125.009 Y98.336 E2.94493
G1 X125.062 Y99.085 E2.97303
G1 X125.023 Y100.254 E3.0168
G1 X125.01 Y100.36 E3.02079
G1 X125.062 Y101.041 E3.04635
G1 X125.033 Y102.02 E3.083
G1 X124.818 Y103.387 E3.13477
G1 X124.744 Y103.673 E3.14583
G1 X124.715 Y104.099 E3.16181
G1 X124.579 Y104.892 E3.19191
G1 X124.198 Y106.208 E3.24317
G1 X124.134 Y106.367 E3.24959
G1 X123.958 Y107.248 E3.2832
G1 X123.675 Y108.171 E3.31933
G1 X123.605 Y108.346 E3.32638
G1 X123.487 Y109.004 E3.35139
G1 X123.217 Y109.959 E3.38853
G1 X123.056 Y110.376 E3.40525
G1 X122.895 Y111.227 E3.43766
G1 X122.626 Y112.111 E3.47224
G1 X122.545 Y112.314 E3.48041
G1 X122.499 Y112.616 E3.49184
G1 X122.063 Y114.185 E3.55278
G1 X121.996 Y114.361 E3.55982
G1 X121.859 Y115.087 E3.58747
G1 X121.571 Y116.07 E3.6258
G1 X121.472 Y116.328 E3.63614
G1 X121.394 Y116.775 E3.65311
G1 X120.987 Y118.191 E3.70824
G1 X120.477 Y119.316 E3.75446
G1 X119.73 Y120.445 E3.80512
G1 X119.095 Y121.144 E3.84045
G1 X118.078 Y121.997 E3.89012
G1 X117.145 Y122.559 E3.93087
G1 X116.438 Y122.876 E3.95987
G1 X115.79 Y123.096 E3.98547
G1 X115.096 Y123.263 E4.01218
G1 X113.569 Y123.428 E4.06965
G1 X104.552 Y123.373 E4.40705
G1 X103.689 Y123.238 E4.43974
G1 X102.867 Y123.019 E4.47157
G1 X102.074 Y122.706 E4.50347
G1 X101.095 Y122.175 E4.54514
G1 X100.048 Y121.384 E4.59424
G1 X99.516 Y120.858 E4.62223
G1 X98.702 Y119.809 E4.67191
G1 X98.499 Y119.459 E4.68705
G1 X98.204 Y119.989 E4.70975
G1 X97.782 Y120.55 E4.73602
G1 X96.676 Y121.655 E4.79452
G1 X96.204 Y122.013 E4.81668
G1 X95.197 Y122.604 E4.86037
G1 X94.576 Y122.873 E4.88569
G1 X92.813 Y123.342 E4.95396
G1 X92.248 Y123.401 E4.97521
G1 X82.703 Y123.422 E5.33236
G1 X81.061 Y123.214 E5.3943
G1 X80.505 Y123.065 E5.41583
G1 X79.574 Y122.707 E5.45316
G1 X78.595 Y122.176 E5.49483
G1 X77.548 Y121.385 E5.54393
G1 X77.016 Y120.859 E5.57192
G1 X76.202 Y119.81 E5.62161
G1 X75.827 Y119.151 E5.64998
G1 X75.29 Y117.814 E5.70389
G1 X75.042 Y116.755 E5.74459
G1 X74.938 Y115.558 E5.78954
G1 X74.977 Y114.39 E5.83327
G1 X74.99 Y114.277 E5.83753
G1 X74.938 Y113.558 E5.8645
G1 X74.977 Y112.39 E5.90823
G1 X74.99 Y112.277 E5.91249
G1 X74.938 Y111.558 E5.93946
G1 X74.977 Y110.387 E5.9833
G1 X74.99 Y110.274 E5.98756
G1 X74.938 Y109.553 E6.0146
G1 X74.973 Y108.449 E6.05593
G1 X74.991 Y108.304 E6.0614
G1 X74.938 Y107.552 E6.08961
G1 X74.973 Y106.449 E6.1309
G1 X74.991 Y106.306 E6.13629
G1 X74.938 Y105.559 E6.16431
G1 X74.975 Y104.403 E6.20759
G1 X74.99 Y104.284 E6.21208
G1 X74.938 Y103.558 E6.23931
G1 X74.977 Y102.39 E6.28304
G1 X74.99 Y102.277 E6.2873
G1 X74.938 Y101.558 E6.31427
G1 X74.977 Y100.389 E6.35804
G1 X74.99 Y100.276 E6.36229
G1 X74.938 Y99.557 E6.38927
G1 X74.977 Y98.389 E6.433
G1 X74.99 Y98.276 E6.43725
G1 X74.938 Y97.558 E6.46419
G1 X74.976 Y96.398 E6.50762
G1 X74.991 Y96.279 E6.5121
G1 X74.938 Y95.549 E6.53949
G1 X74.974 Y94.438 E6.58108
G1 X74.99 Y94.302 E6.58621
G1 X74.938 Y93.555 E6.61423
G1 X74.977 Y92.442 E6.6559
G1 X75.123 Y91.474 E6.69253
G1 X75.336 Y90.659 E6.72405
G1 X75.577 Y90.026 E6.74939
G1 X76.333 Y88.647 E6.80824
G1 X76.877 Y87.946 E6.84144
G1 X77.77 Y87.062 E6.88845
G0 F7200 X78.087 Y87.382
G1 F1200 X78.799 Y86.857 E6.92155
G1 X79.529 Y86.449 E6.95285
G1 X80.544 Y86.038 E6.99382
G1 X81.496 Y85.791 E7.03062
G1 X82.08 Y85.708 E7.05269
G1 X102.406 Y85.686 E7.81324
G1 X103.385 Y85.808 E7.85016
G1 X104.134 Y85.99 E7.879
G1 X105.035 Y86.33 E7.91503
G1 X105.876 Y86.789 E7.95088
G1 X105.897 Y86.709 E7.95398
G1 X106.138 Y86.067 E7.97964
G1 X106.185 Y81.674 E8.14402
G1 X106.41 Y80.275 E8.19704
G1 X106.428 Y80.203 E8.19982
G1 X106.799 Y79.127 E8.24241
G1 X107.192 Y78.368 E8.27439
G1 X107.708 Y77.598 E8.30907
G1 X108.124 Y77.101 E8.33332
G1 X108.833 Y76.416 E8.37021
G1 X109.475 Y75.933 E8.40027
G1 X110.388 Y75.419 E8.43948
G1 X111.411 Y75.019 E8.48058
G1 X112.229 Y74.815 E8.51212
G1 X113.395 Y74.683 E8.55603
G1 X118.375 Y74.675 E8.74237
G1 X119.856 Y74.841 E8.79813
G1 X120.499 Y75.001 E8.82293
G1 X121.393 Y75.341 E8.85872
G1 X122.543 Y75.979 E8.90792
G1 X123.202 Y76.484 E8.93899
G1 X124.046 Y77.326 E8.9836
G1 X124.515 Y77.936 E9.01239
G1 X125.024 Y78.809 E9.0502
G1 X125.27 Y79.365 E9.07295
G1 X125.723 Y81.028 E9.13744
G1 X125.773 Y81.442 E9.15305
G1 X125.797 Y89.306 E9.4473
G1 X125.63 Y90.63 E9.49724
G1 X125.473 Y91.239 E9.52077
G1 X125.202 Y91.965 E9.54976
G1 X124.471 Y93.304 E9.60685
G1 X124.066 Y93.839 E9.63195
G1 X123.903 Y94.016 E9.64096
G1 X124.313 Y95.065 E9.6831
G1 X124.51 Y95.928 E9.71622
G1 X124.612 Y97.076 E9.75935
G1 X124.58 Y98.138 E9.7991
G1 X124.557 Y98.324 E9.80611
G1 X124.612 Y99.07 E9.8341
G1 X124.573 Y100.239 E9.87787
G1 X124.557 Y100.35 E9.88207
G1 X124.612 Y101.029 E9.90756
G1 X124.588 Y101.95 E9.94203
G1 X124.373 Y103.317 E9.99381
G1 X124.298 Y103.599 E10.00473
G1 X124.271 Y104.023 E10.02062
G1 X124.135 Y104.816 E10.05073
G1 X123.78 Y106.041 E10.09845
G1 X123.702 Y106.236 E10.10631
G1 X123.528 Y107.117 E10.13991
G1 X123.257 Y108.005 E10.17465
G1 X123.17 Y108.224 E10.18347
G1 X123.044 Y108.924 E10.21008
G1 X122.797 Y109.797 E10.24403
G1 X122.622 Y110.25 E10.2622
G1 X122.464 Y111.096 E10.2944
G1 X122.195 Y111.98 E10.32898
G1 X122.108 Y112.195 E10.33766
G1 X122.054 Y112.548 E10.35102
G1 X121.63 Y114.064 E10.40992
G1 X121.56 Y114.24 E10.41701
G1 X121.427 Y114.96 E10.4444
G1 X121.139 Y115.943 E10.48273
G1 X121.035 Y116.21 E10.49345
G1 X120.961 Y116.652 E10.51022
G1 X120.577 Y118.005 E10.56285
G1 X120.067 Y119.13 E10.60907
G1 X119.396 Y120.144 E10.65456
G1 X118.804 Y120.8 E10.68763
G1 X117.844 Y121.612 E10.73467
G1 X116.961 Y122.148 E10.77332
G1 X116.254 Y122.465 E10.80232
G1 X115.685 Y122.658 E10.8248
G1 X114.991 Y122.825 E10.85151
G1 X113.572 Y122.978 E10.90491
G1 X104.622 Y122.928 E11.2398
G1 X103.759 Y122.793 E11.27249
G1 X103.031 Y122.6 E11.30067
G1 X102.289 Y122.31 E11.33048
G1 X101.31 Y121.779 E11.37215
G1 X100.363 Y121.062 E11.4166
G1 X99.872 Y120.582 E11.44229
G1 X99.058 Y119.533 E11.49197
G1 X98.745 Y118.982 E11.51568
G1 X98.534 Y118.455 E11.53692
G1 X97.844 Y119.718 E11.59077
G1 X97.422 Y120.279 E11.61704
G1 X96.404 Y121.296 E11.67088
G1 X95.932 Y121.654 E11.69305
G1 X95.015 Y122.192 E11.73283
G1 X94.459 Y122.438 E11.75558
G1 X92.766 Y122.894 E11.82119
G1 X92.201 Y122.953 E11.84244
G1 X82.702 Y122.972 E12.19787
G1 X81.177 Y122.779 E12.25539
G1 X80.621 Y122.63 E12.27693
G1 X79.789 Y122.311 E12.31027
G1 X78.81 Y121.78 E12.35194
G1 X77.863 Y121.063 E12.39639
G1 X77.372 Y120.583 E12.42208
G1 X76.558 Y119.534 E12.47176
G1 X76.245 Y118.983 E12.49548
G1 X75.708 Y117.646 E12.54939
G1 X75.49 Y116.715 E12.58517
G1 X75.388 Y115.573 E12.62807
G1 X75.427 Y114.405 E12.6718
G1 X75.443 Y114.292 E12.67607
G1 X75.388 Y113.573 E12.70305
G1 X75.427 Y112.405 E12.74678
G1 X75.443 Y112.292 E12.75105
G1 X75.388 Y111.573 E12.77803
G1 X75.427 Y110.402 E12.82187
G1 X75.443 Y110.289 E12.82614
G1 X75.388 Y109.567 E12.85323
G1 X75.42 Y108.504 E12.89303
G1 X75.443 Y108.317 E12.90008
G1 X75.388 Y107.566 E12.92825
G1 X75.42 Y106.504 E12.96801
G1 X75.443 Y106.318 E12.97502
G1 X75.388 Y105.573 E13.00297
G1 X75.422 Y104.458 E13.04471
G1 X75.442 Y104.295 E13.05086
G1 X75.388 Y103.573 E13.07795
G1 X75.427 Y102.405 E13.12168
G1 X75.443 Y102.292 E13.12595
G1 X75.388 Y101.573 E13.15293
G1 X75.427 Y100.404 E13.19669
G1 X75.443 Y100.291 E13.20096
G1 X75.388 Y99.572 E13.22795
G1 X75.427 Y98.404 E13.27167
G1 X75.443 Y98.291 E13.27594
G1 X75.388 Y97.572 E13.30293
G1 X75.423 Y96.453 E13.34482
G1 X75.443 Y96.29 E13.35096
G1 X75.388 Y95.564 E13.3782
G1 X75.424 Y94.453 E13.4198
G1 X75.442 Y94.311 E13.42515
G1 X75.388 Y93.571 E13.45292
G1 X75.427 Y92.458 E13.49459
G1 X75.559 Y91.586 E13.52759
G1 X75.757 Y90.819 E13.55723
G1 X75.998 Y90.186 E13.58257
G1 X76.69 Y88.921 E13.63652
G1 X77.194 Y88.266 E13.66745
G1 X78.087 Y87.382 E13.71447
G0 F7200 X78.356 Y87.743
G1 F1200 X79.019 Y87.25 E13.74538
G1 X79.749 Y86.842 E13.77667
G1 X80.658 Y86.473 E13.81338
G1 X81.559 Y86.237 E13.84823
G1 X82.143 Y86.154 E13.8703
G1 X102.406 Y86.136 E14.6285
G1 X103.281 Y86.246 E14.66149
G1 X103.977 Y86.412 E14.68827
G1 X104.819 Y86.725 E14.72188
G1 X105.865 Y87.296 E14.76647
G1 X106.182 Y87.533 E14.78128
G1 X106.32 Y86.864 E14.80684
G1 X106.53 Y86.291 E14.82967
G1 X106.587 Y86.166 E14.83482
G1 X106.635 Y81.679 E15.00272
G1 X106.854 Y80.348 E15.05319
G1 X107.199 Y79.333 E15.0933
G1 X107.566 Y78.619 E15.12334
G1 X108.082 Y77.849 E15.15802
G1 X108.438 Y77.424 E15.17877
G1 X109.104 Y76.776 E15.21354
G1 X109.746 Y76.293 E15.2436
G1 X110.607 Y75.812 E15.2805
G1 X111.52 Y75.456 E15.31717
G1 X112.338 Y75.252 E15.34872
G1 X113.396 Y75.133 E15.38855
G1 X118.376 Y75.125 E15.57489
G1 X119.747 Y75.278 E15.62651
G1 X120.39 Y75.438 E15.6513
G1 X121.176 Y75.735 E15.68274
G1 X122.271 Y76.338 E15.72952
G1 X122.884 Y76.803 E15.75831
G1 X123.728 Y77.645 E15.80292
G1 X124.127 Y78.164 E15.82741
G1 X124.612 Y78.991 E15.86329
G1 X124.858 Y79.547 E15.88604
G1 X125.276 Y81.082 E15.94556
G1 X125.326 Y81.496 E15.96117
G1 X125.347 Y89.307 E16.25344
G1 X125.194 Y90.519 E16.29915
G1 X125.05 Y91.084 E16.32096
G1 X124.806 Y91.751 E16.34754
G1 X124.112 Y93.032 E16.40205
G1 X123.707 Y93.567 E16.42716
G1 X123.38 Y93.917 E16.44508
G1 X123.874 Y95.165 E16.49531
G1 X124.071 Y96.028 E16.52843
G1 X124.162 Y97.063 E16.5673
G1 X124.133 Y98.084 E16.60552
G1 X124.105 Y98.314 E16.61419
G1 X124.162 Y99.056 E16.64204
G1 X124.127 Y100.177 E16.684
G1 X124.105 Y100.334 E16.68994
G1 X124.162 Y101.019 E16.71566
G1 X124.143 Y101.88 E16.74788
G1 X123.928 Y103.247 E16.79966
G1 X123.852 Y103.526 E16.81048
G1 X123.827 Y103.947 E16.82626
G1 X123.691 Y104.74 E16.85636
G1 X123.362 Y105.874 E16.90055
G1 X123.268 Y106.109 E16.91002
G1 X123.097 Y106.987 E16.94349
G1 X122.839 Y107.839 E16.9768
G1 X122.735 Y108.101 E16.98734
G1 X122.611 Y108.801 E17.01394
G1 X122.364 Y109.674 E17.04789
G1 X122.186 Y110.128 E17.06614
G1 X122.033 Y110.965 E17.09798
G1 X121.764 Y111.849 E17.13255
G1 X121.671 Y112.075 E17.14169
G1 X121.609 Y112.48 E17.15703
G1 X121.212 Y113.897 E17.21209
G1 X121.125 Y114.115 E17.22087
G1 X120.995 Y114.833 E17.24817
G1 X120.707 Y115.816 E17.2865
G1 X120.599 Y116.087 E17.29742
G1 X120.528 Y116.529 E17.31417
G1 X120.144 Y117.882 E17.36679
G1 X119.658 Y118.942 E17.41043
G1 X119.061 Y119.844 E17.4509
G1 X118.513 Y120.456 E17.48164
G1 X117.553 Y121.268 E17.52868
G1 X116.777 Y121.737 E17.56261
G1 X116.07 Y122.054 E17.5916
G1 X115.58 Y122.22 E17.61096
G1 X114.886 Y122.387 E17.63767
G1 X113.574 Y122.528 E17.68705
G1 X104.692 Y122.483 E18.01939
G1 X103.829 Y122.348 E18.05208
G1 X103.193 Y122.18 E18.07669
G1 X102.504 Y121.914 E18.10433
G1 X101.525 Y121.383 E18.146
G1 X100.678 Y120.74 E18.18579
G1 X100.187 Y120.26 E18.21148
G1 X99.448 Y119.308 E18.25658
G1 X99.163 Y118.814 E18.27792
G1 X98.626 Y117.475 E18.3319
G1 X98.522 Y117.011 E18.34969
G1 X98.354 Y117.662 E18.37485
G1 X98.113 Y118.295 E18.40019
G1 X97.484 Y119.447 E18.4493
G1 X97.062 Y120.008 E18.47557
G1 X96.132 Y120.937 E18.52476
G1 X95.66 Y121.295 E18.54692
G1 X94.833 Y121.78 E18.5828
G1 X94.277 Y122.026 E18.60555
G1 X92.719 Y122.446 E18.66592
G1 X92.154 Y122.505 E18.68718
G1 X82.701 Y122.522 E19.04089
G1 X81.293 Y122.344 E19.09399
G1 X80.737 Y122.195 E19.11553
G1 X80.004 Y121.915 E19.14489
G1 X79.025 Y121.384 E19.18657
G1 X78.178 Y120.741 E19.22636
G1 X77.687 Y120.261 E19.25205
G1 X76.948 Y119.309 E19.29714
G1 X76.663 Y118.815 E19.31848
G1 X76.126 Y117.478 E19.37239
G1 X75.929 Y116.615 E19.40552
G1 X75.838 Y115.587 E19.44413
G1 X75.873 Y114.468 E19.48602
G1 X75.896 Y114.305 E19.49218
G1 X75.838 Y113.587 E19.51914
G1 X75.873 Y112.468 E19.56103
G1 X75.896 Y112.305 E19.56719
G1 X75.838 Y111.587 E19.59414
G1 X75.873 Y110.465 E19.63614
G1 X75.896 Y110.303 E19.64227
G1 X75.838 Y109.58 E19.66941
G1 X75.867 Y108.558 E19.70766
G1 X75.895 Y108.327 E19.71637
G1 X75.838 Y107.579 E19.74444
G1 X75.867 Y106.558 E19.78266
G1 X75.895 Y106.328 E19.79133
G1 X75.838 Y105.586 E19.81917
G1 X75.869 Y104.514 E19.8593
G1 X75.895 Y104.305 E19.86718
G1 X75.838 Y103.587 E19.89413
G1 X75.873 Y102.468 E19.93602
G1 X75.896 Y102.305 E19.94218
G1 X75.838 Y101.587 E19.96914
G1 X75.873 Y100.467 E20.01106
G1 X75.896 Y100.304 E20.01722
G1 X75.838 Y99.586 E20.04418
G1 X75.873 Y98.467 E20.08607
G1 X75.896 Y98.304 E20.09223
G1 X75.838 Y97.586 E20.11918
G1 X75.873 Y96.467 E20.16107
G1 X75.896 Y96.303 E20.16727
G1 X75.838 Y95.578 E20.19448
G1 X75.871 Y94.508 E20.23454
G1 X75.894 Y94.322 E20.24155
G1 X75.838 Y93.587 E20.26913
G1 X75.877 Y92.474 E20.3108
G1 X76.004 Y91.655 E20.34181
G1 X76.178 Y90.979 E20.36793
G1 X76.419 Y90.346 E20.39328
G1 X77.048 Y89.194 E20.44239
G1 X77.512 Y88.585 E20.47104
G1 X78.356 Y87.743 E20.51565
G0 F7200 X78.674 Y88.062
G1 F1200 X79.24 Y87.642 E20.54202
G1 X79.918 Y87.259 E20.57116
G1 X80.827 Y86.89 E20.60786
G1 X81.622 Y86.683 E20.6386
G1 X82.206 Y86.6 E20.66067
G1 X102.351 Y86.583 E21.41445
G1 X103.177 Y86.684 E21.44559
G1 X103.873 Y86.85 E21.47236
G1 X104.603 Y87.12 E21.50149
G1 X105.649 Y87.691 E21.54608
G1 X106.342 Y88.224 E21.57879
G1 X106.476 Y88.355 E21.5858
G1 X106.743 Y87.019 E21.63678
G1 X106.953 Y86.446 E21.65962
G1 X107.036 Y86.268 E21.66696
G1 X107.085 Y81.684 E21.8385
G1 X107.281 Y80.491 E21.88373
G1 X107.6 Y79.537 E21.92137
G1 X107.94 Y78.87 E21.94939
G1 X108.456 Y78.1 E21.98407
G1 X108.782 Y77.714 E22.00297
G1 X109.375 Y77.136 E22.03396
G1 X110.017 Y76.653 E22.06402
G1 X110.825 Y76.206 E22.09857
G1 X111.629 Y75.893 E22.13086
G1 X112.447 Y75.689 E22.1624
G1 X113.397 Y75.583 E22.19817
G1 X118.377 Y75.575 E22.38451
G1 X119.696 Y75.725 E22.43418
G1 X120.233 Y75.86 E22.4549
G1 X120.96 Y76.13 E22.48392
G1 X122.001 Y76.698 E22.52829
G1 X122.566 Y77.122 E22.55472
G1 X123.41 Y77.964 E22.59933
G1 X123.768 Y78.436 E22.6215
G1 X124.2 Y79.173 E22.65346
G1 X124.446 Y79.729 E22.67621
G1 X124.829 Y81.136 E22.73077
G1 X124.879 Y81.55 E22.74638
