;FLAVOR:Marlin
;TIME:737
;Filament used: 0.300036m
;Layer height: 0.2
;MINX:86.747
;MINY:86.361
;MINZ:0.2
;MAXX:113.547
;MAXY:113.344
;MAXZ:9
;Generated with Cura_SteamEngine 5.4.0
M82 ;absolute extrusion mode
M140 S65.0 ; set bed temp  ; set bed temperature and continue 
M104 S225.0   ; set hot end temperature and continue
M106 S190; fan on for correct PID
G4  P3000 ; wait 3 sec
;G1 X20 Y20 F3000 ; go to parking pos.
M109 S225.0   ; wait for hot end temperature to reach e.g. 210 °C
G1 E-5 F300
M106 S0; fan off
G28 ; Home all axes
G1 Z10 F300 ; Z raise
;BED_MESH_CALIBRATE PROFILE=mesh1 METHOD=automatic
G4  P1000 ; wait a second
; prime nozzle

;G1 X190 Y30 F7200 ; move to start
;G1 Z0.3 F800 ; Move to layer height
;G92 E0.0 
;G1 X190 Y170 E20 F800 ; print prime line
;G1 X189 Y170 F7200 ; move to start
;G1 X189 Y30 E40 F800 ; print prime line

;G1 X190 Y30 F7200 ; move to start
;G1 Z0.3 F800 ; Move to layer height
;G92 E0.0 
;G1 X185 Y170 E20 F800 ; print prime line
;G1 X184 Y170 F7200 ; move to start
;G1 X184 Y30 E40 F800 ; print prime line

G1 X30 Y181 F7200 ; move to start
G1 Z0.3 F800 ; Move to layer height
G92 E0.0 
G1 X170 Y181 E20 F800 ; print prime line
G1 X170 Y180 F7200 ; move to start
G1 X30 Y180 E40 F800 ; print prime line
G92 E0
G92 E0
G1 F4800 E-2
;LAYER_COUNT:45
;LAYER:0
M107 P1
G0 F7200 X90.639 Y90.586 Z0.2
;TYPE:SKIRT
G1 F1920 E0
G1 F1200 X91.316 Y89.956 E0.0346
G1 X91.748 Y89.6 E0.05555
G1 X93.908 Y87.989 E0.15638
G1 X94.831 Y87.441 E0.19654
G1 X95.599 Y87.121 E0.22767
G1 X96.296 Y86.896 E0.25508
G1 X96.814 Y86.758 E0.27514
G1 X97.474 Y86.614 E0.30041
G1 X98.17 Y86.495 E0.32683
G1 X98.91 Y86.412 E0.3547
G1 X99.639 Y86.367 E0.38202
G1 X100.006 Y86.361 E0.39576
G1 X100.839 Y86.38 E0.42694
G1 X101.249 Y86.41 E0.44232
G1 X101.848 Y86.473 E0.46485
G1 X102.544 Y86.583 E0.49122
G1 X103.218 Y86.723 E0.51698
G1 X103.936 Y86.918 E0.54482
G1 X104.606 Y87.169 E0.57159
G1 X105.584 Y87.704 E0.6133
G1 X106.206 Y88.178 E0.64256
G1 X107.114 Y89.132 E0.69184
G1 X107.369 Y89.49 E0.70829
G1 X107.803 Y90.184 E0.73892
G1 X112.34 Y97.77 E1.06966
G1 X112.751 Y98.488 E1.10062
G1 X113.107 Y99.264 E1.13256
G1 X113.432 Y100.367 E1.17559
G1 X113.463 Y100.551 E1.18257
G1 X113.547 Y101.46 E1.21673
G1 X113.509 Y102.291 E1.24785
G1 X113.376 Y103.067 E1.27731
G1 X113.16 Y103.891 E1.30919
G1 X112.902 Y104.676 E1.3401
G1 X112.774 Y105.009 E1.35345
G1 X112.492 Y105.674 E1.38048
G1 X112.23 Y106.22 E1.40314
G1 X111.825 Y106.949 E1.43435
G1 X111.342 Y107.707 E1.46798
G1 X111.109 Y108.036 E1.48306
G1 X110.755 Y108.501 E1.50493
G1 X110.139 Y109.223 E1.54044
G1 X109.881 Y109.498 E1.55455
G1 X109.397 Y109.972 E1.5799
G1 X108.583 Y110.629 E1.61904
G1 X107.66 Y111.173 E1.65913
G1 X105.436 Y112.213 E1.751
G1 X104.511 Y112.582 E1.78826
G1 X104.19 Y112.694 E1.80098
G1 X103.641 Y112.861 E1.82245
G1 X102.696 Y113.085 E1.85879
G1 X101.927 Y113.216 E1.88798
G1 X101.2 Y113.291 E1.91533
G1 X100.361 Y113.341 E1.94678
G1 X99.99 Y113.344 E1.96066
G1 X98.774 Y113.277 E2.00623
G1 X98.061 Y113.187 E2.03312
G1 X97.299 Y113.048 E2.0621
G1 X96.467 Y112.837 E2.09422
G1 X95.7 Y112.596 E2.1243
G1 X95.028 Y112.341 E2.15119
G1 X93.992 Y111.868 E2.19381
G1 X93.554 Y111.633 E2.21241
G1 X92.765 Y111.152 E2.24698
G1 X92.19 Y110.753 E2.27317
G1 X91.445 Y110.16 E2.3088
G1 X90.846 Y109.623 E2.3389
G1 X90.383 Y109.156 E2.36351
G1 X89.801 Y108.495 E2.39646
G1 X89.373 Y107.949 E2.42242
G1 X88.94 Y107.33 E2.45069
G1 X88.499 Y106.615 E2.48212
G1 X88.158 Y105.979 E2.50912
G1 X87.753 Y105.084 E2.54588
G1 X87.528 Y104.507 E2.56905
G1 X87.348 Y103.969 E2.59028
G1 X87.094 Y103.03 E2.62668
G1 X86.948 Y102.321 E2.65376
G1 X86.804 Y101.234 E2.69479
G1 X86.756 Y100.499 E2.72235
G1 X86.747 Y99.768 E2.74971
G1 X86.778 Y99.068 E2.77593
G1 X86.902 Y97.988 E2.8166
G1 X87.035 Y97.236 E2.84518
G1 X87.153 Y96.745 E2.86407
G1 X87.485 Y95.639 E2.90728
G1 X87.724 Y94.995 E2.93298
G1 X88.07 Y94.214 E2.96495
G1 X88.479 Y93.427 E2.99813
G1 X88.815 Y92.865 E3.02263
G1 X89.177 Y92.321 E3.04708
G1 X89.685 Y91.647 E3.07866
G1 X90.149 Y91.1 E3.1055
G1 X90.639 Y90.586 E3.13208
G0 F7200 X90.965 Y90.897
G1 F1200 X91.603 Y90.303 E3.16469
G1 X92.017 Y89.961 E3.18479
G1 X94.177 Y88.35 E3.28561
G1 X95.005 Y87.856 E3.32169
G1 X95.737 Y87.549 E3.35139
G1 X96.412 Y87.331 E3.37793
G1 X96.91 Y87.198 E3.39722
G1 X97.55 Y87.058 E3.42173
G1 X98.246 Y86.939 E3.44815
G1 X98.938 Y86.861 E3.47421
G1 X99.647 Y86.817 E3.50079
G1 X99.996 Y86.811 E3.51385
G1 X100.806 Y86.829 E3.54417
G1 X101.202 Y86.858 E3.55902
G1 X101.801 Y86.921 E3.58156
G1 X102.453 Y87.024 E3.60626
G1 X103.101 Y87.158 E3.63102
G1 X103.781 Y87.341 E3.65737
G1 X104.39 Y87.564 E3.68163
G1 X105.368 Y88.099 E3.72335
G1 X105.881 Y88.489 E3.74746
G1 X106.747 Y89.393 E3.7943
G1 X107.002 Y89.751 E3.81075
G1 X107.417 Y90.415 E3.84005
G1 X111.949 Y97.994 E4.17047
G1 X112.36 Y98.712 E4.20142
G1 X112.676 Y99.392 E4.22948
G1 X112.989 Y100.444 E4.27055
G1 X113.015 Y100.594 E4.27625
G1 X113.097 Y101.441 E4.30809
G1 X113.065 Y102.215 E4.33707
G1 X112.932 Y102.991 E4.36653
G1 X112.725 Y103.776 E4.39691
G1 X112.482 Y104.515 E4.42602
G1 X112.36 Y104.833 E4.43876
G1 X112.086 Y105.479 E4.46502
G1 X111.824 Y106.025 E4.48768
G1 X111.445 Y106.707 E4.51687
G1 X110.962 Y107.465 E4.5505
G1 X110.751 Y107.763 E4.56417
G1 X110.397 Y108.228 E4.58603
G1 X109.811 Y108.915 E4.61982
G1 X109.566 Y109.176 E4.63322
G1 X109.082 Y109.65 E4.65856
G1 X108.301 Y110.278 E4.69606
G1 X107.469 Y110.765 E4.73214
G1 X105.245 Y111.805 E4.824
G1 X104.363 Y112.157 E4.85954
G1 X104.059 Y112.263 E4.87158
G1 X103.51 Y112.43 E4.89305
G1 X102.62 Y112.641 E4.92728
G1 X101.851 Y112.772 E4.95647
G1 X101.173 Y112.842 E4.98197
G1 X100.357 Y112.891 E5.01256
G1 X99.986 Y112.894 E5.02644
G1 X98.83 Y112.83 E5.06976
G1 X98.142 Y112.744 E5.09571
G1 X97.38 Y112.605 E5.12469
G1 X96.602 Y112.408 E5.15472
G1 X95.86 Y112.175 E5.18382
G1 X95.188 Y111.92 E5.21071
G1 X94.205 Y111.471 E5.25115
G1 X93.767 Y111.236 E5.26975
G1 X93.022 Y110.782 E5.30239
G1 X92.447 Y110.383 E5.32858
G1 X91.726 Y109.808 E5.36309
G1 X91.166 Y109.306 E5.39123
G1 X90.703 Y108.839 E5.41583
G1 X90.139 Y108.198 E5.44778
G1 X89.742 Y107.691 E5.47188
G1 X89.323 Y107.093 E5.4992
G1 X88.896 Y106.402 E5.52959
G1 X88.555 Y105.766 E5.55659
G1 X88.172 Y104.92 E5.59134
G1 X87.955 Y104.364 E5.61368
G1 X87.775 Y103.826 E5.6349
G1 X87.535 Y102.939 E5.66929
G1 X87.389 Y102.23 E5.69637
G1 X87.253 Y101.204 E5.7351
G1 X87.206 Y100.493 E5.76176
G1 X87.197 Y99.788 E5.78814
G1 X87.228 Y99.088 E5.81436
G1 X87.345 Y98.066 E5.85285
G1 X87.473 Y97.341 E5.8804
G1 X87.591 Y96.85 E5.89929
G1 X87.907 Y95.796 E5.94047
G1 X88.146 Y95.152 E5.96617
G1 X88.481 Y94.397 E5.99707
G1 X88.865 Y93.658 E6.02824
G1 X89.19 Y93.114 E6.05195
G1 X89.552 Y92.57 E6.0764
G1 X90.028 Y91.938 E6.106
G1 X90.475 Y91.411 E6.13186
G1 X90.965 Y90.897 E6.15843
G0 F7200 X91.291 Y91.208
G1 F1200 X91.91 Y90.632 E6.19007
G1 X92.286 Y90.322 E6.2083
G1 X94.446 Y88.711 E6.30913
G1 X95.18 Y88.271 E6.34115
G1 X95.876 Y87.977 E6.36942
G1 X96.528 Y87.766 E6.39506
G1 X97.006 Y87.638 E6.41358
G1 X97.626 Y87.502 E6.43733
G1 X98.322 Y87.383 E6.46375
G1 X98.966 Y87.31 E6.488
G1 X99.655 Y87.267 E6.51383
G1 X99.986 Y87.261 E6.52622
G1 X100.773 Y87.278 E6.55567
G1 X101.155 Y87.306 E6.57001
G1 X101.754 Y87.369 E6.59254
G1 X102.362 Y87.465 E6.61558
G1 X102.985 Y87.593 E6.63937
G1 X103.626 Y87.764 E6.6642
G1 X104.235 Y87.987 E6.68846
G1 X105.15 Y88.493 E6.72759
G1 X105.606 Y88.845 E6.74914
G1 X106.38 Y89.654 E6.79104
G1 X106.635 Y90.012 E6.80748
G1 X107.031 Y90.646 E6.83545
G1 X111.558 Y98.218 E7.16555
G1 X111.969 Y98.936 E7.19651
G1 X112.245 Y99.521 E7.22071
G1 X112.546 Y100.525 E7.25993
G1 X112.567 Y100.64 E7.26431
G1 X112.647 Y101.422 E7.29372
G1 X112.615 Y102.196 E7.32271
G1 X112.497 Y102.876 E7.34853
G1 X112.297 Y103.636 E7.37794
G1 X112.061 Y104.355 E7.40625
G1 X111.946 Y104.657 E7.41834
G1 X111.68 Y105.284 E7.44383
G1 X111.418 Y105.83 E7.46649
G1 X111.052 Y106.488 E7.49466
G1 X110.595 Y107.205 E7.52648
G1 X110.393 Y107.49 E7.53955
G1 X110.039 Y107.955 E7.56141
G1 X109.483 Y108.607 E7.59348
G1 X109.251 Y108.854 E7.60616
G1 X108.767 Y109.328 E7.6315
G1 X108.073 Y109.89 E7.66492
G1 X107.278 Y110.357 E7.69942
G1 X105.054 Y111.397 E7.79128
G1 X104.214 Y111.732 E7.82512
G1 X103.928 Y111.832 E7.83646
G1 X103.379 Y111.999 E7.85793
G1 X102.544 Y112.197 E7.89004
G1 X101.775 Y112.328 E7.91923
G1 X101.146 Y112.393 E7.94289
G1 X100.353 Y112.441 E7.97262
G1 X99.982 Y112.444 E7.9865
G1 X98.855 Y112.381 E8.02874
G1 X98.223 Y112.301 E8.05257
G1 X97.461 Y112.162 E8.08156
G1 X96.737 Y111.979 E8.1095
G1 X96.02 Y111.754 E8.13762
G1 X95.348 Y111.499 E8.16451
G1 X94.418 Y111.074 E8.20277
G1 X93.98 Y110.839 E8.22137
G1 X93.279 Y110.412 E8.25208
G1 X92.704 Y110.013 E8.27827
G1 X92.026 Y109.473 E8.3107
G1 X91.486 Y108.989 E8.33784
G1 X91.023 Y108.522 E8.36244
G1 X90.477 Y107.901 E8.39338
G1 X90.111 Y107.433 E8.41561
G1 X89.692 Y106.835 E8.44293
G1 X89.293 Y106.189 E8.47135
G1 X88.952 Y105.553 E8.49835
G1 X88.591 Y104.756 E8.53109
G1 X88.382 Y104.221 E8.55258
G1 X88.202 Y103.683 E8.57381
G1 X87.976 Y102.848 E8.60617
G1 X87.83 Y102.139 E8.63326
G1 X87.702 Y101.174 E8.66968
G1 X87.656 Y100.487 E8.69545
G1 X87.647 Y99.808 E8.72086
G1 X87.678 Y99.108 E8.74707
G1 X87.788 Y98.144 E8.78338
G1 X87.911 Y97.446 E8.8099
G1 X88.029 Y96.955 E8.82879
G1 X88.329 Y95.953 E8.86793
G1 X88.568 Y95.309 E8.89363
G1 X88.892 Y94.58 E8.92348
G1 X89.251 Y93.889 E8.95262
G1 X89.565 Y93.363 E8.97554
G1 X89.927 Y92.819 E8.99999
G1 X90.372 Y92.229 E9.02764
G1 X90.801 Y91.722 E9.05249
G1 X91.291 Y91.208 E9.07907
G0 F7200 X91.598 Y91.537
G1 F1200 X92.197 Y90.979 E9.1097
G1 X92.555 Y90.683 E9.12708
G1 X94.715 Y89.072 E9.22791
G1 X95.356 Y88.685 E9.25592
G1 X96.014 Y88.405 E9.28268
G1 X96.645 Y88.201 E9.30749
G1 X97.102 Y88.078 E9.3252
G1 X97.722 Y87.942 E9.34895
G1 X98.373 Y87.83 E9.37367
G1 X98.994 Y87.759 E9.39706
G1 X99.664 Y87.717 E9.42218
G1 X99.977 Y87.711 E9.43389
G1 X100.741 Y87.727 E9.46248
G1 X101.108 Y87.753 E9.47625
G1 X101.684 Y87.814 E9.49792
G1 X102.272 Y87.906 E9.52019
G1 X102.87 Y88.028 E9.54303
G1 X103.471 Y88.187 E9.56629
G1 X104.08 Y88.41 E9.59056
G1 X104.878 Y88.852 E9.62469
G1 X105.282 Y89.158 E9.64365
G1 X106.013 Y89.915 E9.68303
G1 X106.268 Y90.273 E9.69948
G1 X106.645 Y90.877 E9.72612
G1 X111.168 Y98.442 E10.05592
G1 X111.562 Y99.128 E10.08552
G1 X111.838 Y99.713 E10.10972
G1 X112.105 Y100.614 E10.14488
G1 X112.12 Y100.688 E10.14771
G1 X112.197 Y101.403 E10.17462
G1 X112.165 Y102.177 E10.2036
G1 X112.062 Y102.761 E10.22579
G1 X111.862 Y103.521 E10.2552
G1 X111.64 Y104.196 E10.28179
G1 X111.532 Y104.481 E10.29319
G1 X111.274 Y105.089 E10.3179
G1 X111.012 Y105.635 E10.34056
G1 X110.659 Y106.269 E10.36772
G1 X110.227 Y106.945 E10.39773
G1 X110.035 Y107.217 E10.41019
G1 X109.681 Y107.682 E10.43206
G1 X109.155 Y108.299 E10.4624
G1 X108.936 Y108.532 E10.47436
G1 X108.452 Y109.006 E10.49971
G1 X107.79 Y109.54 E10.53154
G1 X107.087 Y109.949 E10.56197
G1 X104.863 Y110.989 E10.65383
G1 X104.066 Y111.307 E10.68594
G1 X103.797 Y111.401 E10.6966
G1 X103.248 Y111.568 E10.71808
G1 X102.468 Y111.753 E10.74807
G1 X101.699 Y111.884 E10.77726
G1 X101.119 Y111.944 E10.79908
G1 X100.349 Y111.991 E10.82794
G1 X99.978 Y111.994 E10.84183
G1 X98.911 Y111.934 E10.88181
G1 X98.304 Y111.858 E10.9047
G1 X97.542 Y111.719 E10.93369
G1 X96.871 Y111.549 E10.95959
G1 X96.18 Y111.333 E10.98668
G1 X95.508 Y111.078 E11.01357
G1 X94.631 Y110.677 E11.04965
G1 X94.193 Y110.442 E11.06825
G1 X93.536 Y110.042 E11.09703
G1 X92.961 Y109.643 E11.12322
G1 X92.326 Y109.138 E11.15358
G1 X91.806 Y108.672 E11.17971
G1 X91.343 Y108.205 E11.20431
G1 X90.831 Y107.623 E11.23332
G1 X90.48 Y107.175 E11.25461
G1 X90.061 Y106.577 E11.28193
G1 X89.69 Y105.976 E11.30836
G1 X89.349 Y105.34 E11.33536
G1 X89.01 Y104.592 E11.36609
G1 X88.809 Y104.078 E11.38674
G1 X88.629 Y103.54 E11.40797
G1 X88.417 Y102.757 E11.43832
G1 X88.271 Y102.048 E11.46541
G1 X88.151 Y101.143 E11.49957
G1 X88.106 Y100.481 E11.5244
G1 X88.097 Y99.828 E11.54883
G1 X88.128 Y99.128 E11.57505
G1 X88.231 Y98.222 E11.60917
G1 X88.349 Y97.551 E11.63466
G1 X88.467 Y97.06 E11.65356
G1 X88.751 Y96.11 E11.69066
G1 X88.99 Y95.466 E11.71636
G1 X89.291 Y94.787 E11.74415
G1 X89.638 Y94.119 E11.77232
G1 X89.94 Y93.612 E11.7944
G1 X90.287 Y93.09 E11.81785
G1 X90.716 Y92.52 E11.84455
G1 X91.145 Y92.013 E11.8694
G1 X91.598 Y91.537 E11.89398
G0 F7200 X91.905 Y91.866
G1 F1200 X92.504 Y91.308 E11.92462
G1 X92.824 Y91.044 E11.94014
G1 X94.95 Y89.456 E12.03943
G1 X95.533 Y89.099 E12.06501
G1 X96.153 Y88.833 E12.09025
G1 X96.762 Y88.636 E12.1142
G1 X97.219 Y88.513 E12.13191
G1 X97.799 Y88.385 E12.15414
G1 X98.425 Y88.277 E12.17791
G1 X99.022 Y88.208 E12.20039
G1 X99.673 Y88.167 E12.2248
G1 X99.968 Y88.161 E12.23584
G1 X100.71 Y88.176 E12.26361
G1 X101.06 Y88.2 E12.27674
G1 X101.615 Y88.259 E12.29762
G1 X102.183 Y88.347 E12.31913
G1 X102.756 Y88.463 E12.341
G1 X103.316 Y88.61 E12.36267
G1 X103.925 Y88.833 E12.38693
G1 X104.606 Y89.211 E12.41608
G1 X105.01 Y89.517 E12.43504
G1 X105.646 Y90.176 E12.46931
G1 X105.901 Y90.534 E12.48576
G1 X106.259 Y91.108 E12.51107
G1 X110.778 Y98.667 E12.8406
G1 X111.155 Y99.32 E12.86881
G1 X111.431 Y99.905 E12.89302
G1 X111.673 Y100.739 E12.92551
G1 X111.747 Y101.384 E12.9498
G1 X111.715 Y102.158 E12.97879
G1 X111.619 Y102.68 E12.99865
G1 X111.434 Y103.381 E13.02578
G1 X111.219 Y104.037 E13.05161
G1 X111.118 Y104.305 E13.06232
G1 X110.868 Y104.894 E13.08626
G1 X110.606 Y105.44 E13.10892
G1 X110.28 Y106.027 E13.13405
G1 X109.859 Y106.686 E13.16331
G1 X109.677 Y106.944 E13.17512
G1 X109.323 Y107.409 E13.19699
G1 X108.826 Y107.991 E13.22563
G1 X108.621 Y108.21 E13.23685
G1 X108.137 Y108.684 E13.2622
G1 X107.508 Y109.189 E13.29238
G1 X106.896 Y109.541 E13.3188
G1 X104.672 Y110.581 E13.41067
G1 X103.918 Y110.882 E13.44104
G1 X103.666 Y110.97 E13.45103
G1 X103.117 Y111.137 E13.4725
G1 X102.392 Y111.309 E13.50038
G1 X101.623 Y111.44 E13.52957
G1 X101.091 Y111.495 E13.54959
G1 X100.345 Y111.541 E13.57755
G1 X99.974 Y111.544 E13.59143
G1 X98.966 Y111.487 E13.62921
G1 X98.385 Y111.415 E13.65112
G1 X97.623 Y111.276 E13.6801
G1 X97.005 Y111.12 E13.70395
G1 X96.34 Y110.912 E13.73002
G1 X95.668 Y110.657 E13.75692
G1 X94.844 Y110.28 E13.79082
G1 X94.406 Y110.045 E13.80942
G1 X93.793 Y109.672 E13.83627
G1 X93.218 Y109.273 E13.86246
G1 X92.626 Y108.803 E13.89074
G1 X92.126 Y108.355 E13.91586
G1 X91.663 Y107.888 E13.94047
G1 X91.169 Y107.326 E13.96847
G1 X90.849 Y106.917 E13.9879
G1 X90.43 Y106.319 E14.01522
G1 X90.087 Y105.763 E14.03966
G1 X89.746 Y105.127 E14.06667
G1 X89.429 Y104.428 E14.09538
G1 X89.236 Y103.935 E14.11519
G1 X89.056 Y103.397 E14.13642
G1 X88.858 Y102.666 E14.16476
G1 X88.712 Y101.957 E14.19185
G1 X88.6 Y101.112 E14.22374
G1 X88.556 Y100.475 E14.24763
G1 X88.547 Y99.848 E14.27109
G1 X88.578 Y99.148 E14.29731
G1 X88.674 Y98.3 E14.32925
G1 X88.787 Y97.655 E14.35375
G1 X88.898 Y97.189 E14.37167
G1 X89.173 Y96.267 E14.40767
G1 X89.412 Y95.623 E14.43338
G1 X89.702 Y94.97 E14.46011
G1 X90.024 Y94.349 E14.48629
G1 X90.315 Y93.861 E14.50755
G1 X90.647 Y93.361 E14.53
G1 X91.076 Y92.791 E14.5567
G1 X91.471 Y92.323 E14.57961
G1 X91.905 Y91.866 E14.60319
G0 F7200 X92.212 Y92.195
G1 F1200 X92.811 Y91.637 E14.63383
G1 X93.094 Y91.404 E14.64754
G1 X95.188 Y89.838 E14.74538
G1 X95.71 Y89.513 E14.76839
G1 X96.33 Y89.247 E14.79363
G1 X96.879 Y89.07 E14.81522
G1 X97.316 Y88.952 E14.83215
G1 X97.876 Y88.828 E14.85362
G1 X98.477 Y88.724 E14.87644
G1 X99.05 Y88.657 E14.89802
G1 X99.683 Y88.617 E14.92176
G1 X99.959 Y88.611 E14.93209
G1 X100.68 Y88.625 E14.95907
G1 X101.012 Y88.647 E14.97152
G1 X101.547 Y88.704 E14.99165
G1 X102.094 Y88.788 E15.01236
G1 X102.643 Y88.899 E15.03332
G1 X103.161 Y89.033 E15.05334
G1 X103.77 Y89.256 E15.0776
G1 X104.334 Y89.57 E15.10176
G1 X104.738 Y89.876 E15.12072
G1 X105.279 Y90.437 E15.14988
G1 X105.534 Y90.795 E15.16633
G1 X105.873 Y91.339 E15.19031
G1 X110.388 Y98.892 E15.51957
G1 X110.765 Y99.545 E15.54779
G1 X111 Y100.033 E15.56805
G1 X111.226 Y100.794 E15.59776
G1 X111.297 Y101.368 E15.6194
