;FLAVOR:Marlin
;TIME:716
;Filament used: 0.285125m
;Layer height: 0.2
;MINX:93.011
;MINY:92.925
;MINZ:0.2
;MAXX:106.974
;MAXY:107.076
;MAXZ:9
;Generated with Cura_SteamEngine 5.4.0
M82 ;absolute extrusion mode
M140 S65.0 ; set bed temp  ; set bed temperature and continue 
M104 S225.0   ; set hot end temperature and continue
M106 S190; fan on for correct PID
G4  P3000 ; wait 3 sec
;G1 X20 Y20 F3000 ; go to parking pos.
M109 S225.0   ; wait for hot end temperature to reach e.g. 210 °C
G1 E-5 F300
M106 S0; fan off
G28 ; Home all axes
G1 Z10 F300 ; Z raise
;BED_MESH_CALIBRATE PROFILE=mesh1 METHOD=automatic
G4  P1000 ; wait a second
; prime nozzle

;G1 X190 Y30 F7200 ; move to start
;G1 Z0.3 F800 ; Move to layer height
;G92 E0.0 
;G1 X190 Y170 E20 F800 ; print prime line
;G1 X189 Y170 F7200 ; move to start
;G1 X189 Y30 E40 F800 ; print prime line

;G1 X190 Y30 F7200 ; move to start
;G1 Z0.3 F800 ; Move to layer height
;G92 E0.0 
;G1 X185 Y170 E20 F800 ; print prime line
;G1 X184 Y170 F7200 ; move to start
;G1 X184 Y30 E40 F800 ; print prime line

G1 X30 Y181 F7200 ; move to start
G1 Z0.3 F800 ; Move to layer height
G92 E0.0 
G1 X170 Y181 E20 F800 ; print prime line
G1 X170 Y180 F7200 ; move to start
G1 X30 Y180 E40 F800 ; print prime line
G92 E0
G92 E0
G1 F4800 E-2
;LAYER_COUNT:45
;LAYER:0
M106 S204 P1
;MESH:Bed_Spring_Retainer_Ring - 2x - Accent - V1.0(1).stl
G0 F7200 X98.519 Y102.792 Z0.2
;TYPE:WALL-OUTER
G1 F1920 E0
G1 F1200.7 X98.475 Y102.754 E0.00193
G1 X96.893 Y100.106 E0.10453
G1 X96.885 Y100.061 E0.10605
G1 X96.89 Y100.001 E0.10805
G1 X96.91 Y99.949 E0.1099
G1 X98.392 Y97.294 E0.21103
G1 X98.456 Y97.243 E0.21376
G1 X98.501 Y97.227 E0.21534
G1 X100.652 Y97.191 E0.2869
G1 X99.563 Y95.367 E0.35755
G1 X99.407 Y95.147 E0.36652
G1 X99.41 Y95.131 E0.36707
G1 X99.166 Y94.868 E0.379
G1 X99.01 Y94.73 E0.38592
G1 X98.843 Y94.605 E0.39286
G1 X98.666 Y94.494 E0.39981
G1 X98.492 Y94.409 E0.40625
G1 X98.291 Y94.327 E0.41347
G1 X98.084 Y94.261 E0.4207
G1 X97.896 Y94.221 E0.42709
G1 X97.677 Y94.192 E0.43444
G1 X97.466 Y94.179 E0.44147
G1 X97.265 Y94.186 E0.44816
G1 X96.836 Y94.249 E0.46258
G1 X96.644 Y94.303 E0.46922
G1 X96.426 Y94.384 E0.47695
G1 X96.218 Y94.482 E0.4846
G1 X96.013 Y94.601 E0.49248
G1 X95.801 Y94.753 E0.50116
G1 X95.412 Y95.096 E0.51841
G1 X95.13 Y95.381 E0.53174
G1 X94.866 Y95.683 E0.54508
G1 X94.617 Y96 E0.55849
G1 X94.395 Y96.325 E0.57158
G1 X94.185 Y96.674 E0.58513
G1 X93.997 Y97.029 E0.59849
G1 X93.831 Y97.396 E0.61189
G1 X93.689 Y97.771 E0.62522
G1 X93.54 Y98.253 E0.642
G1 X93.449 Y98.642 E0.65529
G1 X93.38 Y99.033 E0.6685
G1 X93.334 Y99.437 E0.68202
G1 X93.313 Y99.839 E0.69541
G1 X93.317 Y100.294 E0.71054
G1 X93.34 Y100.635 E0.72191
G1 X93.383 Y100.987 E0.73371
G1 X93.468 Y101.465 E0.74985
G1 X93.56 Y101.823 E0.76215
G1 X93.678 Y102.203 E0.77538
G1 X93.82 Y102.579 E0.78875
G1 X93.959 Y102.892 E0.80014
G1 X94.169 Y103.302 E0.81546
G1 X94.379 Y103.651 E0.82901
G1 X94.602 Y103.979 E0.8422
G1 X94.846 Y104.295 E0.85548
G1 X95.11 Y104.598 E0.86885
G1 X95.396 Y104.888 E0.88239
G1 X95.734 Y105.192 E0.89751
G1 X96.003 Y105.407 E0.90897
G1 X96.334 Y105.642 E0.92247
G1 X96.671 Y105.851 E0.93566
G1 X97.024 Y106.043 E0.94902
G1 X97.392 Y106.217 E0.96256
G1 X97.858 Y106.399 E0.9792
G1 X98.239 Y106.52 E0.9925
G1 X98.598 Y106.609 E1.0048
G1 X99.077 Y106.704 E1.02104
G1 X99.427 Y106.744 E1.03276
G1 X99.827 Y106.773 E1.0461
G1 X100.224 Y106.776 E1.0593
G1 X100.624 Y106.756 E1.07262
G1 X101.03 Y106.71 E1.08621
G1 X101.421 Y106.644 E1.0994
G1 X101.818 Y106.552 E1.11295
G1 X102.201 Y106.439 E1.12624
G1 X102.612 Y106.289 E1.14079
G1 X102.779 Y106.215 E1.14686
G1 X103.088 Y106.041 E1.15866
G1 X103.313 Y105.875 E1.16796
G1 X103.533 Y105.672 E1.17791
G1 X103.758 Y105.408 E1.18945
G1 X103.922 Y105.158 E1.1994
G1 X104.047 Y104.915 E1.20848
G1 X104.138 Y104.68 E1.21687
G1 X104.205 Y104.439 E1.22519
G1 X104.252 Y104.146 E1.23506
G1 X104.261 Y103.777 E1.24733
G1 X104.207 Y103.369 E1.26102
G1 X104.097 Y103.016 E1.27332
G1 X103.99 Y102.778 E1.282
G1 X102.829 Y100.833 E1.35734
G1 X101.796 Y102.686 E1.4279
G1 X101.738 Y102.746 E1.43067
G1 X101.672 Y102.774 E1.43306
G1 X98.586 Y102.819 E1.53571
G1 X98.519 Y102.792 E1.53811
G0 F7200 X98.475 Y102.754
G0 X98.403 Y102.633
G0 X97.799 Y102.993
G0 X96.122 Y100.06
G0 X96.178 Y99.825
G0 X96.486 Y99.997
;TYPE:WALL-INNER
G1 F1200.7 X96.5 Y99.909 E1.54108
G1 X96.56 Y99.754 E1.5466
G1 X98.021 Y97.131 E1.64647
G1 X98.099 Y97.021 E1.65095
G1 X98.16 Y96.962 E1.65377
G1 X98.242 Y96.904 E1.65711
G1 X98.31 Y96.87 E1.65964
G1 X98.412 Y96.837 E1.66321
G1 X98.568 Y96.822 E1.66842
G1 X99.953 Y96.801 E1.71449
G1 X99.227 Y95.585 E1.7616
G1 X99.079 Y95.375 E1.77014
G1 X99.08 Y95.364 E1.77051
G1 X98.886 Y95.155 E1.77999
G1 X98.757 Y95.04 E1.78574
G1 X98.617 Y94.935 E1.79156
G1 X98.472 Y94.844 E1.79725
G1 X98.154 Y94.703 E1.80882
G1 X97.982 Y94.648 E1.81483
G1 X97.828 Y94.615 E1.82007
G1 X97.639 Y94.59 E1.82641
G1 X97.461 Y94.579 E1.83234
G1 X97.295 Y94.585 E1.83787
G1 X96.926 Y94.639 E1.85027
G1 X96.768 Y94.684 E1.85573
G1 X96.582 Y94.753 E1.86233
G1 X96.404 Y94.837 E1.86888
G1 X96.231 Y94.937 E1.87552
G1 X96.051 Y95.067 E1.88291
G1 X95.687 Y95.387 E1.89903
G1 X95.423 Y95.654 E1.91152
G1 X95.174 Y95.939 E1.92411
G1 X94.94 Y96.237 E1.93671
G1 X94.732 Y96.541 E1.94896
G1 X94.534 Y96.871 E1.96176
G1 X94.357 Y97.205 E1.97433
G1 X94.201 Y97.55 E1.98692
G1 X94.067 Y97.901 E1.99942
G1 X93.926 Y98.358 E2.01533
G1 X93.841 Y98.722 E2.02776
G1 X93.776 Y99.09 E2.04019
G1 X93.733 Y99.471 E2.05294
G1 X93.713 Y99.849 E2.06553
G1 X93.715 Y100.227 E2.0781
G1 X93.738 Y100.597 E2.09043
G1 X93.779 Y100.927 E2.10149
G1 X93.86 Y101.38 E2.1168
G1 X93.945 Y101.714 E2.12826
G1 X94.056 Y102.073 E2.14076
G1 X94.19 Y102.427 E2.15335
G1 X94.344 Y102.771 E2.16589
G1 X94.518 Y103.106 E2.17844
G1 X94.716 Y103.435 E2.19121
G1 X94.926 Y103.744 E2.20364
G1 X95.156 Y104.041 E2.21613
G1 X95.403 Y104.326 E2.22868
G1 X95.673 Y104.6 E2.24147
G1 X95.984 Y104.88 E2.25539
G1 X96.244 Y105.088 E2.26646
G1 X96.556 Y105.309 E2.27918
G1 X96.872 Y105.505 E2.29155
G1 X97.205 Y105.686 E2.30415
G1 X97.55 Y105.849 E2.31685
G1 X97.992 Y106.021 E2.33262
G1 X98.348 Y106.135 E2.34505
G1 X98.685 Y106.219 E2.35661
G1 X99.139 Y106.308 E2.37199
G1 X99.464 Y106.346 E2.38288
G1 X99.843 Y106.373 E2.39551
G1 X100.216 Y106.376 E2.40792
G1 X100.592 Y106.357 E2.42044
G1 X101.016 Y106.308 E2.43464
G1 X101.342 Y106.252 E2.44564
G1 X101.716 Y106.165 E2.45841
G1 X102.076 Y106.059 E2.47089
G1 X102.462 Y105.918 E2.48456
G1 X102.604 Y105.855 E2.48973
G1 X102.864 Y105.709 E2.49965
G1 X103.058 Y105.566 E2.50766
G1 X103.244 Y105.394 E2.51609
G1 X103.437 Y105.167 E2.526
G1 X103.576 Y104.956 E2.5344
G1 X103.681 Y104.751 E2.54206
G1 X103.758 Y104.554 E2.5491
G1 X103.813 Y104.353 E2.55603
G1 X103.854 Y104.104 E2.56442
G1 X103.861 Y103.804 E2.5744
G1 X103.817 Y103.464 E2.5858
G1 X103.723 Y103.158 E2.59645
G1 X103.634 Y102.963 E2.60358
G1 X102.841 Y101.633 E2.65508
G1 X102.134 Y102.9 E2.70334
G1 X102.059 Y102.996 E2.70739
G1 X101.958 Y103.08 E2.71176
G1 X101.886 Y103.121 E2.71452
G1 X101.792 Y103.156 E2.71785
G1 X101.715 Y103.172 E2.72047
G1 X98.581 Y103.221 E2.82472
G1 X98.467 Y103.201 E2.82857
G1 X98.386 Y103.173 E2.83142
G1 X98.307 Y103.131 E2.8344
G1 X98.237 Y103.08 E2.83728
G1 X98.173 Y103.017 E2.84026
G1 X98.11 Y102.931 E2.84381
G1 X96.563 Y100.345 E2.94404
G1 X96.518 Y100.247 E2.94762
G1 X96.486 Y100.088 E2.95302
G1 X96.486 Y99.997 E2.95604
G0 F7200 X96.178 Y99.825
G0 X96.122 Y100.06
G0 X98.157 Y103.464
G0 X98.553 Y103.625
;TYPE:SKIN
G1 F1200.7 X98.357 Y103.591 E2.96349
G1 X98.213 Y103.538 E2.96923
G1 X98.089 Y103.472 E2.97448
G1 X97.961 Y103.376 E2.98047
G1 X97.856 Y103.269 E2.98608
G1 X97.775 Y103.157 E2.99125
G1 X96.216 Y100.553 E3.10481
G1 X96.136 Y100.379 E3.11198
G1 X96.101 Y100.254 E3.11684
G1 X96.082 Y100.116 E3.12205
G1 X96.083 Y99.964 E3.12774
G1 X96.107 Y99.816 E3.13335
G1 X96.155 Y99.667 E3.13921
G1 X96.216 Y99.54 E3.14448
G1 X97.685 Y96.906 E3.25733
G1 X97.817 Y96.731 E3.26553
G1 X97.95 Y96.613 E3.27218
G1 X98.125 Y96.511 E3.27976
G1 X98.275 Y96.455 E3.28575
G1 X98.428 Y96.426 E3.29158
G1 X99.247 Y96.409 E3.32223
G1 X98.885 Y95.804 E3.34861
G1 X98.746 Y95.601 E3.35782
G1 X98.603 Y95.445 E3.36574
G1 X98.501 Y95.355 E3.37083
G1 X98.273 Y95.197 E3.3812
G1 X98.017 Y95.084 E3.39168
G1 X97.764 Y95.016 E3.40148
G1 X97.455 Y94.984 E3.4131
G1 X97.157 Y95.009 E3.42429
G1 X97.012 Y95.034 E3.4298
G1 X96.898 Y95.066 E3.43423
G1 X96.595 Y95.193 E3.44652
G1 X96.474 Y95.264 E3.45177
G1 X96.288 Y95.393 E3.46024
G1 X95.964 Y95.685 E3.47656
G1 X95.718 Y95.933 E3.48963
G1 X95.484 Y96.201 E3.50294
G1 X95.263 Y96.48 E3.51626
G1 X95.074 Y96.757 E3.52881
G1 X94.887 Y97.072 E3.54252
G1 X94.72 Y97.386 E3.55582
G1 X94.574 Y97.708 E3.56905
G1 X94.45 Y98.037 E3.58221
G1 X94.317 Y98.465 E3.59898
G1 X94.237 Y98.806 E3.61208
G1 X94.177 Y99.146 E3.625
G1 X94.136 Y99.508 E3.63863
G1 X94.117 Y99.862 E3.6519
G1 X94.121 Y100.244 E3.66619
G1 X94.139 Y100.528 E3.67684
G1 X94.18 Y100.868 E3.68966
G1 X94.26 Y101.327 E3.70709
G1 X94.339 Y101.622 E3.71852
G1 X94.438 Y101.938 E3.73091
G1 X94.564 Y102.27 E3.74419
G1 X94.707 Y102.592 E3.75738
G1 X94.871 Y102.905 E3.7706
G1 X95.059 Y103.219 E3.78429
G1 X95.28 Y103.549 E3.79915
G1 X95.479 Y103.795 E3.81099
G1 X95.722 Y104.072 E3.82478
G1 X95.956 Y104.309 E3.83724
G1 X96.21 Y104.542 E3.85014
G1 X96.486 Y104.763 E3.86337
G1 X96.782 Y104.973 E3.87695
G1 X97.075 Y105.155 E3.88986
G1 X97.384 Y105.324 E3.90304
G1 X97.712 Y105.478 E3.91659
G1 X98.126 Y105.639 E3.93321
G1 X98.455 Y105.745 E3.94615
G1 X98.774 Y105.825 E3.95845
G1 X99.198 Y105.907 E3.97461
G1 X99.529 Y105.944 E3.98708
G1 X99.862 Y105.969 E3.99957
G1 X100.205 Y105.972 E4.01241
G1 X100.517 Y105.957 E4.02409
G1 X100.957 Y105.908 E4.04066
G1 X101.26 Y105.856 E4.05216
G1 X101.615 Y105.773 E4.0658
G1 X101.951 Y105.675 E4.0789
G1 X102.307 Y105.545 E4.09308
G1 X102.429 Y105.491 E4.09807
G1 X102.636 Y105.374 E4.10697
G1 X102.802 Y105.251 E4.1147
G1 X102.951 Y105.114 E4.12227
G1 X103.109 Y104.928 E4.13141
G1 X103.228 Y104.747 E4.13951
G1 X103.314 Y104.58 E4.14654
G1 X103.375 Y104.423 E4.15284
G1 X103.419 Y104.261 E4.15912
G1 X103.45 Y104.067 E4.16647
G1 X103.458 Y103.901 E4.17269
G1 X103.423 Y103.557 E4.18563
G1 X103.346 Y103.308 E4.19538
G1 X103.273 Y103.147 E4.202
G1 X102.854 Y102.443 E4.23265
G1 X102.478 Y103.115 E4.26147
G1 X102.325 Y103.301 E4.27048
G1 X102.173 Y103.423 E4.27777
G1 X102.067 Y103.484 E4.28235
G1 X101.934 Y103.536 E4.28769
G1 X101.783 Y103.572 E4.2935
G1 X98.553 Y103.625 E4.41437
G0 F7200 X97.485 Y105.122
G1 F1200.7 X94.967 Y102.604 E4.54762
G1 X94.897 Y102.534
G0 F7200 X94.554 Y101.554
G1 F1200.7 X98.529 Y105.53 E4.75799
G0 F7200 X99.33 Y105.694
G1 F1200.7 X94.393 Y100.757 E5.01924
G0 F7200 X94.344 Y100.071
G1 F1200.7 X97.686 Y103.413 E5.19608
G1 X97.789 Y103.516
G1 X100.016 Y105.744 E5.31396
G0 F7200 X100.626 Y105.718
G1 F1200.7 X98.753 Y103.844 E5.41309
G0 F7200 X99.379 Y103.834
G1 F1200.7 X101.184 Y105.639 E5.50861
G0 F7200 X101.695 Y105.513
G1 F1200.7 X100.005 Y103.823 E5.59804
G0 F7200 X100.631 Y103.813
G1 F1200.7 X102.168 Y105.35 E5.67937
G0 F7200 X102.584 Y105.129
G1 F1200.7 X101.256 Y103.802 E5.74962
G0 F7200 X101.872 Y103.781
G1 F1200.7 X102.907 Y104.816 E5.80439
G0 F7200 X103.137 Y104.41
G1 F1200.7 X102.319 Y103.592 E5.84767
G0 F7200 X102.637 Y103.273
G1 F1200.7 X103.227 Y103.864 E5.87892
G0 F7200 X98.157 Y103.464
G0 X96.687 Y101.778
G1 F1200.7 X94.366 Y99.458 E6.00171
G0 F7200 X94.448 Y98.903
G1 F1200.7 X95.894 Y100.349 E6.07823
G0 F7200 X95.902 Y99.72
G1 F1200.7 X94.574 Y98.392 E6.1485
G0 F7200 X94.735 Y97.917
G1 F1200.7 X96.101 Y99.283 E6.22079
G0 F7200 X96.329 Y98.874
G1 F1200.7 X94.927 Y97.473 E6.29495
G0 F7200 X95.153 Y97.062
G1 F1200.7 X96.557 Y98.466 E6.36924
G0 F7200 X96.785 Y98.058
G1 F1200.7 X95.401 Y96.674 E6.44248
G0 F7200 X95.68 Y96.316
G1 F1200.7 X97.013 Y97.65 E6.51304
G0 F7200 X97.242 Y97.242
G1 F1200.7 X95.983 Y95.983 E6.57967
G0 F7200 X96.311 Y95.675
G1 F1200.7 X97.469 Y96.833 E6.64094
G0 F7200 X97.756 Y96.484
G1 F1200.7 X96.679 Y95.406 E6.69796
G0 F7200 X97.15 Y95.24
G1 F1200.7 X98.164 Y96.255 E6.75164
G0 F7200 X98.739 Y96.194
G1 F1200.7 X97.805 Y95.26 E6.80107
G1 X97.735 Y95.19
G0 F7200 X97.731 Y95.208
G1 F4800 E4.80107
G0 F7200 X99.15 Y95.168
G0 X100.544 Y94.335
G0 X100.744 Y93.698
G0 X100.145 Y94.056
;TYPE:WALL-OUTER
G1 F1920 E6.80107
G1 F1200.7 X105.356 Y102.768 E7.13871
G1 X105.442 Y103.077 E7.14938
G1 X105.494 Y103.355 E7.15878
G1 X105.522 Y103.636 E7.16818
G1 X105.529 Y103.907 E7.17719
G1 X105.516 Y104.175 E7.18612
G1 X105.48 Y104.456 E7.19554
G1 X105.448 Y104.614 E7.2009
G1 X105.63 Y104.398 E7.2103
G1 X105.869 Y104.079 E7.22355
G1 X106.099 Y103.731 E7.23743
G1 X106.297 Y103.39 E7.25054
G1 X106.476 Y103.04 E7.26362
G1 X106.639 Y102.67 E7.27707
G1 X106.773 Y102.315 E7.28969
G1 X106.893 Y101.936 E7.30291
G1 X106.973 Y101.612 E7.31401
G1 X101.927 Y93.17 E7.64113
G1 X101.63 Y93.096 E7.65131
G1 X101.245 Y93.021 E7.66435
G1 X100.819 Y92.964 E7.67865
G1 X100.447 Y92.933 E7.69106
G1 X100.042 Y92.925 E7.70454
G1 X99.621 Y92.94 E7.71855
G1 X99.242 Y92.977 E7.73121
G1 X98.898 Y93.026 E7.74277
G1 X98.557 Y93.094 E7.75433
G1 X98.724 Y93.143 E7.76012
G1 X98.92 Y93.22 E7.76713
G1 X99.229 Y93.361 E7.77842
G1 X99.475 Y93.503 E7.78787
G1 X99.704 Y93.66 E7.79711
G1 X99.913 Y93.828 E7.80602
G1 X100.107 Y94.008 E7.81483
G1 X100.145 Y94.056 E7.81686
G0 F7200 X100.247 Y94.227
G1 F4800 E5.81686
G0 F7200 X100.847 Y93.869
G0 X105.961 Y102.601
G0 X105.763 Y102.716
;TYPE:WALL-INNER
G1 F1920 E7.81686
G1 F1200.7 X105.836 Y103.003 E7.82671
G1 X105.889 Y103.295 E7.83658
G1 X106.11 Y102.876 E7.85234
G1 X106.265 Y102.528 E7.86501
G1 X106.395 Y102.184 E7.87724
G1 X106.507 Y101.828 E7.88965
G1 X106.545 Y101.676 E7.89486
G1 X101.669 Y93.518 E8.21097
G1 X101.166 Y93.414 E8.22806
G1 X100.787 Y93.363 E8.24078
G1 X100.422 Y93.333 E8.25296
G1 X99.928 Y93.329 E8.26939
G1 X100.185 Y93.534 E8.28032
G1 X100.379 Y93.714 E8.28912
G1 X100.489 Y93.85 E8.29494
G1 X105.704 Y102.571 E8.63291
G1 X105.763 Y102.716 E8.63811
G0 F7200 X105.96 Y102.247
;TYPE:SKIN
G1 F1321 X106.035 Y102.05 E8.64528
G1 X106.131 Y101.733 E8.65655
G1 F1317.8 X101.422 Y93.857 E8.96939
G1 F1311.4 X101.107 Y93.796 E8.98038
G1 X100.889 Y93.767 E8.98791
G1 F1317.8 X105.96 Y102.247 E9.32476
G0 F7200 X106.056 Y101.995
M104 S225
G1 F4800 E7.32476
;MESH:NONMESH
G0 F600 X106.056 Y101.995 Z0.4
G0 F7200 X103.758 Y99.67
G0 X101.874 Y102.99
G0 X97.904 Y103.169
G0 X98.527 Y102.797
;TIME_ELAPSED:17.544089
;LAYER:1
;TYPE:WALL-OUTER
;MESH:Bed_Spring_Retainer_Ring - 2x - Accent - V1.0(1).stl
G1 F1920 E9.32476
G1 F1185 X98.468 Y102.745 E9.32737
G1 X96.909 Y100.144 E9.42823
G1 X96.885 Y100.065 E9.43098
G1 X96.888 Y100.007 E9.43291
G1 X96.91 Y99.949 E9.43497
G1 X98.371 Y97.325 E9.53486
G1 X98.413 Y97.272 E9.53711
G1 X98.445 Y97.249 E9.53842
G1 X98.518 Y97.224 E9.54099
G1 X100.947 Y97.184 E9.62179
G1 X99.779 Y95.232 E9.69745
G1 X99.646 Y95.031 E9.70546
G1 X99.508 Y94.857 E9.71285
G1 X99.345 Y94.685 E9.72073
G1 X99.173 Y94.533 E9.72837
G1 X98.986 Y94.396 E9.73608
G1 X98.791 Y94.276 E9.74369
G1 X98.591 Y94.178 E9.7511
G1 X98.371 Y94.092 E9.75896
G1 X98.155 Y94.029 E9.76644
G1 X97.935 Y93.982 E9.77392
G1 X97.7 Y93.953 E9.7818
G1 X97.475 Y93.945 E9.78929
G1 X97.249 Y93.956 E9.79681
G1 X97.016 Y93.985 E9.80462
G1 X96.795 Y94.032 E9.81214
G1 X96.575 Y94.096 E9.81976
G1 X96.341 Y94.187 E9.82811
G1 X96.124 Y94.294 E9.83615
G1 X95.904 Y94.426 E9.84469
G1 X95.713 Y94.567 E9.85258
G1 X95.28 Y94.945 E9.8717
G1 X94.995 Y95.231 E9.88513
G1 X94.728 Y95.535 E9.89859
G1 X94.481 Y95.848 E9.91185
G1 X94.247 Y96.187 E9.92555
G1 X94.034 Y96.532 E9.93903
G1 X93.844 Y96.888 E9.95246
G1 X93.714 Y97.163 E9.96257
G1 X93.525 Y97.635 E9.97948
G1 X93.439 Y97.889 E9.9884
G1 X93.32 Y98.308 E10.00289
G1 X93.232 Y98.709 E10.01654
G1 X93.159 Y99.153 E10.03151
G1 X93.128 Y99.509 E10.0434
G1 X93.111 Y99.916 E10.05694
G1 X93.117 Y100.315 E10.07022
G1 X93.147 Y100.718 E10.08366
G1 X93.202 Y101.124 E10.09728
G1 X93.278 Y101.518 E10.11063
G1 X93.376 Y101.91 E10.12407
