;FLAVOR:Marlin
;TIME:1965
;Filament used: 1.69668m
;Layer height: 0.2
;MINX:59.262
;MINY:63.688
;MINZ:0.2
;MAXX:139.913
;MAXY:135.413
;MAXZ:5
;Generated with Cura_SteamEngine 5.4.0
M82 ;absolute extrusion mode
M140 S65.0 ; set bed temp  ; set bed temperature and continue 
M104 S225.0   ; set hot end temperature and continue
M106 S190; fan on for correct PID
G4  P3000 ; wait 3 sec
;G1 X20 Y20 F3000 ; go to parking pos.
M109 S225.0   ; wait for hot end temperature to reach e.g. 210 °C
G1 E-5 F300
M106 S0; fan off
G28 ; Home all axes
G1 Z10 F300 ; Z raise
;BED_MESH_CALIBRATE PROFILE=mesh1 METHOD=automatic
G4  P1000 ; wait a second
; prime nozzle

;G1 X190 Y30 F7200 ; move to start
;G1 Z0.3 F800 ; Move to layer height
;G92 E0.0 
;G1 X190 Y170 E20 F800 ; print prime line
;G1 X189 Y170 F7200 ; move to start
;G1 X189 Y30 E40 F800 ; print prime line

;G1 X190 Y30 F7200 ; move to start
;G1 Z0.3 F800 ; Move to layer height
;G92 E0.0 
;G1 X185 Y170 E20 F800 ; print prime line
;G1 X184 Y170 F7200 ; move to start
;G1 X184 Y30 E40 F800 ; print prime line

G1 X30 Y181 F7200 ; move to start
G1 Z0.3 F800 ; Move to layer height
G92 E0.0 
G1 X170 Y181 E20 F800 ; print prime line
G1 X170 Y180 F7200 ; move to start
G1 X30 Y180 E40 F800 ; print prime line
G92 E0
G92 E0
G1 F4800 E-2
;LAYER_COUNT:25
;LAYER:0
M107 P1
G0 F7200 X63.222 Y66.661 Z0.2
;TYPE:SKIRT
G1 F1920 E0
G1 F1200 X64.121 Y65.941 E0.0431
G1 X65.331 Y65.164 E0.0969
G1 X66 Y64.822 E0.12502
G1 X67.755 Y64.152 E0.19531
G1 X68.196 Y64.034 E0.21239
G1 X70.261 Y63.708 E0.29061
G1 X70.709 Y63.688 E0.30739
G1 X72.762 Y63.821 E0.38437
G1 X73.836 Y64.033 E0.42534
G1 X75.318 Y64.492 E0.48339
G1 X76.043 Y64.809 E0.51299
G1 X77.437 Y65.582 E0.57264
G1 X78.381 Y66.256 E0.61604
G1 X78.958 Y66.747 E0.64439
G1 X80.278 Y68.161 E0.71677
G1 X80.756 Y68.811 E0.74696
G1 X81.31 Y69.76 E0.78807
G1 X102.193 Y69.806 E1.56947
G1 X102.536 Y69.849 E1.5824
G1 X103.586 Y70.063 E1.6225
G1 X104.455 Y70.349 E1.65673
G1 X104.799 Y70.501 E1.6708
G1 X105.697 Y70.988 E1.70903
G1 X106.625 Y71.637 E1.7514
G1 X110.903 Y75.277 E1.96158
G1 X111.998 Y76.461 E2.02192
G1 X112.552 Y77.273 E2.0587
G1 X112.912 Y77.97 E2.08806
G1 X113.34 Y79.121 E2.134
G1 X113.389 Y79.325 E2.14185
G1 X116.921 Y79.32 E2.27401
G1 X118.257 Y74.184 E2.47259
G1 X118.296 Y73.87 E2.48443
G1 X118.504 Y72.855 E2.52319
G1 X118.826 Y71.824 E2.56361
G1 X119.365 Y70.582 E2.61427
G1 X119.869 Y69.704 E2.65215
G1 X120.724 Y68.521 E2.70677
G1 X121.051 Y68.15 E2.72527
G1 X122.148 Y67.137 E2.78114
G1 X123.404 Y66.241 E2.83887
G1 X124.175 Y65.811 E2.8719
G1 X125.143 Y65.388 E2.91143
G1 X126.306 Y65.015 E2.95713
G1 X127.551 Y64.765 E3.00465
G1 X128.503 Y64.68 E3.04041
G1 X129.992 Y64.697 E3.09613
G1 X130.423 Y64.746 E3.11236
G1 X132.314 Y65.175 E3.18491
G1 X133.405 Y65.582 E3.22848
G1 X134.322 Y66.04 E3.26684
G1 X135.5 Y66.797 E3.31923
G1 X136.367 Y67.494 E3.36086
G1 X136.676 Y67.787 E3.37679
G1 X137.98 Y69.36 E3.45324
G1 X138.504 Y70.193 E3.49007
G1 X139.039 Y71.27 E3.53506
G1 X139.255 Y71.818 E3.5571
G1 X139.764 Y73.752 E3.63193
G1 X139.836 Y74.259 E3.65109
G1 X139.913 Y75.525 E3.69855
G1 X139.888 Y125.145 E5.55522
G1 X139.792 Y126.087 E5.59065
G1 X139.547 Y127.322 E5.63776
G1 X139.256 Y128.247 E5.67404
G1 X138.784 Y129.347 E5.71883
G1 X138.179 Y130.416 E5.76479
G1 X137.373 Y131.527 E5.81615
G1 X136.916 Y132.035 E5.84172
G1 X135.783 Y133.06 E5.89889
G1 X134.773 Y133.777 E5.94523
G1 X134.239 Y134.089 E5.96837
G1 X132.509 Y134.846 E6.03903
G1 X131.879 Y135.037 E6.06366
G1 X130.449 Y135.319 E6.1182
G1 X129.472 Y135.4 E6.15488
G1 X128.486 Y135.394 E6.19178
G1 X126.867 Y135.191 E6.25283
G1 X125.946 Y134.961 E6.28835
G1 X124.757 Y134.529 E6.33569
G1 X123.637 Y133.97 E6.38253
G1 X122.529 Y133.246 E6.43205
G1 X121.705 Y132.577 E6.47177
G1 X121.299 Y132.182 E6.49296
G1 X120.303 Y130.998 E6.55085
G1 X119.531 Y129.806 E6.60399
G1 X119.053 Y128.839 E6.64435
G1 X118.741 Y128.02 E6.67715
G1 X118.332 Y126.412 E6.73923
G1 X118.235 Y125.714 E6.7656
G1 X116.75 Y119.274 E7.01289
G1 X115.701 Y119.274 E7.05214
G1 X107.651 Y132.015 E7.61607
G1 X106.921 Y132.897 E7.65891
G1 X106.587 Y133.234 E7.67666
G1 X105.707 Y133.961 E7.71937
G1 X104.919 Y134.444 E7.75395
G1 X103.874 Y134.912 E7.7968
G1 X102.673 Y135.263 E7.84362
G1 X102.392 Y135.311 E7.85428
G1 X101.177 Y135.413 E7.8999
G1 X69.943 Y135.359 E9.06861
G1 X68.814 Y135.199 E9.11128
G1 X67.949 Y134.984 E9.14463
G1 X66.448 Y134.431 E9.20448
G1 X65.724 Y134.066 E9.23482
G1 X64.599 Y133.353 E9.28466
G1 X63.633 Y132.582 E9.3309
G1 X63.325 Y132.29 E9.34678
G1 X62.129 Y130.865 E9.4164
G1 X61.509 Y129.897 E9.45941
G1 X60.912 Y128.677 E9.51023
G1 X60.576 Y127.76 E9.54677
G1 X60.365 Y126.949 E9.57813
G1 X60.109 Y125.144 E9.64634
G1 X60.095 Y124.384 E9.67479
G1 X60.222 Y122.835 E9.73294
G1 X60.334 Y122.229 E9.756
G1 X60.725 Y120.894 E9.80805
G1 X61.234 Y119.689 E9.857
G1 X61.79 Y118.696 E9.89958
G1 X62.172 Y118.137 E9.92491
G1 X63.35 Y116.778 E9.99221
G1 X64.047 Y116.152 E10.02726
G1 X65.047 Y115.419 E10.07366
G1 X66.231 Y114.746 E10.12462
G1 X66.899 Y114.451 E10.15194
G1 X68.544 Y113.937 E10.21643
G1 X69.494 Y113.758 E10.2526
G1 X70.12 Y113.692 E10.27615
G1 X85.772 Y113.667 E10.86181
G1 X85.781 Y94.565 E11.57657
G1 X66.455 Y94.507 E12.2997
G1 X65.451 Y94.35 E12.33773
G1 X64.744 Y94.163 E12.36509
G1 X63.89 Y93.829 E12.3994
G1 X62.826 Y93.241 E12.44489
G1 X61.914 Y92.542 E12.48788
G1 X61.189 Y91.811 E12.52641
G1 X60.408 Y90.738 E12.57607
G1 X60.079 Y90.138 E12.60167
G1 X59.577 Y88.823 E12.65434
G1 X59.377 Y87.917 E12.68906
G1 X59.262 Y86.666 E12.73606
G1 X59.313 Y74.388 E13.19548
G1 X59.456 Y73.331 E13.23539
G1 X59.676 Y72.375 E13.2721
G1 X60.247 Y70.76 E13.33619
G1 X60.834 Y69.581 E13.38547
G1 X61.425 Y68.655 E13.42658
G1 X61.991 Y67.92 E13.46129
G1 X63.222 Y66.661 E13.52717
G0 F7200 X63.543 Y66.976
G1 F1200 X64.364 Y66.319 E13.56652
G1 X65.536 Y65.565 E13.61866
G1 X66.205 Y65.223 E13.64678
G1 X67.871 Y64.587 E13.7135
G1 X68.312 Y64.469 E13.73059
G1 X70.281 Y64.158 E13.80517
G1 X70.729 Y64.138 E13.82195
G1 X72.676 Y64.263 E13.89496
G1 X73.704 Y64.463 E13.93414
G1 X75.139 Y64.905 E13.99033
G1 X75.825 Y65.203 E14.01831
G1 X77.176 Y65.949 E14.07606
G1 X78.089 Y66.599 E14.11799
G1 X78.666 Y67.09 E14.14634
G1 X79.915 Y68.428 E14.21483
G1 X80.393 Y69.078 E14.24502
G1 X81.051 Y70.209 E14.29398
G1 X102.137 Y70.253 E15.08297
G1 X102.48 Y70.296 E15.09591
G1 X103.496 Y70.504 E15.13471
G1 X104.273 Y70.761 E15.16533
G1 X104.617 Y70.913 E15.17941
G1 X105.482 Y71.383 E15.21624
G1 X106.333 Y71.98 E15.25514
G1 X110.611 Y75.62 E15.46531
G1 X111.667 Y76.766 E15.52362
G1 X112.153 Y77.481 E15.55597
G1 X112.49 Y78.127 E15.58324
G1 X112.918 Y79.278 E15.62918
G1 X113.029 Y79.776 E15.64828
G1 X117.269 Y79.77 E15.80693
G1 X118.7 Y74.27 E16.01957
G1 X118.737 Y73.959 E16.03129
G1 X118.934 Y72.988 E16.06837
G1 X119.239 Y72.003 E16.10695
G1 X119.778 Y70.761 E16.15761
G1 X120.234 Y69.967 E16.19187
G1 X121.062 Y68.819 E16.24483
G1 X121.389 Y68.448 E16.26334
G1 X122.453 Y67.468 E16.31746
G1 X123.623 Y66.634 E16.37123
G1 X124.394 Y66.204 E16.40426
G1 X125.28 Y65.817 E16.44044
G1 X126.443 Y65.444 E16.48614
G1 X127.592 Y65.213 E16.52999
G1 X128.498 Y65.13 E16.56403
G1 X129.945 Y65.145 E16.61818
G1 X130.323 Y65.185 E16.6324
G1 X132.214 Y65.614 E16.70495
G1 X133.205 Y65.985 E16.74455
G1 X134.079 Y66.419 E16.78106
G1 X135.257 Y67.176 E16.83346
G1 X136.057 Y67.821 E16.87191
G1 X136.366 Y68.114 E16.88784
G1 X137.599 Y69.6 E16.96009
G1 X138.123 Y70.433 E16.99692
G1 X138.62 Y71.435 E17.03877
G1 X138.836 Y71.983 E17.06081
G1 X139.318 Y73.815 E17.13169
G1 X139.39 Y74.322 E17.15085
G1 X139.463 Y75.525 E17.19595
G1 X139.44 Y125.099 E19.05089
G1 X139.344 Y126.041 E19.08632
G1 X139.117 Y127.188 E19.13007
G1 X138.842 Y128.07 E19.16464
G1 X138.392 Y129.125 E19.20756
G1 X137.787 Y130.194 E19.25352
G1 X137.037 Y131.227 E19.30128
G1 X136.614 Y131.701 E19.32505
G1 X135.481 Y132.726 E19.38222
G1 X134.546 Y133.388 E19.42509
G1 X134.012 Y133.7 E19.44823
G1 X132.378 Y134.415 E19.51497
G1 X131.748 Y134.606 E19.5396
G1 X130.411 Y134.871 E19.5906
G1 X129.475 Y134.95 E19.62575
G1 X128.489 Y134.944 E19.66264
G1 X126.976 Y134.754 E19.7197
G1 X126.055 Y134.524 E19.75522
G1 X124.958 Y134.126 E19.79889
G1 X123.838 Y133.567 E19.84572
G1 X122.812 Y132.896 E19.8916
G1 X122.018 Y132.253 E19.92983
G1 X121.643 Y131.891 E19.94933
G1 X120.681 Y130.753 E20.00508
G1 X119.909 Y129.561 E20.05822
G1 X119.474 Y128.679 E20.09502
G1 X119.162 Y127.86 E20.12782
G1 X118.778 Y126.35 E20.18611
G1 X118.68 Y125.641 E20.2129
G1 X117.107 Y118.824 E20.47467
G1 X115.454 Y118.824 E20.53653
G1 X107.304 Y131.728 E21.1076
G1 X106.574 Y132.61 E21.15044
G1 X106.299 Y132.888 E21.16507
G1 X105.47 Y133.578 E21.20543
G1 X104.735 Y134.033 E21.23778
G1 X103.69 Y134.501 E21.28062
G1 X102.597 Y134.819 E21.32321
G1 X102.316 Y134.867 E21.33388
G1 X101.178 Y134.963 E21.37661
G1 X69.944 Y134.909 E22.54532
G1 X68.923 Y134.762 E22.58392
G1 X68.058 Y134.547 E22.61727
G1 X66.651 Y134.029 E22.67337
G1 X65.927 Y133.664 E22.70371
G1 X64.879 Y133.001 E22.75011
G1 X63.943 Y132.255 E22.79489
G1 X63.635 Y131.963 E22.81077
G1 X62.508 Y130.622 E22.87632
G1 X61.888 Y129.654 E22.91933
G1 X61.335 Y128.522 E22.96647
G1 X60.999 Y127.605 E23.00301
G1 X60.81 Y126.885 E23.03087
G1 X60.559 Y125.136 E23.09698
G1 X60.545 Y124.376 E23.12542
G1 X60.665 Y122.917 E23.1802
G1 X60.777 Y122.311 E23.20326
G1 X61.14 Y121.069 E23.25168
G1 X61.649 Y119.864 E23.30062
G1 X62.162 Y118.95 E23.33984
G1 X62.544 Y118.391 E23.36518
G1 X63.652 Y117.112 E23.42849
G1 X64.313 Y116.515 E23.46182
G1 X65.313 Y115.782 E23.50821
G1 X66.413 Y115.158 E23.55553
G1 X67.081 Y114.863 E23.58286
G1 X68.628 Y114.379 E23.64351
G1 X69.541 Y114.206 E23.67828
G1 X70.167 Y114.14 E23.70183
G1 X86.222 Y114.116 E24.30257
G1 X86.231 Y94.092 E25.05183
G1 X85.952 Y94.115 E25.0623
G1 X66.525 Y94.062 E25.78922
G1 X65.521 Y93.905 E25.82724
G1 X64.906 Y93.743 E25.85104
G1 X64.108 Y93.435 E25.88304
G1 X63.044 Y92.847 E25.92853
G1 X62.234 Y92.225 E25.96674
G1 X61.509 Y91.494 E26.00527
G1 X60.803 Y90.522 E26.05022
G1 X60.474 Y89.922 E26.07582
G1 X60.016 Y88.724 E26.12381
G1 X59.825 Y87.875 E26.15638
G1 X59.712 Y86.668 E26.20174
G1 X59.759 Y74.448 E26.65898
G1 X59.895 Y73.432 E26.69734
G1 X60.115 Y72.476 E26.73404
G1 X60.65 Y70.96 E26.7942
G1 X61.214 Y69.823 E26.84169
G1 X61.782 Y68.93 E26.88129
G1 X62.348 Y68.195 E26.916
G1 X63.543 Y66.976 E26.97987
G0 F7200 X63.825 Y67.327
G1 F1200 X64.608 Y66.697 E27.01748
G1 X65.741 Y65.966 E27.06793
G1 X66.41 Y65.624 E27.09604
G1 X67.987 Y65.022 E27.1592
G1 X68.428 Y64.904 E27.17629
G1 X70.301 Y64.608 E27.24724
G1 X70.749 Y64.588 E27.26402
G1 X72.59 Y64.705 E27.33304
G1 X73.618 Y64.905 E27.37223
G1 X74.961 Y65.318 E27.42481
G1 X75.607 Y65.597 E27.45113
G1 X76.958 Y66.343 E27.50888
G1 X77.797 Y66.942 E27.54745
G1 X78.374 Y67.433 E27.5758
G1 X79.552 Y68.695 E27.6404
G1 X80.03 Y69.345 E27.67059
G1 X80.791 Y70.659 E27.72741
G1 X102.081 Y70.7 E28.52403
G1 X102.424 Y70.743 E28.53696
G1 X103.356 Y70.932 E28.57255
G1 X104.093 Y71.174 E28.60157
G1 X104.403 Y71.309 E28.61422
G1 X105.224 Y71.752 E28.64913
G1 X106.041 Y72.323 E28.68643
G1 X110.319 Y75.963 E28.8966
G1 X111.296 Y77.02 E28.95046
G1 X111.755 Y77.691 E28.98088
G1 X112.068 Y78.284 E29.00597
G1 X112.496 Y79.435 E29.05192
G1 X112.666 Y80.227 E29.08223
G1 X117.618 Y80.219 E29.26752
G1 X119.143 Y74.355 E29.49424
G1 X119.184 Y74.013 E29.50713
G1 X119.364 Y73.12 E29.54121
G1 X119.652 Y72.181 E29.57796
G1 X120.169 Y70.984 E29.62675
G1 X120.599 Y70.23 E29.65923
G1 X121.4 Y69.117 E29.71054
G1 X121.727 Y68.746 E29.72904
G1 X122.715 Y67.834 E29.77935
G1 X123.842 Y67.027 E29.83122
G1 X124.613 Y66.597 E29.86425
G1 X125.417 Y66.246 E29.89708
G1 X126.58 Y65.873 E29.94278
G1 X127.634 Y65.661 E29.98301
G1 X128.494 Y65.58 E30.01533
G1 X129.898 Y65.593 E30.06786
G1 X130.276 Y65.633 E30.08209
G1 X132.057 Y66.036 E30.15041
G1 X133.005 Y66.388 E30.18825
G1 X133.879 Y66.822 E30.22476
G1 X134.975 Y67.527 E30.27353
G1 X135.747 Y68.148 E30.3106
G1 X136.056 Y68.441 E30.32653
G1 X137.218 Y69.84 E30.39458
G1 X137.742 Y70.673 E30.4314
G1 X138.201 Y71.6 E30.47011
G1 X138.417 Y72.148 E30.49215
G1 X138.872 Y73.878 E30.55908
G1 X138.944 Y74.385 E30.57824
G1 X139.013 Y75.525 E30.62098
G1 X138.992 Y125.053 E32.4742
G1 X138.896 Y125.995 E32.50963
G1 X138.687 Y127.054 E32.55002
G1 X138.412 Y127.936 E32.58459
G1 X138 Y128.903 E32.62392
G1 X137.395 Y129.972 E32.66988
G1 X136.701 Y130.927 E32.71405
G1 X136.278 Y131.401 E32.73782
G1 X135.221 Y132.359 E32.7912
G1 X134.319 Y132.999 E32.83259
G1 X133.785 Y133.311 E32.85573
G1 X132.247 Y133.984 E32.91854
G1 X131.617 Y134.175 E32.94318
G1 X130.372 Y134.423 E32.99068
G1 X129.478 Y134.5 E33.02425
G1 X128.492 Y134.494 E33.06115
G1 X127.085 Y134.317 E33.11421
G1 X126.164 Y134.087 E33.14973
G1 X125.158 Y133.723 E33.18976
G1 X124.084 Y133.19 E33.23462
G1 X123.095 Y132.546 E33.27878
G1 X122.329 Y131.928 E33.31561
G1 X121.987 Y131.6 E33.33334
G1 X121.025 Y130.462 E33.3891
G1 X120.287 Y129.317 E33.44007
G1 X119.895 Y128.519 E33.47334
G1 X119.583 Y127.7 E33.50613
G1 X119.224 Y126.288 E33.56064
G1 X119.124 Y125.568 E33.58784
G1 X117.465 Y118.374 E33.86409
G1 X115.206 Y118.374 E33.94862
G1 X106.957 Y131.441 E34.52683
G1 X106.227 Y132.323 E34.56967
G1 X106.01 Y132.543 E34.58123
G1 X105.233 Y133.195 E34.61918
G1 X104.498 Y133.65 E34.65153
G1 X103.507 Y134.09 E34.6921
G1 X102.521 Y134.375 E34.7305
G1 X102.24 Y134.423 E34.74117
G1 X101.179 Y134.513 E34.78101
G1 X70.007 Y134.463 E35.9474
G1 X69.032 Y134.325 E35.98424
G1 X68.167 Y134.11 E36.0176
G1 X66.807 Y133.607 E36.07185
G1 X66.131 Y133.263 E36.10023
G1 X65.159 Y132.649 E36.14325
G1 X64.253 Y131.928 E36.18658
G1 X63.945 Y131.636 E36.20246
G1 X62.887 Y130.379 E36.26393
G1 X62.267 Y129.411 E36.30695
G1 X61.758 Y128.367 E36.35041
G1 X61.422 Y127.45 E36.38695
G1 X61.246 Y126.772 E36.41316
G1 X61.009 Y125.128 E36.47531
G1 X60.995 Y124.368 E36.50375
G1 X61.108 Y122.999 E36.55515
G1 X61.22 Y122.393 E36.57821
G1 X61.555 Y121.243 E36.62303
G1 X62.042 Y120.084 E36.67007
G1 X62.534 Y119.204 E36.70779
G1 X62.916 Y118.645 E36.73313
G1 X63.954 Y117.446 E36.79247
G1 X64.615 Y116.849 E36.8258
G1 X65.536 Y116.173 E36.86854
G1 X66.595 Y115.57 E36.91414
G1 X67.263 Y115.275 E36.94147
G1 X68.712 Y114.821 E36.99828
G1 X69.588 Y114.654 E37.03165
G1 X70.214 Y114.588 E37.0552
G1 X86.672 Y114.565 E37.67103
G1 X86.681 Y93.601 E38.45545
G1 X85.953 Y93.665 E38.48279
G1 X66.595 Y93.617 E39.20713
G1 X65.591 Y93.46 E39.24515
G1 X65.066 Y93.322 E39.26546
G1 X64.326 Y93.041 E39.29508
G1 X63.262 Y92.453 E39.34057
G1 X62.554 Y91.908 E39.374
G1 X61.829 Y91.177 E39.41252
G1 X61.198 Y90.306 E39.45277
G1 X60.869 Y89.706 E39.47837
G1 X60.455 Y88.623 E39.52176
G1 X60.273 Y87.832 E39.55213
G1 X60.162 Y86.67 E39.5958
G1 X60.205 Y74.507 E40.05092
G1 X60.334 Y73.533 E40.08768
G1 X60.554 Y72.577 E40.12439
G1 X61.054 Y71.159 E40.18065
G1 X61.594 Y70.064 E40.22633
G1 X62.139 Y69.205 E40.26439
G1 X62.705 Y68.47 E40.29911
G1 X63.825 Y67.327 E40.35898
G0 F7200 X64.108 Y67.677
G1 F1200 X64.852 Y67.075 E40.39479
G1 X65.946 Y66.367 E40.44355
G1 X66.615 Y66.025 E40.47167
G1 X68.103 Y65.457 E40.53126
G1 X68.544 Y65.339 E40.54835
G1 X70.321 Y65.058 E40.61566
G1 X70.769 Y65.038 E40.63244
G1 X72.504 Y65.147 E40.69749
G1 X73.532 Y65.347 E40.73668
G1 X74.784 Y65.732 E40.78569
G1 X75.389 Y65.991 E40.81031
G1 X76.74 Y66.737 E40.86806
G1 X77.505 Y67.285 E40.90327
G1 X78.082 Y67.776 E40.93162
G1 X79.223 Y69.002 E40.99429
G1 X79.641 Y69.571 E41.0207
G1 X80.431 Y70.935 E41.07968
G1 X80.507 Y71.108 E41.08676
G1 X102.027 Y71.147 E41.89198
G1 X102.335 Y71.184 E41.90359
G1 X103.267 Y71.373 E41.93917
G1 X103.915 Y71.587 E41.96471
G1 X104.189 Y71.705 E41.97587
G1 X105.01 Y72.148 E42.01078
G1 X105.749 Y72.666 E42.04455
G1 X110.027 Y76.306 E42.25472
G1 X110.925 Y77.275 E42.30416
G1 X111.358 Y77.904 E42.33273
G1 X111.647 Y78.443 E42.35561
G1 X112.056 Y79.529 E42.39904
G1 X112.233 Y80.354 E42.43061
G1 X112.264 Y80.678 E42.44279
G1 X117.966 Y80.668 E42.65614
G1 X119.586 Y74.44 E42.89693
G1 X119.631 Y74.067 E42.91099
G1 X119.795 Y73.251 E42.94213
