;FLAVOR:Marlin
;TIME:5784
;Filament used: 5.07811m
;Layer height: 0.2
;MINX:63.131
;MINY:21.617
;MINZ:0.2
;MAXX:136.869
;MAXY:178.377
;MAXZ:8.6
;Generated with Cura_SteamEngine 5.4.0
M82 ;absolute extrusion mode
M140 S65.0 ; set bed temp  ; set bed temperature and continue 
M104 S225.0   ; set hot end temperature and continue
M106 S190; fan on for correct PID
G4  P3000 ; wait 3 sec
;G1 X20 Y20 F3000 ; go to parking pos.
M109 S225.0   ; wait for hot end temperature to reach e.g. 210 °C
G1 E-5 F300
M106 S0; fan off
G28 ; Home all axes
G1 Z10 F300 ; Z raise
;BED_MESH_CALIBRATE PROFILE=mesh1 METHOD=automatic
G4  P1000 ; wait a second
; prime nozzle

;G1 X190 Y30 F7200 ; move to start
;G1 Z0.3 F800 ; Move to layer height
;G92 E0.0 
;G1 X190 Y170 E20 F800 ; print prime line
;G1 X189 Y170 F7200 ; move to start
;G1 X189 Y30 E40 F800 ; print prime line

;G1 X190 Y30 F7200 ; move to start
;G1 Z0.3 F800 ; Move to layer height
;G92 E0.0 
;G1 X185 Y170 E20 F800 ; print prime line
;G1 X184 Y170 F7200 ; move to start
;G1 X184 Y30 E40 F800 ; print prime line

G1 X30 Y181 F7200 ; move to start
G1 Z0.3 F800 ; Move to layer height
G92 E0.0 
G1 X170 Y181 E20 F800 ; print prime line
G1 X170 Y180 F7200 ; move to start
G1 X30 Y180 E40 F800 ; print prime line
G92 E0
G92 E0
G1 F4800 E-2
;LAYER_COUNT:43
;LAYER:0
M107 P1
G0 F7200 X63.795 Y26.373 Z0.2
;TYPE:SKIRT
G1 F1920 E0
G1 F1200 X64.525 Y25.05 E0.05654
G1 X65.069 Y24.349 E0.08974
G1 X65.962 Y23.465 E0.13676
G1 X66.771 Y22.867 E0.1744
G1 X67.501 Y22.459 E0.20569
G1 X68.623 Y22.005 E0.25098
G1 X69.625 Y21.748 E0.28969
G1 X70.209 Y21.665 E0.31176
G1 X128.997 Y21.617 E2.51147
G1 X130.578 Y21.796 E2.571
G1 X131.272 Y21.972 E2.59779
G1 X132.166 Y22.312 E2.63358
G1 X133.426 Y23.012 E2.68752
G1 X134.086 Y23.519 E2.71866
G1 X135.066 Y24.506 E2.7707
G1 X135.622 Y25.263 E2.80585
G1 X136.03 Y25.993 E2.83714
G1 X136.484 Y27.115 E2.88243
G1 X136.741 Y28.117 E2.92113
G1 X136.824 Y28.701 E2.9432
G1 X136.869 Y170.617 E8.25337
G1 X136.661 Y172.253 E8.31508
G1 X136.5 Y172.849 E8.33818
G1 X136.205 Y173.624 E8.3692
G1 X135.475 Y174.947 E8.42574
G1 X134.931 Y175.648 E8.45895
G1 X134.038 Y176.532 E8.50596
G1 X133.229 Y177.13 E8.54361
G1 X132.499 Y177.538 E8.5749
G1 X131.377 Y177.992 E8.62019
G1 X130.375 Y178.249 E8.65889
G1 X129.791 Y178.332 E8.68096
G1 X92.098 Y178.377 E10.09135
G1 X90.462 Y178.169 E10.15306
G1 X89.866 Y178.008 E10.17616
G1 X89.091 Y177.713 E10.20719
G1 X87.881 Y177.056 E10.2587
G1 X87.064 Y176.435 E10.2971
G1 X86.14 Y175.495 E10.34642
G1 X85.692 Y174.893 E10.3745
G1 X70.323 Y174.849 E10.94958
G1 X69.299 Y174.69 E10.98835
G1 X68.613 Y174.508 E11.01491
G1 X67.824 Y174.201 E11.04659
G1 X66.563 Y173.503 E11.10052
G1 X66.002 Y173.081 E11.12678
G1 X64.897 Y171.975 E11.18528
G1 X64.539 Y171.503 E11.20745
G1 X63.948 Y170.496 E11.25114
G1 X63.702 Y169.94 E11.27389
G1 X63.214 Y168.149 E11.34335
G1 X63.164 Y167.735 E11.35895
G1 X63.14 Y159.202 E11.67824
G1 X63.306 Y157.878 E11.72816
G1 X63.497 Y157.15 E11.75633
G1 X63.821 Y156.307 E11.79012
G1 X64.522 Y155.044 E11.84417
G1 X65.065 Y154.341 E11.87741
G1 X65.907 Y153.497 E11.92201
G1 X66.609 Y152.957 E11.95515
G1 X67.527 Y152.425 E11.99485
G1 X68.083 Y152.179 E12.0176
G1 X69.903 Y151.688 E12.08814
G1 X70.465 Y151.629 E12.10928
G1 X71.925 Y151.62 E12.16391
G1 X71.925 Y115.53 E13.51432
G1 X70.244 Y115.505 E13.57722
G1 X69.381 Y115.37 E13.60991
G1 X68.57 Y115.156 E13.64129
G1 X67.937 Y114.915 E13.66664
G1 X66.563 Y114.164 E13.72523
G1 X66.002 Y113.742 E13.75149
G1 X64.897 Y112.636 E13.80999
G1 X64.539 Y112.164 E13.83216
G1 X63.948 Y111.157 E13.87585
G1 X63.702 Y110.601 E13.8986
G1 X63.214 Y108.81 E13.96806
G1 X63.161 Y108.344 E13.98561
G1 X63.14 Y101.131 E14.2555
G1 X63.306 Y99.806 E14.30547
G1 X63.497 Y99.078 E14.33363
G1 X63.821 Y98.235 E14.36742
G1 X64.522 Y96.972 E14.42147
G1 X65.065 Y96.269 E14.45471
G1 X65.907 Y95.425 E14.49932
G1 X66.609 Y94.885 E14.53246
G1 X67.527 Y94.353 E14.57216
G1 X68.083 Y94.107 E14.59491
G1 X69.877 Y93.619 E14.66447
G1 X70.392 Y93.563 E14.68386
G1 X76.125 Y93.542 E14.89837
G1 X76.125 Y63.409 E16.02588
G1 X70.322 Y63.372 E16.24302
G1 X69.299 Y63.213 E16.28176
G1 X68.613 Y63.031 E16.30831
G1 X67.824 Y62.724 E16.33999
G1 X66.558 Y62.021 E16.39418
G1 X65.857 Y61.477 E16.42738
G1 X64.973 Y60.584 E16.47439
G1 X64.375 Y59.775 E16.51204
G1 X63.967 Y59.045 E16.54333
G1 X63.513 Y57.923 E16.58862
G1 X63.256 Y56.921 E16.62732
G1 X63.173 Y56.337 E16.6494
G1 X63.131 Y29.383 E17.65795
G1 X63.339 Y27.744 E17.71977
G1 X63.5 Y27.148 E17.74287
G1 X63.795 Y26.373 E17.7739
G0 F7200 X64.216 Y26.533
G1 F1200 X64.882 Y25.324 E17.82555
G1 X65.386 Y24.669 E17.85647
G1 X66.279 Y23.785 E17.90349
G1 X66.991 Y23.26 E17.93659
G1 X67.721 Y22.852 E17.96788
G1 X68.736 Y22.441 E18.00886
G1 X69.688 Y22.194 E18.04566
G1 X70.272 Y22.111 E18.06773
G1 X128.997 Y22.067 E20.26508
G1 X130.469 Y22.233 E20.32051
G1 X131.112 Y22.393 E20.3453
G1 X132.006 Y22.733 E20.38109
G1 X133.154 Y23.37 E20.43022
G1 X133.767 Y23.836 E20.45903
G1 X134.747 Y24.823 E20.51107
G1 X135.229 Y25.483 E20.54165
G1 X135.637 Y26.213 E20.57294
G1 X136.048 Y27.228 E20.61392
G1 X136.295 Y28.18 E20.65072
G1 X136.378 Y28.764 E20.67279
G1 X136.419 Y170.617 E25.9806
G1 X136.226 Y172.137 E26.03793
G1 X136.079 Y172.689 E26.0593
G1 X135.784 Y173.464 E26.09033
G1 X135.118 Y174.673 E26.14198
G1 X134.614 Y175.328 E26.1729
G1 X133.721 Y176.212 E26.21992
G1 X133.009 Y176.737 E26.25302
G1 X132.279 Y177.145 E26.28431
G1 X131.264 Y177.556 E26.32529
G1 X130.312 Y177.803 E26.36209
G1 X129.728 Y177.886 E26.38416
G1 X92.098 Y177.927 E27.79219
G1 X90.578 Y177.734 E27.84952
G1 X90.026 Y177.587 E27.87089
G1 X89.251 Y177.292 E27.90192
G1 X88.097 Y176.661 E27.95113
G1 X87.384 Y176.119 E27.98465
G1 X86.501 Y175.226 E28.03164
G1 X86.01 Y174.567 E28.06239
G1 X85.936 Y174.444 E28.06776
G1 X70.392 Y174.404 E28.64938
G1 X69.368 Y174.245 E28.68816
G1 X68.774 Y174.088 E28.71114
G1 X68.041 Y173.807 E28.74052
G1 X66.834 Y173.143 E28.79206
G1 X66.273 Y172.721 E28.81833
G1 X65.256 Y171.703 E28.87217
G1 X64.898 Y171.231 E28.89434
G1 X64.36 Y170.314 E28.93412
G1 X64.114 Y169.758 E28.95687
G1 X63.661 Y168.095 E29.02136
G1 X63.611 Y167.681 E29.03697
G1 X63.587 Y159.258 E29.35214
G1 X63.753 Y157.934 E29.40207
G1 X63.917 Y157.311 E29.42617
G1 X64.241 Y156.468 E29.45996
G1 X64.879 Y155.318 E29.50917
G1 X65.384 Y154.659 E29.54024
G1 X66.226 Y153.815 E29.58485
G1 X66.836 Y153.346 E29.61364
G1 X67.709 Y152.837 E29.65145
G1 X68.265 Y152.591 E29.6742
G1 X69.95 Y152.136 E29.73951
G1 X70.512 Y152.077 E29.76065
G1 X72.375 Y152.068 E29.83036
G1 X72.375 Y115.086 E31.21414
G1 X70.314 Y115.06 E31.29127
G1 X69.451 Y114.925 E31.32395
G1 X68.73 Y114.735 E31.35185
G1 X68.097 Y114.494 E31.37719
G1 X66.834 Y113.804 E31.43104
G1 X66.273 Y113.382 E31.45731
G1 X65.256 Y112.364 E31.51115
G1 X64.898 Y111.892 E31.53332
G1 X64.36 Y110.975 E31.5731
G1 X64.114 Y110.419 E31.59585
G1 X63.661 Y108.756 E31.66034
G1 X63.611 Y108.342 E31.67595
G1 X63.587 Y101.187 E31.94367
G1 X63.753 Y99.862 E31.99364
G1 X63.917 Y99.239 E32.01774
G1 X64.241 Y98.396 E32.05154
G1 X64.879 Y97.246 E32.10075
G1 X65.384 Y96.587 E32.13181
G1 X66.226 Y95.743 E32.17642
G1 X66.836 Y95.274 E32.20521
G1 X67.709 Y94.765 E32.24302
G1 X68.265 Y94.519 E32.26577
G1 X69.928 Y94.066 E32.33027
G1 X70.394 Y94.013 E32.34781
G1 X76.575 Y93.99 E32.57909
G1 X76.575 Y62.961 E33.74013
G1 X70.391 Y62.927 E33.97152
G1 X69.368 Y62.768 E34.01026
G1 X68.774 Y62.611 E34.03325
G1 X68.041 Y62.33 E34.06262
G1 X66.832 Y61.664 E34.11427
G1 X66.177 Y61.16 E34.14519
G1 X65.293 Y60.267 E34.19221
G1 X64.768 Y59.555 E34.22531
G1 X64.36 Y58.825 E34.2566
G1 X63.949 Y57.81 E34.29758
G1 X63.702 Y56.858 E34.33438
G1 X63.619 Y56.274 E34.35645
G1 X63.581 Y29.382 E35.36269
G1 X63.774 Y27.86 E35.42009
G1 X63.921 Y27.308 E35.44147
G1 X64.216 Y26.533 E35.4725
G0 F7200 X64.611 Y26.749
G1 F1200 X65.24 Y25.597 E35.52161
G1 X65.704 Y24.988 E35.55025
G1 X66.548 Y24.146 E35.59486
G1 X67.211 Y23.653 E35.62578
G1 X67.941 Y23.245 E35.65707
G1 X68.85 Y22.876 E35.69378
G1 X69.751 Y22.64 E35.72863
G1 X70.335 Y22.557 E35.7507
G1 X128.997 Y22.517 E37.9457
G1 X130.36 Y22.67 E37.99702
G1 X131.003 Y22.83 E38.02181
G1 X131.789 Y23.127 E38.05325
G1 X132.884 Y23.73 E38.10002
G1 X133.449 Y24.154 E38.12645
G1 X134.385 Y25.09 E38.17598
G1 X134.836 Y25.703 E38.20446
G1 X135.244 Y26.433 E38.23575
G1 X135.613 Y27.342 E38.27246
G1 X135.849 Y28.243 E38.30731
G1 X135.932 Y28.827 E38.32938
G1 X135.969 Y170.617 E43.63483
G1 X135.791 Y172.021 E43.68779
G1 X135.644 Y172.573 E43.70916
G1 X135.389 Y173.248 E43.73616
G1 X134.76 Y174.4 E43.78527
G1 X134.296 Y175.009 E43.81392
G1 X133.452 Y175.851 E43.85853
G1 X132.789 Y176.344 E43.88944
G1 X132.059 Y176.752 E43.92073
G1 X131.15 Y177.121 E43.95744
G1 X130.249 Y177.357 E43.99229
G1 X129.665 Y177.44 E44.01437
G1 X92.098 Y177.477 E45.42003
G1 X90.694 Y177.299 E45.47299
G1 X90.142 Y177.152 E45.49436
G1 X89.467 Y176.897 E45.52136
G1 X88.313 Y176.266 E45.57058
G1 X87.658 Y175.762 E45.6015
G1 X86.862 Y174.957 E45.64386
G1 X86.371 Y174.298 E45.67461
G1 X86.195 Y173.995 E45.68772
G1 X70.461 Y173.959 E46.27645
G1 X69.437 Y173.8 E46.31523
G1 X68.933 Y173.667 E46.33473
G1 X68.257 Y173.412 E46.36177
G1 X67.105 Y172.783 E46.41088
G1 X66.544 Y172.361 E46.43715
G1 X65.615 Y171.431 E46.48633
G1 X65.257 Y170.959 E46.5085
G1 X64.772 Y170.132 E46.54437
G1 X64.526 Y169.576 E46.56712
G1 X64.108 Y168.041 E46.62665
G1 X64.058 Y167.627 E46.64225
G1 X64.037 Y159.257 E46.95544
G1 X64.189 Y158.047 E47.00107
G1 X64.338 Y157.47 E47.02337
G1 X64.635 Y156.685 E47.05477
G1 X65.238 Y155.59 E47.10155
G1 X65.703 Y154.977 E47.13034
G1 X66.545 Y154.133 E47.17495
G1 X67.064 Y153.734 E47.19944
G1 X67.891 Y153.249 E47.23531
G1 X68.447 Y153.003 E47.25806
G1 X69.997 Y152.584 E47.31814
G1 X70.559 Y152.525 E47.33929
G1 X72.825 Y152.516 E47.42408
G1 X72.825 Y114.641 E48.84127
G1 X70.384 Y114.615 E48.93261
G1 X69.521 Y114.48 E48.9653
G1 X68.89 Y114.314 E48.98971
G1 X68.257 Y114.073 E49.01505
G1 X67.105 Y113.444 E49.06417
G1 X66.544 Y113.022 E49.09043
G1 X65.615 Y112.092 E49.13962
G1 X65.257 Y111.62 E49.16178
G1 X64.772 Y110.793 E49.19766
G1 X64.526 Y110.237 E49.22041
G1 X64.108 Y108.702 E49.27994
G1 X64.058 Y108.288 E49.29554
G1 X64.037 Y101.186 E49.56128
G1 X64.189 Y99.975 E49.60695
G1 X64.338 Y99.398 E49.62925
G1 X64.635 Y98.613 E49.66065
G1 X65.238 Y97.518 E49.70743
G1 X65.703 Y96.905 E49.73622
G1 X66.545 Y96.061 E49.78082
G1 X67.064 Y95.662 E49.80532
G1 X67.891 Y95.177 E49.84119
G1 X68.447 Y94.931 E49.86394
G1 X69.982 Y94.513 E49.92347
G1 X70.396 Y94.463 E49.93907
G1 X77.025 Y94.438 E50.18712
G1 X77.025 Y62.513 E51.38167
G1 X70.46 Y62.482 E51.62732
G1 X69.437 Y62.323 E51.66606
G1 X68.933 Y62.19 E51.68557
G1 X68.257 Y61.935 E51.7126
G1 X67.105 Y61.306 E51.76171
G1 X66.496 Y60.842 E51.79036
G1 X65.654 Y59.998 E51.83497
G1 X65.161 Y59.335 E51.86588
G1 X64.753 Y58.605 E51.89718
G1 X64.384 Y57.696 E51.93388
G1 X64.148 Y56.795 E51.96873
G1 X64.065 Y56.211 E51.99081
G1 X64.031 Y29.381 E52.99472
G1 X64.209 Y27.976 E53.04771
G1 X64.356 Y27.424 E53.06909
G1 X64.611 Y26.749 E53.09609
G0 F7200 X65.007 Y26.963
G1 F1200 X65.6 Y25.868 E53.14268
G1 X66.022 Y25.307 E53.16895
G1 X66.866 Y24.465 E53.21356
G1 X67.432 Y24.045 E53.23993
G1 X68.11 Y23.662 E53.26907
G1 X69.019 Y23.293 E53.30578
G1 X69.814 Y23.086 E53.33651
G1 X70.398 Y23.003 E53.35859
G1 X128.997 Y22.967 E55.55122
G1 X130.309 Y23.117 E55.60064
G1 X130.846 Y23.252 E55.62135
G1 X131.573 Y23.522 E55.65037
G1 X132.614 Y24.09 E55.69474
G1 X133.179 Y24.514 E55.72118
G1 X134.024 Y25.358 E55.76586
G1 X134.444 Y25.924 E55.79224
G1 X134.827 Y26.602 E55.82137
G1 X135.196 Y27.511 E55.85808
G1 X135.403 Y28.306 E55.88882
G1 X135.486 Y28.89 E55.91089
G1 X135.519 Y170.617 E61.21398
G1 X135.356 Y171.905 E61.26256
G1 X135.209 Y172.457 E61.28394
G1 X134.993 Y173.034 E61.30699
G1 X134.4 Y174.129 E61.35358
G1 X133.978 Y174.69 E61.37985
G1 X133.134 Y175.532 E61.42446
G1 X132.568 Y175.952 E61.45083
G1 X131.89 Y176.335 E61.47997
G1 X130.981 Y176.704 E61.51668
G1 X130.186 Y176.911 E61.54742
G1 X129.602 Y176.994 E61.56949
G1 X92.098 Y177.027 E62.9728
G1 X90.81 Y176.864 E63.02138
G1 X90.258 Y176.717 E63.04275
G1 X89.681 Y176.501 E63.06581
G1 X88.586 Y175.908 E63.1124
G1 X87.977 Y175.444 E63.14105
G1 X87.223 Y174.688 E63.181
G1 X86.732 Y174.029 E63.21175
G1 X86.457 Y173.546 E63.23255
G1 X70.462 Y173.509 E63.83105
G1 X69.552 Y173.365 E63.86552
G1 X69.048 Y173.232 E63.88502
G1 X68.471 Y173.016 E63.90808
G1 X67.376 Y172.423 E63.95467
G1 X66.815 Y172.001 E63.98094
G1 X65.974 Y171.159 E64.02547
G1 X65.616 Y170.687 E64.04763
G1 X65.184 Y169.95 E64.0796
G1 X64.938 Y169.394 E64.10235
G1 X64.555 Y167.987 E64.15691
G1 X64.505 Y167.573 E64.17251
G1 X64.487 Y159.256 E64.48372
G1 X64.625 Y158.158 E64.52513
G1 X64.76 Y157.627 E64.54563
G1 X65.03 Y156.901 E64.57461
G1 X65.598 Y155.86 E64.61898
G1 X66.022 Y155.295 E64.64541
G1 X66.864 Y154.451 E64.69002
G1 X67.336 Y154.093 E64.71219
G1 X68.073 Y153.661 E64.74415
G1 X68.629 Y153.415 E64.7669
G1 X70.044 Y153.032 E64.82176
G1 X70.606 Y152.973 E64.8429
G1 X73.275 Y152.964 E64.94277
G1 X73.275 Y114.195 E66.39341
G1 X70.454 Y114.17 E66.49897
G1 X69.591 Y114.035 E66.53166
G1 X69.048 Y113.893 E66.55266
G1 X68.471 Y113.677 E66.57571
G1 X67.376 Y113.084 E66.62231
G1 X66.815 Y112.662 E66.64857
G1 X65.974 Y111.82 E66.6931
G1 X65.616 Y111.348 E66.71527
G1 X65.184 Y110.611 E66.74723
G1 X64.938 Y110.055 E66.76998
G1 X64.555 Y108.648 E66.82455
G1 X64.505 Y108.234 E66.84015
G1 X64.487 Y101.185 E67.10391
G1 X64.625 Y100.086 E67.14535
G1 X64.76 Y99.555 E67.16585
G1 X65.03 Y98.829 E67.19484
G1 X65.598 Y97.788 E67.23921
G1 X66.022 Y97.223 E67.26564
G1 X66.864 Y96.379 E67.31025
G1 X67.336 Y96.021 E67.33242
G1 X68.073 Y95.589 E67.36438
G1 X68.629 Y95.343 E67.38713
G1 X70.036 Y94.96 E67.44169
G1 X70.45 Y94.91 E67.4573
G1 X77.475 Y94.887 E67.72016
G1 X77.475 Y62.065 E68.94828
G1 X70.462 Y62.032 E69.21069
G1 X69.552 Y61.888 E69.24516
G1 X69.048 Y61.755 E69.26467
G1 X68.471 Y61.539 E69.28772
G1 X67.376 Y60.946 E69.33432
G1 X66.815 Y60.524 E69.36058
G1 X65.973 Y59.68 E69.40519
G1 X65.553 Y59.114 E69.43156
G1 X65.17 Y58.436 E69.4607
G1 X64.801 Y57.527 E69.49741
G1 X64.594 Y56.732 E69.52815
G1 X64.511 Y56.148 E69.55022
G1 X64.481 Y29.38 E70.55182
G1 X64.644 Y28.092 E70.6004
G1 X64.791 Y27.54 E70.62177
G1 X65.007 Y26.963 E70.64482
G0 F7200 X65.404 Y27.176
G1 F1200 X65.96 Y26.139 E70.68885
G1 X66.382 Y25.578 E70.71512
G1 X67.136 Y24.825 E70.75499
G1 X67.655 Y24.436 E70.77926
G1 X68.281 Y24.078 E70.80624
G1 X69.134 Y23.728 E70.84074
G1 X69.877 Y23.532 E70.86949
G1 X70.461 Y23.449 E70.89157
G1 X128.997 Y23.417 E73.08185
G1 X130.201 Y23.554 E73.12719
G1 X130.692 Y23.675 E73.14611
G1 X131.359 Y23.918 E73.17267
G1 X132.344 Y24.45 E73.21456
G1 X132.909 Y24.874 E73.24099
G1 X133.664 Y25.628 E73.28092
G1 X134.053 Y26.147 E73.30519
G1 X134.411 Y26.773 E73.33217
G1 X134.761 Y27.626 E73.36667
G1 X134.957 Y28.369 E73.39542
G1 X135.04 Y28.953 E73.41749
G1 X135.069 Y170.617 E78.71823
G1 X134.921 Y171.79 E78.76247
G1 X134.786 Y172.302 E78.78228
G1 X134.596 Y172.821 E78.80296
G1 X134.04 Y173.858 E78.84699
G1 X133.618 Y174.419 E78.87325
G1 X132.864 Y175.172 E78.91313
G1 X132.345 Y175.561 E78.9374
G1 X131.719 Y175.919 E78.96438
G1 X130.866 Y176.269 E78.99888
G1 X130.123 Y176.465 E79.02763
G1 X129.539 Y176.548 E79.0497
G1 X92.098 Y176.577 E80.45066
G1 X90.925 Y176.429 E80.4949
G1 X90.413 Y176.294 E80.51471
G1 X89.894 Y176.104 E80.53539
G1 X88.857 Y175.548 E80.57942
G1 X88.296 Y175.126 E80.60568
G1 X87.542 Y174.37 E80.64564
G1 X87.123 Y173.806 E80.67193
G1 X86.82 Y173.274 E80.69483
G1 X86.745 Y173.097 E80.70203
G1 X70.531 Y173.064 E81.30872
G1 X69.665 Y172.929 E81.34151
G1 X69.203 Y172.809 E81.35937
G1 X68.684 Y172.619 E81.38005
G1 X67.647 Y172.063 E81.42408
G1 X67.086 Y171.641 E81.45035
G1 X66.333 Y170.887 E81.49022
G1 X65.975 Y170.415 E81.51239
G1 X65.596 Y169.768 E81.54044
G1 X65.35 Y169.212 E81.56319
G1 X65.002 Y167.933 E81.61279
G1 X64.952 Y167.519 E81.62839
G1 X64.937 Y159.255 E81.93761
G1 X65.062 Y158.267 E81.97488
