;FLAVOR:Marlin
;TIME:700
;Filament used: 0.175633m
;Layer height: 0.12
;MINX:93.372
;MINY:93.336
;MINZ:0.2
;MAXX:106.63
;MAXY:106.67
;MAXZ:5.24
;Generated with Cura_SteamEngine 5.4.0
M82 ;absolute extrusion mode
M140 S65.0 ; set bed temp  ; set bed temperature and continue 
M104 S215.0   ; set hot end temperature and continue
M106 S190; fan on for correct PID
G4  P3000 ; wait 3 sec
;G1 X20 Y20 F3000 ; go to parking pos.
M109 S215.0   ; wait for hot end temperature to reach e.g. 210 °C
G1 E-5 F300
M106 S0; fan off
G28 ; Home all axes
G1 Z10 F300 ; Z raise
;BED_MESH_CALIBRATE PROFILE=mesh1 METHOD=automatic
G4  P1000 ; wait a second
; prime nozzle


G1 X30 Y190 F7200 ; move to start
G1 Z0.3 F800 ; Move to layer height
G92 E0.0 
G1 X170 Y190 E20 F800 ; print prime line
G1 X170 Y189 F7200 ; move to start
G1 X30 Y189 E40 F800 ; print prime line
G92 E0
G92 E0
G1 F1800 E-0.75
;LAYER_COUNT:43
;LAYER:0
M106 S41 P1
;MESH:slimbedfinger.stl
G0 F7200 X97.071 Y94.029 Z0.2
;TYPE:WALL-OUTER
G1 F720 E0
G1 F900 X97.055 Y94.034 E0.00056
G1 X96.522 Y94.943 E0.03561
G1 X96.518 Y94.965 E0.03635
G1 X94.043 Y99.105 E0.19678
G1 X94.021 Y99.124 E0.19774
G1 X93.443 Y100.108 E0.2357
G1 X93.401 Y100.254 E0.24075
G1 X93.372 Y100.445 E0.24718
G1 X93.375 Y100.6 E0.25233
G1 X93.455 Y101.011 E0.26626
G1 X93.546 Y101.351 E0.27797
G1 X93.671 Y101.725 E0.29108
G1 X93.778 Y102.002 E0.30096
G1 X93.931 Y102.341 E0.31333
G1 X94.094 Y102.652 E0.32501
G1 X94.243 Y102.903 E0.33472
G1 X94.459 Y103.227 E0.34767
G1 X94.669 Y103.506 E0.35928
G1 X94.906 Y103.79 E0.37159
G1 X95.025 Y103.862 E0.37621
G1 X95.105 Y103.946 E0.38007
G1 X95.323 Y104.109 E0.38912
G1 X95.439 Y104.217 E0.39439
G1 X95.634 Y104.357 E0.40238
G1 X95.79 Y104.484 E0.40907
G1 X96.183 Y104.743 E0.42472
G1 X96.495 Y104.93 E0.43682
G1 X97.063 Y105.213 E0.45793
G1 X97.427 Y105.359 E0.47097
G1 X97.794 Y105.48 E0.48383
G1 X98.162 Y105.578 E0.49649
G1 X98.542 Y105.651 E0.50936
G1 X98.929 Y105.702 E0.52234
G1 X99.315 Y105.729 E0.53521
G1 X99.693 Y105.73 E0.54779
G1 X100.081 Y105.707 E0.56071
G1 X100.471 Y105.66 E0.57378
G1 X100.879 Y105.585 E0.58758
G1 X101.321 Y105.465 E0.60281
G1 X101.717 Y105.332 E0.6167
G1 X102.118 Y105.166 E0.63114
G1 X102.586 Y104.921 E0.64871
G1 X102.91 Y104.722 E0.66136
G1 X103.231 Y104.497 E0.67439
G1 X103.532 Y104.256 E0.68722
G1 X103.829 Y103.986 E0.70057
G1 X104.1 Y103.704 E0.71358
G1 X104.435 Y103.296 E0.73114
G1 X104.658 Y102.982 E0.74395
G1 X104.863 Y102.653 E0.75684
G1 X105.045 Y102.315 E0.76961
G1 X105.206 Y101.963 E0.78248
G1 X105.348 Y101.587 E0.79585
G1 X105.458 Y101.235 E0.80811
G1 X105.581 Y100.701 E0.82634
G1 X105.663 Y100.093 E0.84675
G1 X105.684 Y99.504 E0.86635
G1 X105.671 Y99.163 E0.8777
G1 X105.633 Y98.798 E0.8899
G1 X105.57 Y98.401 E0.90327
G1 X105.483 Y98.02 E0.91627
G1 X105.322 Y97.502 E0.93431
G1 X105.195 Y97.179 E0.94586
G1 X105.013 Y96.788 E0.9602
G1 X104.828 Y96.451 E0.97299
G1 X104.612 Y96.112 E0.98636
G1 X104.296 Y95.691 E1.00387
G1 X104.039 Y95.397 E1.01685
G1 X103.768 Y95.121 E1.02972
G1 X103.48 Y94.865 E1.04253
G1 X103.179 Y94.629 E1.05526
G1 X102.924 Y94.452 E1.06558
G1 X102.529 Y94.208 E1.08102
G1 X102.056 Y93.953 E1.0989
G1 X101.576 Y93.734 E1.11644
G1 X101.431 Y93.683 E1.12156
G1 X101.159 Y93.561 E1.13147
G1 X101.108 Y93.547 E1.13323
G1 X101.047 Y93.514 E1.13554
G1 X100.706 Y93.442 E1.14713
G1 X100.317 Y93.378 E1.16024
G1 X100.015 Y93.352 E1.17032
G1 X99.662 Y93.336 E1.18207
G1 X99.317 Y93.339 E1.19355
G1 X98.969 Y93.363 E1.20515
G1 X98.668 Y93.4 E1.21524
G1 X98.249 Y93.473 E1.22938
G1 X97.929 Y93.548 E1.24032
G1 X97.612 Y93.641 E1.2513
G1 X97.475 Y93.693 E1.25618
G1 X97.299 Y93.8 E1.26303
G1 X97.104 Y93.98 E1.27186
G1 X97.071 Y94.029 E1.27382
G0 F7200 X97.055 Y94.034
G0 X96.962 Y94.192
G0 X97.568 Y94.559
G0 X101.585 Y95.818
G0 X101.574 Y96.522
G1 F900 X101.637 Y96.551 E1.27613
G1 X101.681 Y96.593 E1.27815
G1 X103.408 Y99.705 E1.39653
G1 X103.424 Y99.792 E1.39947
G1 X103.415 Y99.845 E1.40126
G1 X101.593 Y102.909 E1.51982
G1 X101.561 Y102.945 E1.52142
G1 X101.491 Y102.985 E1.5241
G1 X101.425 Y102.994 E1.52632
G1 X97.923 Y102.942 E1.64281
G1 X97.879 Y102.935 E1.64429
G1 X97.814 Y102.902 E1.64672
G1 X97.781 Y102.871 E1.64822
G1 X96.059 Y99.773 E1.76611
G1 X96.034 Y99.693 E1.7689
G1 X96.047 Y99.603 E1.77192
G1 X97.855 Y96.562 E1.88959
G1 X97.933 Y96.488 E1.89317
G1 X98.03 Y96.465 E1.89648
G1 X101.574 Y96.522 E2.01437
G0 F7200 X101.637 Y96.551
G0 X101.681 Y96.593
G0 X101.715 Y96.655
G0 X102.328 Y96.316
G0 X102.017 Y95.89
G0 X97.751 Y95.76
G0 X97.745 Y96.135
;TYPE:WALL-INNER
G1 F900 X97.815 Y96.103 E2.01693
G1 X98.036 Y96.065 E2.02439
G1 X101.531 Y96.116 E2.14065
G1 X101.677 Y96.136 E2.14555
G1 X101.865 Y96.221 E2.15241
G1 X101.97 Y96.314 E2.15708
G1 X102.047 Y96.424 E2.16154
G1 X103.776 Y99.548 E2.2803
G1 X103.814 Y99.676 E2.28474
G1 X103.825 Y99.808 E2.28915
G1 X103.797 Y99.966 E2.29448
G1 X103.739 Y100.092 E2.2991
G1 X101.921 Y103.139 E2.41711
G1 X101.824 Y103.247 E2.42194
G1 X101.708 Y103.327 E2.42662
G1 X101.613 Y103.367 E2.43005
G1 X101.519 Y103.388 E2.43326
G1 X101.419 Y103.394 E2.43659
G1 X97.901 Y103.342 E2.55361
G1 X97.769 Y103.32 E2.55806
G1 X97.658 Y103.275 E2.56204
G1 X97.574 Y103.222 E2.56535
G1 X97.475 Y103.128 E2.56989
G1 X97.41 Y103.034 E2.57369
G1 X95.709 Y99.967 E2.69034
G1 X95.635 Y99.727 E2.69869
G1 X95.634 Y99.654 E2.70112
G1 X95.673 Y99.46 E2.7077
G1 X95.718 Y99.367 E2.71114
G1 X97.511 Y96.357 E2.82766
G1 X97.745 Y96.135 E2.83839
G0 F7200 X97.751 Y95.76
G0 X97.595 Y95.81
G0 X94.654 Y99.444
G0 X94.4 Y99.291
G1 F900 X94.346 Y99.363 E2.84139
G1 X93.819 Y100.258 E2.87593
G1 X93.792 Y100.345 E2.87896
G1 X93.773 Y100.471 E2.8832
G1 X93.774 Y100.557 E2.88606
G1 X93.845 Y100.921 E2.89839
G1 X93.93 Y101.236 E2.90925
G1 X94.045 Y101.582 E2.92137
G1 X94.147 Y101.848 E2.93085
G1 X94.291 Y102.166 E2.94246
G1 X94.444 Y102.457 E2.95339
G1 X94.604 Y102.725 E2.96378
G1 X94.785 Y102.995 E2.97459
G1 X94.982 Y103.256 E2.98546
G1 X95.175 Y103.485 E2.99542
G1 X95.261 Y103.539 E2.9988
G1 X95.38 Y103.651 E3.00424
G1 X95.597 Y103.817 E3.01332
G1 X95.693 Y103.907 E3.0177
G1 X95.886 Y104.046 E3.02561
G1 X96.027 Y104.161 E3.03166
G1 X96.389 Y104.4 E3.04609
G1 X96.69 Y104.581 E3.05777
G1 X97.223 Y104.846 E3.07757
G1 X97.565 Y104.983 E3.08982
G1 X97.908 Y105.096 E3.10184
G1 X98.252 Y105.188 E3.11368
G1 X98.632 Y105.259 E3.12654
G1 X98.969 Y105.304 E3.13784
G1 X99.329 Y105.329 E3.14985
G1 X99.682 Y105.33 E3.16159
G1 X100.045 Y105.309 E3.17368
G1 X100.411 Y105.264 E3.18595
G1 X100.791 Y105.195 E3.19879
G1 X101.204 Y105.082 E3.21303
G1 X101.616 Y104.943 E3.2275
G1 X101.948 Y104.804 E3.23947
G1 X102.388 Y104.573 E3.256
G1 X102.69 Y104.387 E3.26779
G1 X102.991 Y104.177 E3.28
G1 X103.272 Y103.952 E3.29197
G1 X103.549 Y103.699 E3.30445
G1 X103.8 Y103.438 E3.31649
G1 X104.117 Y103.053 E3.33308
G1 X104.325 Y102.76 E3.34503
G1 X104.517 Y102.452 E3.3571
G1 X104.686 Y102.137 E3.36899
G1 X104.836 Y101.809 E3.38099
G1 X104.97 Y101.456 E3.39355
G1 X105.072 Y101.13 E3.40491
G1 X105.187 Y100.631 E3.42194
G1 X105.264 Y100.059 E3.44114
G1 X105.284 Y99.518 E3.45914
G1 X105.269 Y99.165 E3.47089
G1 X105.237 Y98.86 E3.48109
G1 X105.177 Y98.477 E3.49399
G1 X105.097 Y98.124 E3.50603
G1 X104.944 Y97.636 E3.52304
G1 X104.811 Y97.298 E3.53512
G1 X104.656 Y96.97 E3.54718
G1 X104.484 Y96.655 E3.55912
G1 X104.283 Y96.34 E3.57155
G1 X103.985 Y95.943 E3.58806
G1 X103.746 Y95.669 E3.60015
G1 X103.492 Y95.411 E3.61219
G1 X103.223 Y95.172 E3.62416
G1 X102.941 Y94.951 E3.63608
G1 X102.704 Y94.787 E3.64566
G1 X102.329 Y94.555 E3.66033
G1 X101.878 Y94.311 E3.67739
G1 X101.427 Y94.106 E3.69386
G1 X101.267 Y94.048 E3.69952
G1 X100.92 Y93.899 E3.71208
G1 X100.603 Y93.831 E3.72287
G1 X100.267 Y93.776 E3.73419
G1 X99.655 Y93.736 E3.75459
G1 X99.333 Y93.739 E3.7653
G1 X99.007 Y93.761 E3.77617
G1 X98.702 Y93.8 E3.78639
G1 X98.371 Y93.856 E3.79756
G1 X98.031 Y93.935 E3.80917
G1 X97.651 Y94.054 E3.82241
G1 X97.535 Y94.124 E3.82692
G1 X97.373 Y94.281 E3.83442
G1 X96.885 Y95.125 E3.86685
G1 X94.4 Y99.291 E4.02819
G0 F7200 X94.654 Y99.444
G0 X97.567 Y104.443
;TYPE:SKIN
G1 F668.3 X97.716 Y104.545 E4.03729
G1 F795.7 X98.013 Y104.704 E4.05155
G1 F900 X98.339 Y104.793 E4.06419
G1 X98.721 Y104.867 E4.07875
G1 X99.025 Y104.902 E4.0902
G1 X99.348 Y104.925 E4.10232
G1 X99.667 Y104.926 E4.11425
G1 X100.022 Y104.904 E4.12756
G1 X100.312 Y104.868 E4.1385
G1 X100.705 Y104.799 E4.15343
G1 X101.115 Y104.686 E4.16934
G1 X101.55 Y104.532 E4.18661
G1 F858.1 X101.783 Y104.409 E4.19695
G1 F784.9 X101.958 Y104.291 E4.206
G1 F761.3 X102.246 Y104.139 E4.22041
G1 F758.4 X102.471 Y103.995 E4.23227
G1 F794.1 X102.742 Y103.841 E4.24549
G1 F872.8 X103.034 Y103.622 E4.25957
G1 F900 X103.27 Y103.407 E4.27152
G1 X103.517 Y103.15 E4.28485
G1 X103.807 Y102.79 E4.30215
G1 X103.995 Y102.523 E4.31437
G1 X104.169 Y102.245 E4.32664
G1 X104.325 Y101.955 E4.33896
G1 X104.463 Y101.65 E4.35149
G1 X104.588 Y101.321 E4.36466
G1 X104.681 Y101.021 E4.37641
G1 F869.1 X104.773 Y100.552 E4.39493
G1 F780.3 X104.778 Y100.225 E4.40904
G1 F731 X104.809 Y100.015 E4.41882
G1 F740.4 X104.821 Y99.844 E4.42662
G1 F736.4 X104.823 Y99.599 E4.43782
G1 F786.4 X104.858 Y99.229 E4.45374
G1 F878.5 X104.846 Y98.993 E4.4628
G1 F900 X104.776 Y98.541 E4.47991
G1 X104.705 Y98.227 E4.49196
G1 X104.564 Y97.774 E4.50971
G1 X104.431 Y97.442 E4.52309
G1 X104.294 Y97.149 E4.53519
G1 X104.124 Y96.842 E4.54832
G1 X103.948 Y96.568 E4.56051
G1 X103.672 Y96.202 E4.57766
G1 X103.436 Y95.933 E4.59105
G1 F884.3 X103.193 Y95.699 E4.6039
G1 F752.8 X102.902 Y95.536 E4.61882
G1 F638.8 X102.802 Y95.491 E4.6246
G1 F616.4 X102.634 Y95.355 E4.63641
G1 F620.2 X102.406 Y95.197 E4.65147
G1 F614.6 X102.236 Y95.1 E4.6622
G1 F725.8 X101.868 Y94.766 E4.68525
G1 F900 X101.678 Y94.664 E4.69332
G1 X101.259 Y94.475 E4.71052
G1 X100.792 Y94.286 E4.72937
G1 X100.532 Y94.229 E4.73933
G1 X100.222 Y94.179 E4.75108
G1 X99.642 Y94.141 E4.77283
G1 X99.33 Y94.144 E4.78451
G1 X99.028 Y94.166 E4.79584
G1 X98.427 Y94.258 E4.81859
G1 X98.132 Y94.328 E4.82993
G1 X97.826 Y94.423 E4.84192
G1 X97.775 Y94.453 E4.84413
G1 X97.698 Y94.528 E4.84816
G1 X97.249 Y95.294 E4.88138
G1 X97.197 Y95.403 E4.8859
G1 F950.7 X96.838 Y95.956 E4.90925
G1 F992.6 X94.941 Y99.137 E5.0349
G1 F937.5 X94.735 Y99.519 E5.05049
G1 F900 X94.664 Y99.615 E5.05496
G1 X94.196 Y100.415 E5.08964
G1 X94.177 Y100.503 E5.09301
G1 X94.232 Y100.8 E5.10431
G1 X94.323 Y101.134 E5.11726
G1 X94.423 Y101.44 E5.12931
G1 X94.528 Y101.706 E5.14001
G1 X94.663 Y102.004 E5.15225
G1 X94.806 Y102.274 E5.16368
G1 X94.957 Y102.526 E5.17467
G1 X95.126 Y102.774 E5.1859
G1 X95.297 Y103.001 E5.19654
G1 X95.442 Y103.173 E5.20495
G1 X95.52 Y103.228 E5.20853
G1 X95.647 Y103.344 E5.21496
G1 X95.794 Y103.456 E5.22188
G1 X95.953 Y103.595 E5.22978
G1 X96.263 Y103.83 E5.24433
G1 X96.409 Y103.927 E5.25089
G1 F744.5 X96.856 Y104.099 E5.27256
G1 F636.8 X96.928 Y104.147 E5.27713
G1 F644.9 X97.213 Y104.294 E5.29388
G1 F639.8 X97.567 Y104.443 E5.3141
G1 F1800 E4.5641
G0 F7200 X101.898 Y103.636
G0 X104.185 Y99.797
G0 X102.017 Y95.89
G0 X101.801 Y95.676
G1 F720 E5.3141
G1 F660.7 X101.856 Y95.672 E5.31691
G1 F622.1 X101.923 Y95.686 E5.32061
G1 F617.4 X102.15 Y95.804 E5.33457
G1 F620.2 X102.351 Y95.972 E5.34879
G1 F632.8 X102.358 Y96.017 E5.35121
G1 F699.5 X102.424 Y96.182 E5.35977
G1 F775.9 X102.424 Y96.214 E5.36116
G1 F833.3 X102.447 Y96.295 E5.36456
G1 F884.3 X102.587 Y96.565 E5.37614
G1 F892.1 X104.142 Y99.365 E5.49705
G1 F856.2 X104.176 Y99.407 E5.49918
G1 F774.4 X104.266 Y99.613 E5.50895
G1 F736.4 X104.276 Y99.823 E5.51857
G1 X104.235 Y100.105 E5.5316
G1 F805.2 X103.863 Y100.675 E5.56007
G1 F900 X102.409 Y103.11 E5.66619
G1 F859.9 X102.252 Y103.403 E5.67921
G1 F784.9 X102.13 Y103.577 E5.68832
G1 F758.4 X101.975 Y103.687 E5.69676
G1 F761.3 X101.749 Y103.796 E5.70786
G1 F784.9 X101.585 Y103.81 E5.71492
G1 F858.1 X101.409 Y103.799 E5.72184
G1 F900 X98.173 Y103.75 E5.84294
G1 F803.6 X97.887 Y103.798 E5.8551
G1 F704.3 X97.852 Y103.813 E5.85692
G1 F655.3 X97.73 Y103.824 E5.86321
G1 F639.8 X97.487 Y103.737 E5.8768
G1 F642.9 X97.243 Y103.595 E5.89158
G1 F672.8 X97.144 Y103.449 E5.90041
G1 F754.2 X97.13 Y103.389 E5.90317
G1 F845.5 X97.07 Y103.252 E5.90912
G1 F900 X95.336 Y100.121 E6.04304
G1 X95.232 Y99.76 E6.0571
G1 X95.23 Y99.642 E6.06152
G1 F931 X95.301 Y99.349 E6.07242
G1 F983 X95.391 Y99.169 E6.07932
G1 F995.1 X97.215 Y96.118 E6.19961
G1 F946.3 X97.508 Y95.814 E6.21464
G1 F904 X97.554 Y95.777 E6.21684
G1 F900 X97.709 Y95.716 E6.22307
G1 X98.048 Y95.661 E6.23592
G1 X101.562 Y95.713 E6.36742
G1 F811.6 X101.76 Y95.69 E6.37569
G1 F711.8 X101.801 Y95.676 E6.37774
G0 F7200 X102.804 Y95.803
G1 F900 X103.877 Y96.877 E6.43455
G1 X103.947 Y96.947
G0 F7200 X103.524 Y97.797
G1 F900 X104.598 Y98.871 E6.49138
G0 F7200 X104.336 Y99.245
G1 F900 X104.572 Y99.481 E6.50387
G0 F7200 X104.281 Y100.462
G1 F900 X104.506 Y100.687 E6.51577
G0 F7200 X104.024 Y100.842
G1 F900 X104.387 Y101.205 E6.53498
G0 F7200 X104.208 Y101.662
G1 F900 X103.787 Y101.241 E6.55726
G0 F7200 X103.548 Y101.639
G1 F900 X103.997 Y102.088 E6.58102
G0 F7200 X103.751 Y102.478
G1 F900 X103.31 Y102.037 E6.60436
G0 F7200 X103.072 Y102.435
G1 F900 X103.477 Y102.84 E6.62579
G0 F7200 X103.178 Y103.178
G1 F900 X102.834 Y102.834 E6.64399
G0 F7200 X102.596 Y103.233
G1 F900 X102.843 Y103.48 E6.65706
G0 F7200 X101.652 Y104.197
G1 F900 X101.488 Y104.034 E6.66571
G0 F7200 X101.225 Y104.407
G1 F900 X100.832 Y104.014 E6.68651
G0 F7200 X100.737 Y104.556
G1 F900 X100.186 Y104.004 E6.71569
G0 F7200 X99.54 Y103.995
G1 F900 X100.199 Y104.653 E6.75054
G0 F7200 X99.608 Y104.699
G1 F900 X98.894 Y103.985 E6.78832
G0 F7200 X98.248 Y103.975
G1 F900 X98.936 Y104.664 E6.82475
G0 F7200 X98.14 Y104.504
G1 F900 X97.758 Y104.122 E6.84497
G0 F7200 X96.789 Y103.789
G1 F900 X94.833 Y101.833 E6.94847
G1 X94.763 Y101.763
G0 F7200 X94.474 Y100.838
G1 F900 X96.722 Y103.086 E7.06743
G1 X96.792 Y103.156
G0 F7200 X95.925 Y101.652
G1 F900 X94.543 Y100.271 E7.14053
G0 F7200 X94.777 Y99.868
G1 F900 X95.139 Y100.23 E7.15969
G0 F7200 X95.246 Y99.771
G0 X97.474 Y95.565
G1 F900 X97.401 Y95.492 E7.16355
G0 F7200 X97.63 Y95.085
G1 F900 X97.985 Y95.44 E7.18234
G0 F7200 X98.625 Y95.443
G1 F900 X97.865 Y94.683 E7.22255
G0 F7200 X98.33 Y94.511
G1 F900 X99.272 Y95.453 E7.2724
G0 F7200 X99.918 Y95.463
G1 F900 X98.871 Y94.417 E7.32778
G0 F7200 X99.459 Y94.368
G1 F900 X100.564 Y95.473 E7.38625
G0 F7200 X101.211 Y95.483
G1 F900 X100.126 Y94.398 E7.44367
G0 F7200 X100.962 Y94.598
G1 F900 X101.785 Y95.421 E7.48722
G1 X101.855 Y95.491
G0 F7200 X102.748 Y96.384
G1 F900 X104.414 Y98.05 E7.57538
G1 X104.484 Y98.12
G0 F7200 X104.468 Y98.124
M104 S215
G1 F1800 E6.82538
;MESH:NONMESH
G0 F600 X104.468 Y98.124 Z0.32
G0 F7200 X102.017 Y95.89
G0 X97.557 Y95.823
G0 X94.505 Y99.667
G0 X93.981 Y99.261
;TIME_ELAPSED:19.001351
;LAYER:1
M106 S51 P1
;TYPE:WALL-OUTER
;MESH:slimbedfinger.stl
G1 F720 E7.57538
G1 F901.8 X93.931 Y99.301 E7.57665
G1 X93.454 Y100.104 E7.59529
G1 X93.399 Y100.304 E7.59943
G1 X93.375 Y100.469 E7.60276
G1 X93.376 Y100.6 E7.60537
G1 X93.451 Y100.983 E7.61316
G1 X93.555 Y101.361 E7.62099
G1 X93.678 Y101.721 E7.62858
G1 X93.795 Y102.019 E7.63497
G1 X93.941 Y102.343 E7.64206
G1 X94.079 Y102.608 E7.64802
G1 X94.291 Y102.963 E7.65627
G1 X94.455 Y103.207 E7.66214
G1 X94.668 Y103.492 E7.66924
G1 X94.912 Y103.783 E7.67682
G1 X94.927 Y103.819 E7.6776
G1 X95.017 Y103.877 E7.67973
G1 X95.071 Y103.949 E7.68153
G1 X95.301 Y104.143 E7.68753
G1 X95.407 Y104.247 E7.6905
G1 X95.75 Y104.515 E7.69918
G1 X96.142 Y104.786 E7.70869
G1 X96.47 Y104.981 E7.71631
G1 X96.857 Y105.181 E7.725
G1 X97.419 Y105.415 E7.73715
G1 X97.78 Y105.534 E7.74474
G1 X98.161 Y105.634 E7.7526
G1 X98.537 Y105.707 E7.76024
G1 X98.925 Y105.758 E7.76805
G1 X99.312 Y105.785 E7.77579
G1 X99.692 Y105.787 E7.78338
G1 X100.082 Y105.764 E7.79117
G1 X100.472 Y105.717 E7.79901
G1 X101.026 Y105.608 E7.81028
G1 X101.397 Y105.504 E7.81797
G1 X101.762 Y105.376 E7.82569
G1 F904 X102.152 Y105.213 E7.8341
G1 X102.495 Y105.037 E7.84178
G1 F901.8 X102.954 Y104.761 E7.85246
G1 X103.269 Y104.539 E7.86015
G1 X103.572 Y104.297 E7.86789
