;FLAVOR:Marlin
;TIME:1843
;Filament used: 1.55069m
;Layer height: 0.2
;MINX:90.2
;MINY:90.098
;MINZ:0.2
;MAXX:109.852
;MAXY:109.8
;MAXZ:20
;Generated with Cura_SteamEngine 5.4.0
M82 ;absolute extrusion mode
M140 S65.0 ; set bed temp  ; set bed temperature and continue 
M104 S215.0   ; set hot end temperature and continue
M106 S190; fan on for correct PID
G4  P3000 ; wait 3 sec
;G1 X20 Y20 F3000 ; go to parking pos.
M109 S215.0   ; wait for hot end temperature to reach e.g. 210 °C
G1 E-5 F300
M106 S0; fan off
G28 ; Home all axes
G1 Z10 F300 ; Z raise
;BED_MESH_CALIBRATE PROFILE=mesh1 METHOD=automatic
G4  P1000 ; wait a second
; prime nozzle


G1 X30 Y190 F7200 ; move to start
G1 Z0.3 F800 ; Move to layer height
G92 E0.0 
G1 X170 Y190 E20 F800 ; print prime line
G1 X170 Y189 F7200 ; move to start
G1 X30 Y189 E40 F800 ; print prime line
G92 E0
G92 E0
G1 F1800 E-0.75
;LAYER_COUNT:100
;LAYER:0
M107 P1
;MESH:xyzCalibration_cube.stl
G0 F7200 X109.8 Y109.8 Z0.2
;TYPE:WALL-OUTER
G1 F720 E0
G1 F900 X109.8 Y90.2 E0.6519
G1 X90.2 Y90.2 E1.3038
G1 X90.2 Y109.8 E1.9557
G1 X109.8 Y109.8 E2.60759
G0 F7200 X109.8 Y109.6
G0 X109.4 Y109.4
;TYPE:WALL-INNER
G1 F900 X109.4 Y90.6 E3.23289
G1 X90.6 Y90.6 E3.85818
G1 X90.6 Y109.4 E4.48347
G1 X109.4 Y109.4 E5.10876
G0 F7200 X108.996 Y108.996
;TYPE:SKIN
G1 F900 X108.996 Y91.004 E5.78198
G1 X91.004 Y91.004 E6.45519
G1 X91.004 Y108.996 E7.12841
G1 X108.996 Y108.996 E7.80163
G1 F1800 E7.05163
G0 F7200 X108.411 Y91.228
G1 F720 E7.80163
G1 F900 X108.77 Y91.588 E7.82065
G0 F7200 X108.77 Y92.224
G1 F900 X107.775 Y91.228 E7.87333
G0 F7200 X107.138 Y91.228
G1 F900 X108.77 Y92.86 E7.95969
G0 F7200 X108.77 Y93.497
G1 F900 X106.502 Y91.228 E8.07973
G0 F7200 X105.865 Y91.228
G1 F900 X108.77 Y94.133 E8.23346
G0 F7200 X108.77 Y94.769
G1 F900 X105.229 Y91.228 E8.42083
G0 F7200 X104.593 Y91.228
G1 F900 X108.77 Y95.406 E8.64189
G0 F7200 X108.77 Y96.042
G1 F900 X103.956 Y91.228 E8.89663
G0 F7200 X103.32 Y91.228
G1 F900 X108.77 Y96.679 E9.18505
G0 F7200 X108.77 Y97.315
G1 F900 X102.683 Y91.228 E9.50716
G0 F7200 X102.047 Y91.228
G1 F900 X108.77 Y97.951 E9.86292
G0 F7200 X108.77 Y98.588
G1 F900 X101.411 Y91.228 E10.25235
G0 F7200 X100.774 Y91.228
G1 F900 X108.77 Y99.224 E10.67548
G0 F7200 X108.77 Y99.861
G1 F900 X100.138 Y91.228 E11.13228
G0 F7200 X99.501 Y91.228
G1 F900 X108.77 Y100.497 E11.62276
G0 F7200 X108.77 Y101.133
G1 F900 X98.865 Y91.228 E12.1469
G0 F7200 X98.229 Y91.228
G1 F900 X108.77 Y101.77 E12.70472
G0 F7200 X108.77 Y102.406
G1 F900 X97.592 Y91.228 E13.29622
G0 F7200 X96.956 Y91.228
G1 F900 X108.77 Y103.043 E13.9214
G0 F7200 X108.77 Y103.679
G1 F900 X96.319 Y91.228 E14.58027
G0 F7200 X95.683 Y91.228
G1 F900 X108.77 Y104.315 E15.27279
G0 F7200 X108.77 Y104.952
G1 F900 X95.047 Y91.228 E15.99899
G0 F7200 X94.41 Y91.228
G1 F900 X108.77 Y105.588 E16.75887
G0 F7200 X108.77 Y106.225
G1 F900 X93.774 Y91.228 E17.55243
G0 F7200 X93.137 Y91.228
G1 F900 X108.77 Y106.861 E18.37968
G0 F7200 X108.77 Y107.497
G1 F900 X92.501 Y91.228 E19.24057
G0 F7200 X91.865 Y91.228
G1 F900 X108.77 Y108.134 E20.13516
G0 F7200 X108.77 Y108.77
G1 F900 X91.228 Y91.228 E21.06342
G0 F7200 X91.228 Y91.865
G1 F900 X108.134 Y108.77 E21.958
G0 F7200 X107.497 Y108.77
G1 F900 X91.228 Y92.501 E22.8189
G0 F7200 X91.228 Y93.137
G1 F900 X106.861 Y108.77 E23.64614
G0 F7200 X106.225 Y108.77
G1 F900 X91.228 Y93.774 E24.43971
G0 F7200 X91.228 Y94.41
G1 F900 X105.588 Y108.77 E25.19959
G0 F7200 X104.952 Y108.77
G1 F900 X91.228 Y95.047 E25.92579
G0 F7200 X91.228 Y95.683
G1 F900 X104.315 Y108.77 E26.61831
G0 F7200 X103.679 Y108.77
G1 F900 X91.228 Y96.319 E27.27717
G0 F7200 X91.228 Y96.956
G1 F900 X103.043 Y108.77 E27.90235
G0 F7200 X102.406 Y108.77
G1 F900 X91.228 Y97.592 E28.49385
G0 F7200 X91.228 Y98.229
G1 F900 X101.77 Y108.77 E29.05167
G0 F7200 X101.133 Y108.77
G1 F900 X91.228 Y98.865 E29.57581
G0 F7200 X91.228 Y99.501
G1 F900 X100.497 Y108.77 E30.0663
G0 F7200 X99.861 Y108.77
G1 F900 X91.228 Y100.138 E30.5231
G0 F7200 X91.228 Y100.774
G1 F900 X99.224 Y108.77 E30.94622
G0 F7200 X98.588 Y108.77
G1 F900 X91.228 Y101.411 E31.33566
G0 F7200 X91.228 Y102.047
G1 F900 X97.951 Y108.77 E31.69142
G0 F7200 X97.315 Y108.77
G1 F900 X91.228 Y102.683 E32.01352
G0 F7200 X91.228 Y103.32
G1 F900 X96.679 Y108.77 E32.30194
G0 F7200 X96.042 Y108.77
G1 F900 X91.228 Y103.956 E32.55668
G0 F7200 X91.228 Y104.593
G1 F900 X95.406 Y108.77 E32.77774
G0 F7200 X94.769 Y108.77
G1 F900 X91.228 Y105.229 E32.96512
G0 F7200 X91.228 Y105.865
G1 F900 X94.133 Y108.77 E33.11884
G0 F7200 X93.497 Y108.77
G1 F900 X91.228 Y106.502 E33.23888
G0 F7200 X91.228 Y107.138
G1 F900 X92.86 Y108.77 E33.32524
G0 F7200 X92.224 Y108.77
G1 F900 X91.228 Y107.775 E33.37792
G0 F7200 X91.228 Y108.411
G1 F900 X91.588 Y108.77 E33.39694
M104 S215
G1 F1800 E32.64694
;MESH:NONMESH
G0 F600 X91.588 Y108.77 Z0.4
G0 F7200 X109.53 Y109.53
G0 X109.8 Y109.8
;TIME_ELAPSED:65.458801
;LAYER:1
M106 S17 P1
;TYPE:WALL-OUTER
;MESH:xyzCalibration_cube.stl
G1 F720 E33.39694
G1 F975 X109.8 Y90.2 E34.04884
G1 X90.2 Y90.2 E34.70074
G1 X90.2 Y109.8 E35.35264
G1 X109.8 Y109.8 E36.00454
G0 F9900 X109.8 Y109.6
G0 X109.4 Y109.4
;TYPE:WALL-INNER
G1 F1275 X109.4 Y90.6 E36.62983
G1 X90.6 Y90.6 E37.25512
G1 X90.6 Y109.4 E37.88041
G1 X109.4 Y109.4 E38.5057
G0 F9900 X109 Y109
G1 F1275 X109 Y91 E39.10438
G1 X91 Y91 E39.70306
G1 X91 Y109 E40.30175
G1 X109 Y109 E40.90043
G0 F9900 X108.596 Y108.596
;TYPE:SKIN
G1 F975 X108.596 Y91.404 E41.54371
G1 X91.404 Y91.404 E42.187
G1 X91.404 Y108.596 E42.83028
G1 X108.596 Y108.596 E43.47357
G0 F9900 X108.004 Y108.37
G1 F975 X108.37 Y108.004 E43.49293
G0 F9900 X108.37 Y107.367
G1 F975 X107.367 Y108.37 E43.54601
G0 F9900 X106.731 Y108.37
G1 F975 X108.37 Y106.731 E43.63274
G0 F9900 X108.37 Y106.095
G1 F975 X106.095 Y108.37 E43.75312
G0 F9900 X105.458 Y108.37
G1 F975 X108.37 Y105.458 E43.90722
G0 F9900 X108.37 Y104.822
G1 F975 X104.822 Y108.37 E44.09497
G0 F9900 X104.185 Y108.37
G1 F975 X108.37 Y104.185 E44.31642
G0 F9900 X108.37 Y103.549
G1 F975 X103.549 Y108.37 E44.57153
G0 F9900 X102.913 Y108.37
G1 F975 X108.37 Y102.913 E44.8603
G0 F9900 X108.37 Y102.276
G1 F975 X102.276 Y108.37 E45.18277
G0 F9900 X101.64 Y108.37
G1 F975 X108.37 Y101.64 E45.5389
G0 F9900 X108.37 Y101.003
G1 F975 X101.003 Y108.37 E45.92874
G0 F9900 X100.367 Y108.37
G1 F975 X108.37 Y100.367 E46.35223
G0 F9900 X108.37 Y99.731
G1 F975 X99.731 Y108.37 E46.80937
G0 F9900 X99.094 Y108.37
G1 F975 X108.37 Y99.094 E47.30023
G0 F9900 X108.37 Y98.458
G1 F975 X98.458 Y108.37 E47.82474
G0 F9900 X97.821 Y108.37
G1 F975 X108.37 Y97.821 E48.38295
G0 F9900 X108.37 Y97.185
G1 F975 X97.185 Y108.37 E48.97482
G0 F9900 X96.549 Y108.37
G1 F975 X108.37 Y96.549 E49.60035
G0 F9900 X108.37 Y95.912
G1 F975 X95.912 Y108.37 E50.25958
G0 F9900 X95.276 Y108.37
G1 F975 X108.37 Y95.276 E50.95247
G0 F9900 X108.37 Y94.639
G1 F975 X94.639 Y108.37 E51.67907
G0 F9900 X94.003 Y108.37
G1 F975 X108.37 Y94.003 E52.43932
G0 F9900 X108.37 Y93.367
G1 F975 X93.367 Y108.37 E53.23323
G0 F9900 X92.73 Y108.37
G1 F975 X108.37 Y92.73 E54.06085
G0 F9900 X108.37 Y92.094
G1 F975 X92.094 Y108.37 E54.92211
G0 F9900 X91.629 Y108.199
G1 F975 X108.2 Y91.628 E55.799
G0 F9900 X107.563 Y91.628
G1 F975 X91.629 Y107.562 E56.64217
G0 F9900 X91.629 Y106.926
G1 F975 X106.927 Y91.628 E57.45168
G0 F9900 X106.29 Y91.628
G1 F975 X91.629 Y106.29 E58.22752
G0 F9900 X91.629 Y105.653
G1 F975 X105.654 Y91.628 E58.96968
G0 F9900 X105.018 Y91.628
G1 F975 X91.629 Y105.017 E59.67818
G0 F9900 X91.629 Y104.38
G1 F975 X104.381 Y91.628 E60.35297
G0 F9900 X103.745 Y91.628
G1 F975 X91.629 Y103.744 E60.9941
G0 F9900 X91.629 Y103.108
G1 F975 X103.108 Y91.628 E61.60156
G0 F9900 X102.472 Y91.628
G1 F975 X91.629 Y102.471 E62.17533
G0 F9900 X91.629 Y101.835
G1 F975 X101.836 Y91.628 E62.71545
G0 F9900 X101.199 Y91.628
G1 F975 X91.629 Y101.199 E63.22189
G0 F9900 X91.629 Y100.562
G1 F975 X100.563 Y91.628 E63.69465
G0 F9900 X99.926 Y91.628
G1 F975 X91.629 Y99.926 E64.13372
G0 F9900 X91.629 Y99.289
G1 F975 X99.29 Y91.628 E64.53912
G0 F9900 X98.654 Y91.628
G1 F975 X91.629 Y98.653 E64.91085
G0 F9900 X91.629 Y98.017
G1 F975 X98.017 Y91.628 E65.24891
G0 F9900 X97.381 Y91.628
G1 F975 X91.629 Y97.38 E65.55329
G0 F9900 X91.629 Y96.744
G1 F975 X96.744 Y91.628 E65.82398
G0 F9900 X96.108 Y91.628
G1 F975 X91.629 Y96.107 E66.061
G0 F9900 X91.629 Y95.471
G1 F975 X95.472 Y91.628 E66.26435
G0 F9900 X94.835 Y91.628
G1 F975 X91.629 Y94.835 E66.43403
G0 F9900 X91.629 Y94.198
G1 F975 X94.199 Y91.628 E66.57003
G0 F9900 X93.562 Y91.628
G1 F975 X91.629 Y93.562 E66.67234
G0 F9900 X91.629 Y92.925
G1 F975 X92.926 Y91.628 E66.74097
G0 F9900 X92.29 Y91.628
G1 F975 X91.629 Y92.289 E66.77595
G1 X91.559 Y92.359
G1 F1800 E66.02595
;MESH:NONMESH
G0 F600 X91.559 Y92.359 Z0.6
G0 F9900 X109.53 Y109.53
G0 X109.8 Y109.8
;TIME_ELAPSED:122.150715
;LAYER:2
M106 S34 P1
;TYPE:WALL-OUTER
;MESH:xyzCalibration_cube.stl
G1 F720 E66.77595
G1 F1050 X109.8 Y90.2 E67.42785
G1 X90.2 Y90.2 E68.07975
G1 X90.2 Y109.8 E68.73165
G1 X109.8 Y109.8 E69.38355
G0 F12600 X109.8 Y109.6
G0 X109.4 Y109.4
;TYPE:WALL-INNER
G1 F1650 X109.4 Y90.6 E70.00884
G1 X90.6 Y90.6 E70.63413
G1 X90.6 Y109.4 E71.25942
G1 X109.4 Y109.4 E71.88471
G0 F12600 X108.996 Y108.996
;TYPE:SKIN
G1 F1050 X108.996 Y91.004 E72.55793
G1 X91.004 Y91.004 E73.23115
G1 X91.004 Y108.996 E73.90436
G1 X108.996 Y108.996 E74.57758
G1 F1800 E73.82758
G0 F12600 X108.411 Y91.228
G1 F720 E74.57758
G1 F1050 X108.77 Y91.588 E74.59661
G0 F12600 X108.77 Y92.224
G1 F1050 X107.775 Y91.228 E74.64928
G0 F12600 X107.138 Y91.228
G1 F1050 X108.77 Y92.86 E74.73564
G0 F12600 X108.77 Y93.497
G1 F1050 X106.502 Y91.228 E74.85568
G0 F12600 X105.865 Y91.228
G1 F1050 X108.77 Y94.133 E75.00941
G0 F12600 X108.77 Y94.769
G1 F1050 X105.229 Y91.228 E75.19678
G0 F12600 X104.593 Y91.228
G1 F1050 X108.77 Y95.406 E75.41784
G0 F12600 X108.77 Y96.042
G1 F1050 X103.956 Y91.228 E75.67258
G0 F12600 X103.32 Y91.228
G1 F1050 X108.77 Y96.679 E75.96101
G0 F12600 X108.77 Y97.315
G1 F1050 X102.683 Y91.228 E76.28311
G0 F12600 X102.047 Y91.228
G1 F1050 X108.77 Y97.951 E76.63887
G0 F12600 X108.77 Y98.588
G1 F1050 X101.411 Y91.228 E77.02831
G0 F12600 X100.774 Y91.228
G1 F1050 X108.77 Y99.224 E77.45143
G0 F12600 X108.77 Y99.861
G1 F1050 X100.138 Y91.228 E77.90823
G0 F12600 X99.501 Y91.228
G1 F1050 X108.77 Y100.497 E78.39871
G0 F12600 X108.77 Y101.133
G1 F1050 X98.865 Y91.228 E78.92285
G0 F12600 X98.229 Y91.228
G1 F1050 X108.77 Y101.77 E79.48067
G0 F12600 X108.77 Y102.406
G1 F1050 X97.592 Y91.228 E80.07217
G0 F12600 X96.956 Y91.228
G1 F1050 X108.77 Y103.043 E80.69735
G0 F12600 X108.77 Y103.679
G1 F1050 X96.319 Y91.228 E81.35622
G0 F12600 X95.683 Y91.228
G1 F1050 X108.77 Y104.315 E82.04874
G0 F12600 X108.77 Y104.952
G1 F1050 X95.047 Y91.228 E82.77494
G0 F12600 X94.41 Y91.228
G1 F1050 X108.77 Y105.588 E83.53482
G0 F12600 X108.77 Y106.225
G1 F1050 X93.774 Y91.228 E84.32838
G0 F12600 X93.137 Y91.228
G1 F1050 X108.77 Y106.861 E85.15563
G0 F12600 X108.77 Y107.497
G1 F1050 X92.501 Y91.228 E86.01653
G0 F12600 X91.865 Y91.228
G1 F1050 X108.77 Y108.134 E86.91111
G0 F12600 X108.77 Y108.77
G1 F1050 X91.228 Y91.228 E87.83937
G0 F12600 X91.228 Y91.865
G1 F1050 X108.134 Y108.77 E88.73395
G0 F12600 X107.497 Y108.77
G1 F1050 X91.228 Y92.501 E89.59485
G0 F12600 X91.228 Y93.137
G1 F1050 X106.861 Y108.77 E90.42209
G0 F12600 X106.225 Y108.77
G1 F1050 X91.228 Y93.774 E91.21566
G0 F12600 X91.228 Y94.41
G1 F1050 X105.588 Y108.77 E91.97554
G0 F12600 X104.952 Y108.77
G1 F1050 X91.228 Y95.047 E92.70174
G0 F12600 X91.228 Y95.683
G1 F1050 X104.315 Y108.77 E93.39426
G0 F12600 X103.679 Y108.77
G1 F1050 X91.228 Y96.319 E94.05312
G0 F12600 X91.228 Y96.956
G1 F1050 X103.043 Y108.77 E94.6783
G0 F12600 X102.406 Y108.77
G1 F1050 X91.228 Y97.592 E95.26981
G0 F12600 X91.228 Y98.229
G1 F1050 X101.77 Y108.77 E95.82763
G0 F12600 X101.133 Y108.77
G1 F1050 X91.228 Y98.865 E96.35176
G0 F12600 X91.228 Y99.501
G1 F1050 X100.497 Y108.77 E96.84225
G0 F12600 X99.861 Y108.77
G1 F1050 X91.228 Y100.138 E97.29905
G0 F12600 X91.228 Y100.774
G1 F1050 X99.224 Y108.77 E97.72217
G0 F12600 X98.588 Y108.77
G1 F1050 X91.228 Y101.411 E98.11161
G0 F12600 X91.228 Y102.047
G1 F1050 X97.951 Y108.77 E98.46737
G0 F12600 X97.315 Y108.77
G1 F1050 X91.228 Y102.683 E98.78947
G0 F12600 X91.228 Y103.32
G1 F1050 X96.679 Y108.77 E99.07789
G0 F12600 X96.042 Y108.77
G1 F1050 X91.228 Y103.956 E99.33263
G0 F12600 X91.228 Y104.593
G1 F1050 X95.406 Y108.77 E99.55369
G0 F12600 X94.769 Y108.77
G1 F1050 X91.228 Y105.229 E99.74107
G0 F12600 X91.228 Y105.865
G1 F1050 X94.133 Y108.77 E99.89479
G0 F12600 X93.497 Y108.77
G1 F1050 X91.228 Y106.502 E100.01483
G0 F12600 X91.228 Y107.138
G1 F1050 X92.86 Y108.77 E100.10119
G0 F12600 X92.224 Y108.77
G1 F1050 X91.228 Y107.775 E100.15387
G0 F12600 X91.228 Y108.411
G1 F1050 X91.588 Y108.77 E100.17289
G1 F1800 E99.42289
;MESH:NONMESH
G0 F600 X91.588 Y108.77 Z0.8
G0 F12600 X109.53 Y109.53
G0 X109.8 Y109.8
;TIME_ELAPSED:175.275624
;LAYER:3
M106 S51 P1
;TYPE:WALL-OUTER
;MESH:xyzCalibration_cube.stl
G1 F720 E100.17289
G1 F1125 X109.8 Y90.2 E100.82479
G1 X90.2 Y90.2 E101.47669
G1 X90.2 Y109.8 E102.12859
G1 X109.8 Y109.8 E102.78049
G0 F15300 X109.8 Y109.6
G0 X109.4 Y109.4
;TYPE:WALL-INNER
G1 F2025 X109.4 Y90.6 E103.40578
G1 X90.6 Y90.6 E104.03107
G1 X90.6 Y109.4 E104.65636
G1 X109.4 Y109.4 E105.28165
G0 F15300 X109 Y109
G1 F2025 X109 Y91 E105.88033
G1 X91 Y91 E106.47902
G1 X91 Y109 E107.0777
G1 X109 Y109 E107.67638
G0 F15300 X108.596 Y108.596
;TYPE:SKIN
G1 F1125 X108.596 Y91.404 E108.31966
G1 X91.404 Y91.404 E108.96295
G1 X91.404 Y108.596 E109.60623
G1 X108.596 Y108.596 E110.24952
G0 F15300 X108.004 Y108.37
G1 F1125 X108.37 Y108.004 E110.26889
G0 F15300 X108.37 Y107.367
G1 F1125 X107.367 Y108.37 E110.32196
G0 F15300 X106.731 Y108.37
G1 F1125 X108.37 Y106.731 E110.40869
G0 F15300 X108.37 Y106.095
G1 F1125 X106.095 Y108.37 E110.52908
G0 F15300 X105.458 Y108.37
G1 F1125 X108.37 Y105.458 E110.68317
G0 F15300 X108.37 Y104.822
G1 F1125 X104.822 Y108.37 E110.87092
G0 F15300 X104.185 Y108.37
G1 F1125 X108.37 Y104.185 E111.09237
G0 F15300 X108.37 Y103.549
G1 F1125 X103.549 Y108.37 E111.34748
G0 F15300 X102.913 Y108.37
G1 F1125 X108.37 Y102.913 E111.63625
G0 F15300 X108.37 Y102.276
G1 F1125 X102.276 Y108.37 E111.95872
G0 F15300 X101.64 Y108.37
G1 F1125 X108.37 Y101.64 E112.31485
G0 F15300 X108.37 Y101.003
G1 F1125 X101.003 Y108.37 E112.70469
G0 F15300 X100.367 Y108.37
G1 F1125 X108.37 Y100.367 E113.12818
G0 F15300 X108.37 Y99.731
G1 F1125 X99.731 Y108.37 E113.58532
G0 F15300 X99.094 Y108.37
G1 F1125 X108.37 Y99.094 E114.07618
G0 F15300 X108.37 Y98.458
G1 F1125 X98.458 Y108.37 E114.60069
G0 F15300 X97.821 Y108.37
G1 F1125 X108.37 Y97.821 E115.1589
G0 F15300 X108.37 Y97.185
G1 F1125 X97.185 Y108.37 E115.75078
G0 F15300 X96.549 Y108.37
G1 F1125 X108.37 Y96.549 E116.3763
G0 F15300 X108.37 Y95.912
G1 F1125 X95.912 Y108.37 E117.03554
G0 F15300 X95.276 Y108.37
G1 F1125 X108.37 Y95.276 E117.72843
G0 F15300 X108.37 Y94.639
G1 F1125 X94.639 Y108.37 E118.45502
G0 F15300 X94.003 Y108.37
G1 F1125 X108.37 Y94.003 E119.21527
G0 F15300 X108.37 Y93.367
G1 F1125 X93.367 Y108.37 E120.00918
G0 F15300 X92.73 Y108.37
G1 F1125 X108.37 Y92.73 E120.8368
G0 F15300 X108.37 Y92.094
G1 F1125 X92.094 Y108.37 E121.69807
G0 F15300 X91.629 Y108.199
G1 F1125 X108.2 Y91.628 E122.57495
G0 F15300 X107.563 Y91.628
G1 F1125 X91.629 Y107.562 E123.41812
G0 F15300 X91.629 Y106.926
G1 F1125 X106.927 Y91.628 E124.22764
G0 F15300 X106.29 Y91.628
G1 F1125 X91.629 Y106.29 E125.00347
G0 F15300 X91.629 Y105.653
G1 F1125 X105.654 Y91.628 E125.74563
G0 F15300 X105.018 Y91.628
G1 F1125 X91.629 Y105.017 E126.45413
G0 F15300 X91.629 Y104.38
G1 F1125 X104.381 Y91.628 E127.12892
G0 F15300 X103.745 Y91.628
G1 F1125 X91.629 Y103.744 E127.77006
G0 F15300 X91.629 Y103.108
G1 F1125 X103.108 Y91.628 E128.37751
G0 F15300 X102.472 Y91.628
G1 F1125 X91.629 Y102.471 E128.95129
G0 F15300 X91.629 Y101.835
G1 F1125 X101.836 Y91.628 E129.4914
G0 F15300 X101.199 Y91.628
G1 F1125 X91.629 Y101.199 E129.99784
G0 F15300 X91.629 Y100.562
G1 F1125 X100.563 Y91.628 E130.4706
G0 F15300 X99.926 Y91.628
