;FLAVOR:Marlin
;TIME:24227
;Filament used: 8.54168m
;Layer height: 0.1
;MINX:106.5
;MINY:126.2
;MINZ:0.2
;MAXX:178.95
;MAXY:206.968
;MAXZ:30.7
;POSTPROCESSED
;Generated with Cura_SteamEngine 5.4.0
M140 S80
M105
M190 S80
M82 ;absolute extrusion mode
M201 X500.00 Y500.00 Z100.00 E5000.00 ;Setup machine max acceleration
M203 X500.00 Y500.00 Z10.00 E50.00 ;Setup machine max feedrate
M204 P500.00 R1000.00 T500.00 ;Setup Print/Retract/Travel acceleration
M205 X8.00 Y8.00 Z0.40 E5.00 ;Setup Jerk
M220 S100 ;Reset Feedrate
M221 S100 ;Reset Flowrate
M140 S80.0 ; set bed temp
M190 S80.0 ; wait for bed temp
G28 X Y; home X Y
G28 Z; home Z
G29;
M420 S1; save bed mesh
G92 E0 ;Reset Extruder
G1 Z2.0 F3000 ;Move Z Axis up
G1 X10.1 Y20 Z0 F5000.0 ;Move to start position
M104 S245 ; wait for extruder printing temp
M109 S245 ; wait for extruder printing temp
G1 X10.1 Y200.0 Z0.28 F1500.0 E15 ;Draw the first line
G1 X10.4 Y200.0 Z0.28 F5000.0 ;Move to side a little
G1 X10.4 Y20 Z0.28 F1500.0 E30 ;Draw the second line
G92 E0 ;Reset Extruder
G92 E0
G92 E0
G1 F3000 E-4
;LAYER_COUNT:306
;LAYER:0
M106 S127.5
G0 F12000 X108.787 Y127.372 Z0.2
;TYPE:SKIRT
G1 F3000 E0
G1 F600 X110.295 Y126.472 E0.05438
G1 X111.646 Y126.25 E0.09677
G1 X139.718 Y126.224 E0.96603
G1 X140.868 Y126.375 E1.00195
G1 X141.038 Y126.425 E1.00743
G1 X142.094 Y126.25 E1.04058
G1 X157.876 Y126.2 E1.52927
G1 X158.863 Y126.447 E1.56078
G1 X159.082 Y126.376 E1.56791
G1 X160.23 Y126.224 E1.60376
G1 X173.771 Y126.2 E2.02306
G1 X175.186 Y126.548 E2.06819
G1 X176.702 Y127.334 E2.12106
G1 X177.778 Y128.487 E2.1699
G1 X178.678 Y129.995 E2.22428
G1 X178.9 Y131.346 E2.26667
G1 X178.95 Y168.621 E3.4209
G1 X178.602 Y170.036 E3.46602
G1 X177.816 Y171.552 E3.5189
G1 X176.657 Y172.634 E3.568
G1 X175.351 Y173.411 E3.61505
G1 X174.956 Y173.56 E3.62813
G1 X173.76 Y173.74 E3.66558
G1 X173.76 Y201.789 E4.53412
G1 X173.412 Y203.204 E4.57924
G1 X172.626 Y204.72 E4.63212
G1 X171.473 Y205.796 E4.68095
G1 X169.965 Y206.696 E4.73533
G1 X168.614 Y206.918 E4.77773
G1 X131.419 Y206.968 E5.92948
G1 X130.004 Y206.62 E5.9746
G1 X128.488 Y205.834 E6.02748
G1 X127.412 Y204.681 E6.07631
G1 X126.512 Y203.173 E6.13069
G1 X126.29 Y201.822 E6.17309
G1 X126.242 Y173.8 E7.0408
G1 X111.679 Y173.8 E7.49174
G1 X110.264 Y173.452 E7.53686
G1 X108.748 Y172.666 E7.58974
G1 X107.672 Y171.513 E7.63857
G1 X106.772 Y170.005 E7.69295
G1 X106.55 Y168.654 E7.73535
G1 X106.5 Y131.379 E8.88958
G1 X106.848 Y129.964 E8.9347
G1 X107.634 Y128.448 E8.98758
G1 X108.203 Y127.917 E9.01168
G0 F540 X108.787 Y127.372
G0 F12000 X109.029 Y127.693
G1 F600 X110.433 Y126.855 E9.06231
G1 X111.711 Y126.645 E9.10241
G1 X139.666 Y126.621 E9.96804
G1 X140.816 Y126.772 E10.00396
G1 X141.002 Y126.837 E10.01006
G1 X142.159 Y126.645 E10.04638
G1 X157.828 Y126.6 E10.53157
G1 X158.886 Y126.865 E10.56535
G1 X159.135 Y126.773 E10.57356
G1 X160.283 Y126.621 E10.60942
G1 X173.725 Y126.6 E11.02566
G1 X175.043 Y126.924 E11.06768
G1 X176.457 Y127.657 E11.117
G1 X177.457 Y128.729 E11.1624
G1 X178.295 Y130.133 E11.21303
G1 X178.505 Y131.411 E11.25313
G1 X178.55 Y168.575 E12.40392
G1 X178.226 Y169.893 E12.44595
G1 X177.493 Y171.307 E12.49527
G1 X176.418 Y172.31 E12.5408
G1 X175.146 Y173.067 E12.58663
G1 X174.856 Y173.17 E12.59616
G1 X173.36 Y173.395 E12.64301
G1 X173.36 Y201.743 E13.52081
G1 X173.036 Y203.061 E13.56283
G1 X172.303 Y204.475 E13.61215
G1 X171.231 Y205.475 E13.65755
G1 X169.827 Y206.313 E13.70818
G1 X168.549 Y206.523 E13.74828
G1 X131.465 Y206.568 E14.8966
G1 X130.147 Y206.244 E14.93862
G1 X128.733 Y205.511 E14.98794
G1 X127.733 Y204.439 E15.03334
G1 X126.895 Y203.035 E15.08397
G1 X126.685 Y201.757 E15.12407
G1 X126.641 Y173.4 E16.00215
G1 X111.725 Y173.4 E16.46403
G1 X110.407 Y173.076 E16.50606
G1 X108.993 Y172.343 E16.55537
G1 X107.993 Y171.271 E16.60077
G1 X107.155 Y169.867 E16.6514
G1 X106.945 Y168.589 E16.6915
G1 X106.9 Y131.425 E17.84229
G1 X107.224 Y130.107 E17.88432
G1 X107.957 Y128.693 E17.93364
G1 X108.445 Y128.238 E17.9543
G0 F540 X109.029 Y127.693
G0 F12000 X109.274 Y128.012
G1 F600 X110.571 Y127.238 E18.00107
G1 X111.776 Y127.04 E18.03888
G1 X139.614 Y127.018 E18.90089
G1 X140.764 Y127.169 E18.93681
G1 X141.012 Y127.273 E18.94513
G1 X141.175 Y127.214 E18.9505
G1 X142.224 Y127.04 E18.98343
G1 X157.779 Y127 E19.46509
G1 X158.921 Y127.286 E19.50155
G1 X159.188 Y127.17 E19.51056
G1 X160.336 Y127.018 E19.54642
G1 X173.679 Y127 E19.95959
G1 X174.9 Y127.3 E19.99852
G1 X176.21 Y127.979 E20.04421
G1 X177.138 Y128.974 E20.08634
G1 X177.912 Y130.271 E20.13311
G1 X178.11 Y131.476 E20.17093
G1 X178.15 Y168.529 E21.31828
G1 X177.85 Y169.75 E21.35721
G1 X177.171 Y171.06 E21.4029
G1 X176.176 Y171.988 E21.44503
G1 X174.941 Y172.723 E21.48954
G1 X174.797 Y172.774 E21.49427
G1 X173.426 Y172.98 E21.5372
G1 X172.96 Y172.984 E21.55163
G1 X172.96 Y201.697 E22.44073
G1 X172.66 Y202.918 E22.47966
G1 X171.981 Y204.228 E22.52535
G1 X170.986 Y205.156 E22.56748
G1 X169.689 Y205.93 E22.61425
G1 X168.484 Y206.128 E22.65207
G1 X131.511 Y206.168 E23.79694
G1 X130.29 Y205.868 E23.83588
G1 X128.98 Y205.189 E23.88156
G1 X128.052 Y204.194 E23.9237
G1 X127.278 Y202.897 E23.97047
G1 X127.08 Y201.692 E24.00828
G1 X127.04 Y173 E24.89673
G1 X111.771 Y173 E25.36954
G1 X110.55 Y172.7 E25.40847
G1 X109.24 Y172.021 E25.45416
G1 X108.312 Y171.026 E25.49629
G1 X107.538 Y169.729 E25.54306
G1 X107.34 Y168.524 E25.58088
G1 X107.3 Y131.471 E26.72823
G1 X107.6 Y130.25 E26.76716
G1 X108.279 Y128.94 E26.81285
G1 X108.689 Y128.557 E26.83023
G0 F540 X109.274 Y128.012
G0 F12000 X109.516 Y128.334
G1 F600 X110.711 Y127.621 E26.87332
G1 X111.841 Y127.435 E26.90878
G1 X139.562 Y127.415 E27.76716
G1 X140.712 Y127.566 E27.80308
G1 X140.999 Y127.721 E27.81318
G1 X141.24 Y127.609 E27.82141
G1 X142.289 Y127.435 E27.85433
G1 X157.732 Y127.4 E28.33253
G1 X158.762 Y127.653 E28.36537
G1 X158.941 Y127.728 E28.37138
G1 X159.241 Y127.567 E28.38193
G1 X160.389 Y127.415 E28.41778
G1 X173.633 Y127.4 E28.82789
G1 X174.757 Y127.676 E28.86373
G1 X175.963 Y128.301 E28.90579
G1 X176.816 Y129.216 E28.94452
G1 X177.529 Y130.411 E28.98761
G1 X177.715 Y131.541 E29.02307
G1 X177.75 Y168.483 E30.16699
G1 X177.474 Y169.607 E30.20283
G1 X176.849 Y170.813 E30.24489
G1 X175.934 Y171.666 E30.28362
G1 X174.736 Y172.379 E30.32679
G1 X173.423 Y172.58 E30.36792
G1 X172.56 Y172.587 E30.39465
G1 X172.56 Y201.651 E31.29462
G1 X172.284 Y202.775 E31.33046
G1 X171.659 Y203.981 E31.37252
G1 X170.744 Y204.834 E31.41126
G1 X169.549 Y205.547 E31.45435
G1 X168.419 Y205.733 E31.48981
G1 X131.557 Y205.768 E32.63125
G1 X130.433 Y205.492 E32.66709
G1 X129.227 Y204.867 E32.70915
G1 X128.374 Y203.952 E32.74788
G1 X127.661 Y202.757 E32.79097
G1 X127.475 Y201.627 E32.82643
G1 X127.44 Y172.6 E33.72526
G1 X111.817 Y172.6 E34.20903
G1 X110.693 Y172.324 E34.24487
G1 X109.487 Y171.699 E34.28693
G1 X108.634 Y170.784 E34.32566
G1 X107.921 Y169.589 E34.36875
G1 X107.735 Y168.459 E34.40421
G1 X107.7 Y131.517 E35.54813
G1 X107.976 Y130.393 E35.58397
G1 X108.601 Y129.187 E35.62603
G1 X108.931 Y128.879 E35.64001
G0 F540 X109.516 Y128.334
G0 F12000 X109.758 Y128.656
G1 F600 X110.851 Y128.004 E35.67942
G1 X111.906 Y127.83 E35.71253
G1 X139.51 Y127.812 E36.56729
G1 X140.588 Y127.954 E36.60096
G1 X141.009 Y128.181 E36.61577
G1 X141.305 Y128.004 E36.62645
G1 X142.354 Y127.83 E36.65938
G1 X157.686 Y127.8 E37.13413
G1 X158.667 Y128.041 E37.16541
G1 X158.953 Y128.176 E37.17521
G1 X159.365 Y127.954 E37.1897
G1 X160.441 Y127.812 E37.22331
G1 X173.586 Y127.8 E37.63034
G1 X174.615 Y128.053 E37.66316
G1 X175.716 Y128.623 E37.70155
G1 X176.494 Y129.458 E37.73689
G1 X177.146 Y130.551 E37.7763
G1 X177.32 Y131.606 E37.80941
G1 X177.35 Y168.436 E38.94985
G1 X177.097 Y169.465 E38.98267
G1 X176.527 Y170.566 E39.02106
G1 X175.692 Y171.344 E39.0564
G1 X174.597 Y171.996 E39.09586
G1 X173.42 Y172.18 E39.13275
G1 X172.16 Y172.19 E39.17177
G1 X172.16 Y201.604 E40.08258
G1 X171.907 Y202.633 E40.11539
G1 X171.337 Y203.734 E40.15378
G1 X170.502 Y204.512 E40.18912
G1 X169.409 Y205.164 E40.22853
G1 X168.354 Y205.338 E40.26164
G1 X131.604 Y205.368 E41.39961
G1 X130.575 Y205.115 E41.43242
G1 X129.474 Y204.545 E41.47081
G1 X128.696 Y203.71 E41.50615
G1 X128.044 Y202.617 E41.54556
G1 X127.87 Y201.562 E41.57867
G1 X127.84 Y172.2 E42.48787
G1 X111.864 Y172.2 E42.98257
G1 X110.835 Y171.947 E43.01538
G1 X109.734 Y171.377 E43.05377
G1 X108.956 Y170.542 E43.08911
G1 X108.304 Y169.449 E43.12852
G1 X108.13 Y168.394 E43.16163
G1 X108.1 Y131.564 E44.30208
G1 X108.353 Y130.535 E44.33489
G1 X108.923 Y129.434 E44.37328
G1 X109.173 Y129.201 E44.38386
G0 F540 X109.758 Y128.656
G0 F12000 X110 Y128.978
G1 F600 X110.991 Y128.387 E44.41959
G1 X111.971 Y128.225 E44.45035
G1 X139.458 Y128.209 E45.30149
G1 X140.465 Y128.342 E45.33294
G1 X141.02 Y128.64 E45.35245
G1 X141.445 Y128.387 E45.36777
G1 X142.42 Y128.225 E45.39837
G1 X157.64 Y128.2 E45.86966
G1 X158.572 Y128.429 E45.89938
G1 X158.956 Y128.628 E45.91277
G1 X159.488 Y128.342 E45.93147
G1 X160.493 Y128.209 E45.96287
G1 X173.54 Y128.2 E46.36687
G1 X174.472 Y128.429 E46.39659
G1 X175.469 Y128.945 E46.43135
G1 X176.172 Y129.7 E46.46329
G1 X176.763 Y130.691 E46.49902
G1 X176.925 Y131.671 E46.52978
G1 X176.95 Y168.39 E47.66679
G1 X176.721 Y169.322 E47.69651
G1 X176.205 Y170.319 E47.73127
G1 X175.45 Y171.022 E47.76321
G1 X174.458 Y171.613 E47.79897
G1 X173.417 Y171.78 E47.83162
G1 X171.76 Y171.793 E47.88293
G1 X171.76 Y201.558 E48.80461
G1 X171.531 Y202.49 E48.83432
G1 X171.015 Y203.487 E48.86909
G1 X170.26 Y204.19 E48.90103
G1 X169.269 Y204.781 E48.93676
G1 X168.289 Y204.943 E48.96752
G1 X131.65 Y204.968 E50.10205
G1 X130.718 Y204.739 E50.13177
G1 X129.721 Y204.223 E50.16653
G1 X129.018 Y203.468 E50.19848
G1 X128.427 Y202.477 E50.2342
G1 X128.265 Y201.497 E50.26496
G1 X128.24 Y171.8 E51.18454
G1 X111.91 Y171.8 E51.6902
G1 X110.978 Y171.571 E51.71992
G1 X109.981 Y171.055 E51.75468
G1 X109.278 Y170.3 E51.78662
G1 X108.687 Y169.309 E51.82235
G1 X108.525 Y168.329 E51.85311
G1 X108.5 Y131.61 E52.99012
G1 X108.729 Y130.678 E53.01984
G1 X109.245 Y129.681 E53.0546
G1 X109.415 Y129.523 E53.06179
G0 F540 X110 Y128.978
G0 F12000 X110.239 Y129.302
G1 F600 X111.131 Y128.77 E53.09395
G1 X112.036 Y128.62 E53.12235
G1 X139.405 Y128.606 E53.96984
G1 X140.34 Y128.73 E53.99904
G1 X141.031 Y129.1 E54.02332
G1 X141.585 Y128.77 E54.04328
G1 X142.486 Y128.62 E54.07157
G1 X157.594 Y128.6 E54.53939
G1 X158.429 Y128.805 E54.56601
G1 X158.96 Y129.08 E54.58453
G1 X159.612 Y128.729 E54.60746
G1 X160.545 Y128.606 E54.6366
G1 X173.494 Y128.6 E55.03757
G1 X174.329 Y128.805 E55.06419
G1 X175.224 Y129.268 E55.09539
G1 X175.848 Y129.939 E55.12377
G1 X176.38 Y130.831 E55.15593
G1 X176.53 Y131.736 E55.18433
G1 X176.55 Y168.344 E56.31791
G1 X176.345 Y169.179 E56.34453
G1 X175.882 Y170.074 E56.37573
G1 X175.211 Y170.698 E56.40411
G1 X174.319 Y171.23 E56.43627
G1 X173.414 Y171.38 E56.46467
G1 X171.36 Y171.396 E56.52828
G1 X171.36 Y201.512 E57.46083
G1 X171.155 Y202.347 E57.48745
G1 X170.692 Y203.242 E57.51865
G1 X170.021 Y203.866 E57.54703
G1 X169.129 Y204.398 E57.57919
G1 X168.224 Y204.548 E57.60759
G1 X131.696 Y204.568 E58.73869
G1 X130.861 Y204.363 E58.76531
G1 X129.966 Y203.9 E58.79651
G1 X129.342 Y203.229 E58.82489
G1 X128.81 Y202.337 E58.85705
G1 X128.66 Y201.432 E58.88545
G1 X128.64 Y171.4 E59.8154
G1 X111.956 Y171.4 E60.33202
G1 X111.121 Y171.195 E60.35865
G1 X110.226 Y170.732 E60.38985
G1 X109.602 Y170.061 E60.41822
G1 X109.07 Y169.169 E60.45038
G1 X108.92 Y168.264 E60.47879
G1 X108.9 Y131.656 E61.61236
G1 X109.105 Y130.821 E61.63899
G1 X109.568 Y129.926 E61.67019
G1 X109.653 Y129.846 E61.6738
G0 F540 X110.239 Y129.302
G0 F12000 X110.478 Y129.626
G1 F600 X111.271 Y129.153 E61.7024
G1 X112.102 Y129.015 E61.72848
G1 X139.353 Y129.003 E62.57231
G1 X140.215 Y129.117 E62.59924
G1 X141.041 Y129.56 E62.62826
G1 X141.723 Y129.153 E62.65285
G1 X142.552 Y129.015 E62.67888
G1 X157.548 Y129 E63.14323
G1 X158.286 Y129.181 E63.16676
G1 X158.963 Y129.532 E63.19037
G1 X159.735 Y129.117 E63.21751
G1 X160.597 Y129.003 E63.24444
G1 X173.448 Y129 E63.64237
G1 X174.186 Y129.181 E63.6659
G1 X174.979 Y129.591 E63.69355
G1 X175.524 Y130.178 E63.71835
G1 X175.997 Y130.971 E63.74694
G1 X176.135 Y131.802 E63.77302
G1 X176.15 Y168.298 E64.90313
G1 X175.969 Y169.036 E64.92666
G1 X175.559 Y169.829 E64.9543
G1 X174.972 Y170.374 E64.97911
G1 X174.179 Y170.847 E65.0077
G1 X173.348 Y170.985 E65.03378
G1 X170.96 Y170.998 E65.10773
G1 X170.96 Y201.466 E66.05118
G1 X170.779 Y202.204 E66.07471
G1 X170.369 Y202.997 E66.10235
G1 X169.782 Y203.542 E66.12715
G1 X168.989 Y204.015 E66.15574
G1 X168.158 Y204.153 E66.18183
G1 X131.742 Y204.168 E67.30946
G1 X131.004 Y203.987 E67.33299
G1 X130.211 Y203.577 E67.36063
G1 X129.666 Y202.99 E67.38543
G1 X129.193 Y202.197 E67.41402
G1 X129.055 Y201.366 E67.44011
G1 X129.04 Y171 E68.3804
G1 X112.002 Y171 E68.90798
G1 X111.264 Y170.819 E68.93151
G1 X110.471 Y170.409 E68.95915
G1 X109.926 Y169.822 E68.98396
G1 X109.453 Y169.029 E69.01255
G1 X109.315 Y168.198 E69.03863
G1 X109.3 Y131.702 E70.16874
G1 X109.481 Y130.964 E70.19227
G1 X109.891 Y130.171 E70.21991
G0 F540 X110.478 Y129.626
G0 F12000 X110.717 Y129.95
G1 F600 X111.411 Y129.536 E70.24494
G1 X112.168 Y129.41 E70.2687
G1 X139.3 Y129.4 E71.10885
G1 X140.093 Y129.505 E71.13362
G1 X140.881 Y129.928 E71.16131
G1 X141.043 Y130.065 E71.16788
G1 X141.201 Y129.93 E71.17431
G1 X141.861 Y129.536 E71.19812
G1 X142.618 Y129.41 E71.22188
G1 X157.498 Y129.4 E71.68264
G1 X158.147 Y129.559 E71.70333
G1 X158.772 Y129.882 E71.72512
G1 X158.941 Y130.031 E71.73209
G1 X159.069 Y129.928 E71.73718
G1 X159.857 Y129.505 E71.76487
G1 X160.65 Y129.4 E71.78964
G1 X173.398 Y129.4 E72.18439
G1 X174.047 Y129.559 E72.20508
G1 X174.734 Y129.914 E72.22902
G1 X175.2 Y130.417 E72.25026
G1 X175.614 Y131.111 E72.27528
G1 X175.74 Y131.868 E72.29904
G1 X175.75 Y168.248 E73.42556
G1 X175.591 Y168.897 E73.44625
G1 X175.236 Y169.584 E73.47019
G1 X174.733 Y170.05 E73.49143
G1 X174.039 Y170.464 E73.51645
G1 X173.282 Y170.59 E73.54021
G1 X170.56 Y170.599 E73.6245
G1 X170.56 Y201.416 E74.57875
G1 X170.401 Y202.065 E74.59944
G1 X170.046 Y202.752 E74.62339
G1 X169.543 Y203.218 E74.64462
G1 X168.849 Y203.632 E74.66964
G1 X168.092 Y203.758 E74.69341
G1 X131.792 Y203.768 E75.81744
G1 X131.143 Y203.609 E75.83813
G1 X130.456 Y203.254 E75.86208
G1 X129.99 Y202.751 E75.88331
G1 X129.576 Y202.057 E75.90834
G1 X129.45 Y201.3 E75.9321
G1 X129.44 Y170.6 E76.88273
G1 X112.052 Y170.6 E77.42115
G1 X111.403 Y170.441 E77.44184
G1 X110.716 Y170.086 E77.46579
G1 X110.25 Y169.583 E77.48702
G1 X109.836 Y168.889 E77.51204
G1 X109.71 Y168.132 E77.53581
G1 X109.7 Y131.752 E78.66232
G1 X109.859 Y131.103 E78.68301
G1 X110.162 Y130.518 E78.70341
G0 F540 X110.214 Y130.416
G0 X110.717 Y129.95
G0 F12000 X110.956 Y130.274
G1 F600 X111.551 Y129.919 E78.72487
G1 X112.234 Y129.805 E78.74631
G1 X139.3 Y129.8 E79.58441
G1 X139.969 Y129.892 E79.60532
G1 X140.692 Y130.28 E79.63073
G1 X141.033 Y130.621 E79.64566
G1 X141.406 Y130.274 E79.66144
G1 X142.001 Y129.919 E79.68289
G1 X142.684 Y129.805 E79.70433
G1 X157.448 Y129.8 E80.1615
G1 X158.008 Y129.937 E80.17936
G1 X158.588 Y130.237 E80.19958
G1 X158.93 Y130.608 E80.2152
G1 X159.258 Y130.28 E80.22956
G1 X159.981 Y129.892 E80.25497
G1 X160.65 Y129.8 E80.27588
G1 X173.348 Y129.8 E80.66908
G1 X173.908 Y129.937 E80.68693
G1 X174.488 Y130.237 E80.70715
G1 X174.876 Y130.656 E80.72483
G1 X175.231 Y131.251 E80.74629
G1 X175.345 Y131.934 E80.76773
G1 X175.35 Y168.198 E81.89065
G1 X175.213 Y168.758 E81.9085
G1 X174.913 Y169.338 E81.92872
G1 X174.494 Y169.726 E81.94641
G1 X173.899 Y170.081 E81.96786
G1 X173.216 Y170.195 E81.9893
G1 X170.16 Y170.2 E82.08393
G1 X170.16 Y201.366 E83.04899
G1 X170.023 Y201.926 E83.06685
G1 X169.723 Y202.506 E83.08707
G1 X169.304 Y202.894 E83.10475
G1 X168.709 Y203.249 E83.1262
G1 X168.026 Y203.363 E83.14764
G1 X131.842 Y203.368 E84.26809
G1 X131.282 Y203.231 E84.28594
G1 X130.702 Y202.931 E84.30616
G1 X130.314 Y202.512 E84.32384
G1 X129.959 Y201.917 E84.3453
G1 X129.845 Y201.234 E84.36674
G1 X129.84 Y170.2 E85.32771
G1 X112.102 Y170.2 E85.87697
