;FLAVOR:Marlin
;TIME:5994
;Filament used: 2.00537m
;Layer height: 0.1
;MINX:126.061
;MINY:127.669
;MINZ:0.2
;MAXX:173.939
;MAXY:172.331
;MAXZ:15.3
;POSTPROCESSED
;Generated with Cura_SteamEngine 5.4.0
M140 S80
M105
M190 S80
M82 ;absolute extrusion mode
M201 X500.00 Y500.00 Z100.00 E5000.00 ;Setup machine max acceleration
M203 X500.00 Y500.00 Z10.00 E50.00 ;Setup machine max feedrate
M204 P500.00 R1000.00 T500.00 ;Setup Print/Retract/Travel acceleration
M205 X8.00 Y8.00 Z0.40 E5.00 ;Setup Jerk
M220 S100 ;Reset Feedrate
M221 S100 ;Reset Flowrate
M140 S80.0 ; set bed temp
M190 S80.0 ; wait for bed temp
G28 X Y; home X Y
G28 Z; home Z
G29;
M420 S1; save bed mesh
G92 E0 ;Reset Extruder
G1 Z2.0 F3000 ;Move Z Axis up
G1 X10.1 Y20 Z0 F5000.0 ;Move to start position
M104 S245 ; wait for extruder printing temp
M109 S245 ; wait for extruder printing temp
G1 X10.1 Y200.0 Z0.28 F1500.0 E15 ;Draw the first line
G1 X10.4 Y200.0 Z0.28 F5000.0 ;Move to side a little
G1 X10.4 Y20 Z0.28 F1500.0 E30 ;Draw the second line
G92 E0 ;Reset Extruder
G92 E0
G92 E0
G1 F3000 E-4
;LAYER_COUNT:152
;LAYER:0
M106 S127.5
G0 F12000 X127.195 Y129.917 Z0.2
;TYPE:SKIRT
G1 F3000 E0
G1 F600 X128.348 Y128.841 E0.04883
G1 X129.856 Y127.941 E0.10321
G1 X131.207 Y127.719 E0.14561
G1 X168.76 Y127.669 E1.30845
G1 X170.175 Y128.017 E1.35357
G1 X171.691 Y128.803 E1.40644
G1 X172.767 Y129.956 E1.45528
G1 X173.667 Y131.464 E1.50966
G1 X173.889 Y132.815 E1.55205
G1 X173.939 Y167.152 E2.61531
G1 X173.591 Y168.567 E2.66043
G1 X172.805 Y170.083 E2.71331
G1 X171.652 Y171.159 E2.76214
G1 X170.144 Y172.059 E2.81652
G1 X168.793 Y172.281 E2.85891
G1 X131.24 Y172.331 E4.02175
G1 X129.825 Y171.983 E4.06687
G1 X128.309 Y171.197 E4.11975
G1 X127.233 Y170.044 E4.16858
G1 X126.333 Y168.536 E4.22296
G1 X126.111 Y167.185 E4.26536
G1 X126.061 Y132.848 E5.32861
G1 X126.409 Y131.433 E5.37373
G1 X126.827 Y130.627 E5.40185
G0 F540 X127.195 Y129.917
G0 F12000 X127.518 Y130.162
G1 F600 X128.59 Y129.162 E5.44724
G1 X129.994 Y128.324 E5.49787
G1 X131.272 Y128.114 E5.53798
G1 X168.714 Y128.069 E6.69738
G1 X170.032 Y128.393 E6.7394
G1 X171.446 Y129.126 E6.78872
G1 X172.446 Y130.198 E6.83412
G1 X173.284 Y131.602 E6.88475
G1 X173.494 Y132.88 E6.92485
G1 X173.539 Y167.106 E7.98467
G1 X173.215 Y168.424 E8.02669
G1 X172.482 Y169.838 E8.07601
G1 X171.41 Y170.838 E8.12141
G1 X170.006 Y171.676 E8.17204
G1 X168.728 Y171.886 E8.21214
G1 X131.286 Y171.931 E9.37154
G1 X129.968 Y171.607 E9.41357
G1 X128.554 Y170.874 E9.46289
G1 X127.554 Y169.802 E9.50828
G1 X126.716 Y168.398 E9.55891
G1 X126.506 Y167.12 E9.59902
G1 X126.461 Y132.894 E10.65883
G1 X126.785 Y131.576 E10.70086
G1 X127.15 Y130.872 E10.72541
G0 F540 X127.518 Y130.162
G0 F12000 X127.84 Y130.409
G1 F600 X128.835 Y129.481 E10.76755
G1 X130.132 Y128.707 E10.81432
G1 X131.337 Y128.509 E10.85213
G1 X168.668 Y128.469 E12.00809
G1 X169.889 Y128.769 E12.04702
G1 X171.199 Y129.448 E12.09271
G1 X172.127 Y130.443 E12.13484
G1 X172.901 Y131.74 E12.18161
G1 X173.099 Y132.945 E12.21943
G1 X173.139 Y167.06 E13.27581
G1 X172.839 Y168.281 E13.31474
G1 X172.16 Y169.591 E13.36043
G1 X171.165 Y170.519 E13.40256
G1 X169.868 Y171.293 E13.44933
G1 X168.663 Y171.491 E13.48714
G1 X131.332 Y171.531 E14.6431
G1 X130.111 Y171.231 E14.68204
G1 X128.801 Y170.552 E14.72773
G1 X127.873 Y169.557 E14.76986
G1 X127.099 Y168.26 E14.81663
G1 X126.901 Y167.055 E14.85444
G1 X126.861 Y132.94 E15.91082
G1 X127.161 Y131.719 E15.94975
G1 X127.472 Y131.119 E15.97068
G0 F540 X127.84 Y130.409
G0 F12000 X128.162 Y130.656
G1 F600 X129.077 Y129.803 E16.00941
G1 X130.272 Y129.09 E16.0525
G1 X131.402 Y128.904 E16.08796
G1 X168.622 Y128.869 E17.24049
G1 X169.746 Y129.145 E17.27633
G1 X170.952 Y129.77 E17.31839
G1 X171.805 Y130.685 E17.35712
G1 X172.518 Y131.88 E17.40021
G1 X172.704 Y133.01 E17.43568
G1 X172.739 Y167.014 E18.48862
G1 X172.463 Y168.138 E18.52445
G1 X171.838 Y169.344 E18.56652
G1 X170.923 Y170.197 E18.60525
G1 X169.728 Y170.91 E18.64834
G1 X168.598 Y171.096 E18.6838
G1 X131.378 Y171.131 E19.83633
G1 X130.254 Y170.855 E19.87217
G1 X129.048 Y170.23 E19.91423
G1 X128.195 Y169.315 E19.95296
G1 X127.482 Y168.12 E19.99605
G1 X127.296 Y166.99 E20.03151
G1 X127.261 Y132.986 E21.08445
G1 X127.537 Y131.862 E21.12029
G1 X127.794 Y131.366 E21.13759
G0 F540 X128.162 Y130.656
G0 F12000 X128.484 Y130.903
G1 F600 X129.319 Y130.125 E21.17293
G1 X130.412 Y129.473 E21.21234
G1 X131.467 Y129.299 E21.24545
G1 X168.575 Y129.269 E22.39451
G1 X169.604 Y129.522 E22.42732
G1 X170.705 Y130.092 E22.46571
G1 X171.483 Y130.927 E22.50105
G1 X172.135 Y132.02 E22.54046
G1 X172.309 Y133.075 E22.57357
G1 X172.339 Y166.967 E23.62304
G1 X172.086 Y167.996 E23.65585
G1 X171.516 Y169.097 E23.69424
G1 X170.681 Y169.875 E23.72958
G1 X169.588 Y170.527 E23.76899
G1 X168.533 Y170.701 E23.8021
G1 X131.425 Y170.731 E24.95116
G1 X130.396 Y170.478 E24.98397
G1 X129.295 Y169.908 E25.02236
G1 X128.517 Y169.073 E25.0577
G1 X127.865 Y167.98 E25.09711
G1 X127.691 Y166.925 E25.13022
G1 X127.661 Y133.033 E26.17969
G1 X127.914 Y132.004 E26.2125
G1 X128.116 Y131.613 E26.22613
G0 F540 X128.484 Y130.903
G0 F12000 X128.806 Y131.15
G1 F600 X129.561 Y130.447 E26.25808
G1 X130.552 Y129.856 E26.2938
G1 X131.532 Y129.694 E26.32456
G1 X168.529 Y129.669 E27.47018
G1 X169.461 Y129.898 E27.4999
G1 X170.458 Y130.414 E27.53466
G1 X171.161 Y131.169 E27.56661
G1 X171.752 Y132.16 E27.60233
G1 X171.914 Y133.14 E27.63309
G1 X171.939 Y166.921 E28.67913
G1 X171.71 Y167.853 E28.70885
G1 X171.194 Y168.85 E28.74361
G1 X170.439 Y169.553 E28.77555
G1 X169.448 Y170.144 E28.81128
G1 X168.468 Y170.306 E28.84204
G1 X131.471 Y170.331 E29.98766
G1 X130.539 Y170.102 E30.01738
G1 X129.542 Y169.586 E30.05214
G1 X128.839 Y168.831 E30.08408
G1 X128.248 Y167.84 E30.11981
G1 X128.086 Y166.86 E30.15057
G1 X128.061 Y133.079 E31.1966
G1 X128.29 Y132.147 E31.22632
G1 X128.439 Y131.86 E31.23633
G0 F540 X128.806 Y131.15
G0 F12000 X129.129 Y131.395
G1 F600 X129.8 Y130.771 E31.26471
G1 X130.692 Y130.239 E31.29687
G1 X131.597 Y130.089 E31.32527
G1 X168.483 Y130.069 E32.46746
G1 X169.318 Y130.274 E32.49408
G1 X170.213 Y130.737 E32.52528
G1 X170.837 Y131.408 E32.55366
G1 X171.369 Y132.3 E32.58582
G1 X171.519 Y133.205 E32.61422
G1 X171.539 Y166.875 E33.65682
G1 X171.334 Y167.71 E33.68344
G1 X170.871 Y168.605 E33.71465
G1 X170.2 Y169.229 E33.74302
G1 X169.308 Y169.761 E33.77518
G1 X168.403 Y169.911 E33.80359
G1 X131.517 Y169.931 E34.94577
G1 X130.682 Y169.726 E34.97239
G1 X129.787 Y169.263 E35.0036
G1 X129.163 Y168.592 E35.03197
G1 X128.631 Y167.7 E35.06413
G1 X128.481 Y166.795 E35.09254
G1 X128.461 Y133.125 E36.13513
G1 X128.666 Y132.29 E36.16176
G1 X128.762 Y132.106 E36.16818
G0 F540 X129.129 Y131.395
G0 F12000 X129.452 Y131.64
G1 F600 X130.039 Y131.095 E36.19299
G1 X130.832 Y130.622 E36.22158
G1 X131.663 Y130.484 E36.24766
G1 X168.437 Y130.469 E37.38638
G1 X169.175 Y130.65 E37.40991
G1 X169.968 Y131.06 E37.43755
G1 X170.513 Y131.647 E37.46235
G1 X170.986 Y132.44 E37.49094
G1 X171.124 Y133.271 E37.51703
G1 X171.139 Y166.829 E38.55616
G1 X170.958 Y167.567 E38.57969
G1 X170.548 Y168.36 E38.60733
G1 X169.961 Y168.905 E38.63213
G1 X169.168 Y169.378 E38.66073
G1 X168.337 Y169.516 E38.68681
G1 X131.563 Y169.531 E39.82552
G1 X130.825 Y169.35 E39.84905
G1 X130.032 Y168.94 E39.8767
G1 X129.487 Y168.353 E39.9015
G1 X129.014 Y167.56 E39.93009
G1 X128.876 Y166.729 E39.95618
G1 X128.861 Y133.171 E40.99531
G1 X129.042 Y132.433 E41.01884
G1 X129.085 Y132.351 E41.0217
G0 F540 X129.452 Y131.64
G0 F12000 X129.775 Y131.885
G1 F600 X130.278 Y131.419 E41.04293
G1 X130.972 Y131.005 E41.06796
G1 X131.729 Y130.879 E41.09172
G1 X168.387 Y130.869 E42.22684
G1 X169.036 Y131.028 E42.24753
G1 X169.723 Y131.383 E42.27148
G1 X170.189 Y131.886 E42.29271
G1 X170.603 Y132.58 E42.31773
G1 X170.729 Y133.337 E42.3415
G1 X170.739 Y166.779 E43.37704
G1 X170.58 Y167.428 E43.39773
G1 X170.225 Y168.115 E43.42167
G1 X169.722 Y168.581 E43.4429
G1 X169.028 Y168.995 E43.46793
G1 X168.271 Y169.121 E43.49169
G1 X131.613 Y169.131 E44.62681
G1 X130.964 Y168.972 E44.6475
G1 X130.277 Y168.617 E44.67145
G1 X129.811 Y168.114 E44.69268
G1 X129.397 Y167.42 E44.7177
G1 X129.271 Y166.663 E44.74147
G1 X129.261 Y133.221 E45.777
G1 X129.414 Y132.598 E45.79687
G0 F540 X129.42 Y132.572
G0 X129.775 Y131.885
G0 F12000 X130.098 Y132.131
G1 F600 X130.517 Y131.743 E45.81455
G1 X131.112 Y131.388 E45.83601
G1 X131.795 Y131.274 E45.85745
G1 X168.337 Y131.269 E46.98898
G1 X168.897 Y131.406 E47.00683
G1 X169.477 Y131.706 E47.02705
G1 X169.865 Y132.125 E47.04473
G1 X170.22 Y132.72 E47.06619
G1 X170.334 Y133.403 E47.08763
G1 X170.339 Y166.729 E48.11957
G1 X170.202 Y167.289 E48.13743
G1 X169.902 Y167.869 E48.15765
G1 X169.483 Y168.257 E48.17533
G1 X168.888 Y168.612 E48.19678
G1 X168.205 Y168.726 E48.21823
G1 X131.663 Y168.731 E49.34976
G1 X131.103 Y168.594 E49.36761
G1 X130.523 Y168.294 E49.38783
G1 X130.135 Y167.875 E49.40551
G1 X129.78 Y167.28 E49.42696
G1 X129.666 Y166.597 E49.44841
G1 X129.661 Y133.271 E50.48035
G1 X129.763 Y132.854 E50.49365
G0 F540 X129.798 Y132.711
G0 X130.098 Y132.131
G0 F12000 X130.421 Y132.377
G1 F600 X130.759 Y132.064 E50.50791
G1 X131.25 Y131.771 E50.52562
G1 X131.861 Y131.669 E50.5448
G1 X168.287 Y131.669 E51.67273
G1 X168.758 Y131.784 E51.68775
G1 X169.231 Y132.029 E51.70424
G1 X169.544 Y132.367 E51.71851
G1 X169.837 Y132.858 E51.73621
G1 X169.939 Y133.469 E51.75539
G1 X169.939 Y166.679 E52.78375
G1 X169.824 Y167.15 E52.79876
G1 X169.579 Y167.623 E52.81526
G1 X169.241 Y167.936 E52.82952
G1 X168.75 Y168.229 E52.84723
G1 X168.139 Y168.331 E52.86641
G1 X131.713 Y168.331 E53.99434
G1 X131.242 Y168.216 E54.00936
G1 X130.769 Y167.971 E54.02585
G1 X130.456 Y167.633 E54.04012
G1 X130.163 Y167.142 E54.05782
G1 X130.061 Y166.531 E54.077
G1 X130.061 Y133.321 E55.10536
G1 X130.113 Y133.11 E55.11209
G0 F540 X130.176 Y132.85
G0 X130.421 Y132.377
G0 F12000 X130.744 Y132.623
G1 F600 X131.001 Y132.385 E55.12293
G1 X131.388 Y132.154 E55.13689
G1 X131.861 Y132.069 E55.15177
G1 X168.237 Y132.069 E56.27816
G1 X168.619 Y132.162 E56.29033
G1 X168.985 Y132.352 E56.3031
G1 X169.223 Y132.609 E56.31395
G1 X169.454 Y132.996 E56.32791
G1 X169.539 Y133.469 E56.34279
G1 X169.539 Y166.629 E57.36959
G1 X169.446 Y167.011 E57.38177
G1 X169.256 Y167.377 E57.39454
G1 X168.999 Y167.615 E57.40538
G1 X168.612 Y167.846 E57.41934
G1 X168.139 Y167.931 E57.43422
G1 X131.763 Y167.931 E58.56061
G1 X131.381 Y167.838 E58.57278
G1 X131.015 Y167.648 E58.58555
G1 X130.777 Y167.391 E58.5964
G1 X130.546 Y167.004 E58.61036
G1 X130.461 Y166.531 E58.62524
G1 X130.461 Y133.371 E59.65204
G1 X130.463 Y133.366 E59.65221
G0 F540 X130.554 Y132.989
G0 X130.744 Y132.623
G0 F12000 X131.206 Y132.729
G1 F600 X131.533 Y132.534 E59.664
G1 X131.861 Y132.469 E59.67435
G1 X168.188 Y132.469 E60.79922
G1 X168.477 Y132.539 E60.80843
G1 X168.74 Y132.676 E60.81761
G1 X168.879 Y132.814 E60.82368
G1 X169.074 Y133.141 E60.83547
G1 X169.139 Y133.469 E60.84582
G1 X169.139 Y166.58 E61.87111
G1 X169.069 Y166.869 E61.88032
G1 X168.932 Y167.132 E61.8895
G1 X168.794 Y167.271 E61.89557
G1 X168.467 Y167.466 E61.90736
G1 X168.139 Y167.531 E61.91771
G1 X131.812 Y167.531 E63.04258
G1 X131.523 Y167.461 E63.05179
G1 X131.26 Y167.324 E63.06097
G1 X131.121 Y167.186 E63.06704
G1 X130.926 Y166.859 E63.07883
G1 X130.861 Y166.531 E63.08918
G1 X130.861 Y133.432 E64.1141
G0 F540 X130.861 Y133.42
G0 X130.931 Y133.131
G0 X131.068 Y132.868
G0 X131.206 Y132.729
G0 F12000 X131.7 Y133.35
G1 F600 X131.861 Y133.269 E64.11968
G1 X168.139 Y133.269 E65.24303
G1 X168.258 Y133.308 E65.24691
G1 X168.339 Y133.469 E65.25249
G1 X168.339 Y166.531 E66.27626
G1 X168.3 Y166.65 E66.28014
G1 X168.139 Y166.731 E66.28572
G1 X131.861 Y166.731 E67.40908
G1 X131.742 Y166.692 E67.41295
G1 X131.661 Y166.531 E67.41854
G1 X131.661 Y134.144 E68.4214
G0 F540 X131.661 Y133.469
G0 X131.7 Y133.35
G0 F12000 X131.411 Y133.073
G1 F600 X131.681 Y132.912 E68.43114
G1 X131.861 Y132.869 E68.43687
G1 X168.139 Y132.869 E69.56022
G1 X168.383 Y132.928 E69.568
G1 X168.535 Y133.019 E69.57348
G1 X168.696 Y133.289 E69.58322
G1 X168.739 Y133.469 E69.58895
G1 X168.739 Y166.531 E70.61272
G1 X168.68 Y166.775 E70.62049
G1 X168.589 Y166.927 E70.62598
G1 X168.319 Y167.088 E70.63571
G1 X168.139 Y167.131 E70.64144
G1 X131.861 Y167.131 E71.7648
G1 X131.617 Y167.072 E71.77257
G1 X131.465 Y166.981 E71.77806
G1 X131.304 Y166.711 E71.78779
G1 X131.261 Y166.531 E71.79352
G1 X131.261 Y133.841 E72.80577
G0 F540 X131.261 Y133.469
G0 X131.32 Y133.225
G0 X131.411 Y133.073
G1 F3000 E68.80577
;MESH:sock seal.stl
G0 F12000 X132.275 Y133.883
G0 X134.384 Y136.334
G0 X135.084 Y136.334
;TYPE:WALL-OUTER
G1 F3000 E72.80577
G1 F1800 X135.115 Y136.225 E72.80928
G1 X135.249 Y136.136 E72.81426
G1 X164.675 Y136.134 E73.72545
G1 X164.845 Y136.228 E73.73146
G1 X164.875 Y136.334 E73.73487
G1 X164.873 Y163.74 E74.5835
G1 X164.78 Y163.876 E74.58861
G1 X164.71 Y163.903 E74.59093
G1 X135.284 Y163.905 E75.50211
G1 X135.18 Y163.877 E75.50545
G1 X135.086 Y163.74 E75.51059
G1 X135.084 Y137.134 E76.33445
G0 F1620 X135.084 Y136.334
G1 F3000 E72.33445
G0 F12000 X134.384 Y136.334
G0 X132.331 Y166.061
G0 X132.062 Y166.33
G1 F3000 E76.33445
G1 F1800 X167.939 Y166.331 E77.44539
G1 X167.939 Y133.669 E78.45677
G1 X132.061 Y133.669 E79.56774
G1 X132.062 Y165.53 E80.55432
G0 F1620 X132.062 Y166.33
G1 F3000 E76.55432
G0 F12000 X132.331 Y166.061
G0 X165.103 Y164.133
G0 X165.575 Y136.016
G0 X165.185 Y136.016
;TYPE:WALL-INNER
G1 F3000 E80.55432
G1 F1800 X165.275 Y136.334 E80.56456
G1 X165.275 Y163.788 E81.41468
G1 X165.19 Y164.015 E81.42218
G1 X164.99 Y164.217 E81.43098
G1 X164.758 Y164.305 E81.43867
G1 X135.284 Y164.305 E82.35133
G1 X134.974 Y164.22 E82.36129
G1 X134.773 Y164.022 E82.37002
G1 X134.684 Y163.788 E82.37778
G1 X134.684 Y136.334 E83.22789
G1 X134.779 Y136.009 E83.23838
G1 X134.979 Y135.816 E83.24699
G1 X135.202 Y135.734 E83.25434
G1 X164.476 Y135.734 E84.16082
G0 F1620 X164.675 Y135.734
G0 X164.985 Y135.819
G0 X165.185 Y136.016
G1 F3000 E80.16082
G0 F12000 X165.575 Y136.016
G0 X165.503 Y135.506
G0 X134.456 Y135.506
G0 X134.284 Y163.841
G1 F3000 E84.16082
G1 F1800 X134.284 Y136.334 E85.01258
G1 X134.442 Y135.792 E85.03006
G1 X134.776 Y135.472 E85.04438
G1 X135.149 Y135.334 E85.0567
G1 X164.675 Y135.334 E85.97098
G1 X165.191 Y135.476 E85.98755
G1 X165.524 Y135.805 E86.00204
G1 X165.675 Y136.334 E86.01908
G1 X165.675 Y163.84 E86.87081
G1 X165.533 Y164.221 E86.8834
G1 X165.199 Y164.558 E86.89809
G1 X164.811 Y164.705 E86.91094
G1 X135.284 Y164.705 E87.82525
G1 X134.767 Y164.562 E87.84186
G1 X134.704 Y164.5 E87.84459
G0 F1620 X134.433 Y164.233
G0 X134.284 Y163.841
G1 F3000 E83.84459
G0 F12000 X134.456 Y135.506
G0 X167.269 Y134.339
G0 X167.539 Y134.069
G1 F3000 E87.84459
G1 F1800 X132.461 Y134.069 E88.93079
G1 X132.462 Y165.93 E89.91737
G1 X167.539 Y165.931 E91.00354
G1 X167.539 Y134.869 E91.96538
G0 F1620 X167.539 Y134.069
G0 F12000 X167.139 Y134.469
G1 F1800 X132.861 Y134.469 E93.0268
G1 X132.863 Y165.529 E93.98858
G1 X167.139 Y165.531 E95.04994
G1 X167.139 Y135.269 E95.98701
G0 F1620 X167.139 Y134.469
G0 F12000 X166.779 Y134.829
;TYPE:SKIN
G1 F1800 X165.372 Y134.83 E96.03058
G1 F1509.4 X164.741 Y134.907 E96.05405
G1 F1398.1 X165.392 Y135.176 E96.08214
G1 F1643.8 X165.829 Y135.612 E96.10307
G1 F1466.4 X166.116 Y136.26 E96.13
G1 F1243.5 X166.116 Y138.233 E96.21844
G1 F1258.7 X166.116 Y140.206 E96.3058
G1 F1272.1 X166.116 Y142.179 E96.39225
G1 F1288 X166.116 Y144.152 E96.47763
G1 F1304.3 X166.117 Y146.125 E96.56194
G1 F1321.1 X166.117 Y148.098 E96.64518
G1 F1338.3 X166.117 Y150.071 E96.72735
G1 F1353.4 X166.117 Y152.044 E96.80861
G1 F1371.4 X166.117 Y154.017 E96.8888
G1 F1390 X166.118 Y155.99 E96.96791
G1 F1409 X166.118 Y157.963 E97.04596
G1 F1428.6 X166.118 Y159.936 E97.12294
G1 F1445.8 X166.118 Y161.909 E97.199
G1 F1466.4 X166.118 Y163.882 E97.274
G1 F1621.6 X165.843 Y164.406 E97.29434
G1 F1686.2 X165.403 Y164.86 E97.31523
G1 F1493.8 X164.875 Y165.117 E97.33715
G1 F1582.4 X165.404 Y165.17 E97.35587
G1 F1800 X166.779 Y165.171 E97.39845
G1 X166.779 Y164.538 E97.41805
G1 F1551.7 X166.715 Y164.068 E97.43509
