;FLAVOR:Marlin
;TIME:725
;Filament used: 0.393046m
;Layer height: 0.2
;MINX:138.034
;MINY:134.19
;MINZ:0.2
;MAXX:162.834
;MAXY:165.791
;MAXZ:6
;POSTPROCESSED
;Generated with Cura_SteamEngine 5.4.0
M140 S95
M105
M190 S95
M82 ;absolute extrusion mode
M201 X500.00 Y500.00 Z100.00 E5000.00 ;Setup machine max acceleration
M203 X500.00 Y500.00 Z10.00 E50.00 ;Setup machine max feedrate
M204 P500.00 R1000.00 T500.00 ;Setup Print/Retract/Travel acceleration
M205 X8.00 Y8.00 Z0.40 E5.00 ;Setup Jerk
M220 S100 ;Reset Feedrate
M221 S100 ;Reset Flowrate
M140 S95.0 ; set bed temp
M190 S95.0 ; wait for bed temp
G28 X Y; home X Y
G28 Z; home Z
G29;
M420 S1; save bed mesh
G92 E0 ;Reset Extruder
G1 Z2.0 F3000 ;Move Z Axis up
G1 X10.1 Y20 Z0 F5000.0 ;Move to start position
M104 S250.0 ; wait for extruder printing temp
M109 S250.0 ; wait for extruder printing temp
G1 X10.1 Y200.0 Z0.28 F1500.0 E15 ;Draw the first line
G1 X10.4 Y200.0 Z0.28 F5000.0 ;Move to side a little
G1 X10.4 Y20 Z0.28 F1500.0 E30 ;Draw the second line
G92 E0 ;Reset Extruder
G92 E0
G92 E0
;LAYER_COUNT:30
;LAYER:0
M106 S127.5
G0 F12000 X139.168 Y136.438 Z0.2
;TYPE:SKIRT
G1 F600 X140.321 Y135.362 E0.04883
G1 X141.829 Y134.462 E0.10321
G1 X143.18 Y134.24 E0.14561
G1 X157.655 Y134.19 E0.59383
G1 X159.07 Y134.538 E0.63895
G1 X160.586 Y135.324 E0.69183
G1 X161.662 Y136.477 E0.74067
G1 X162.562 Y137.985 E0.79505
G1 X162.784 Y139.336 E0.83744
G1 X162.834 Y147.105 E1.07801
G1 X162.485 Y148.527 E1.12335
G1 X161.699 Y150.045 E1.17629
G1 X162.562 Y151.485 E1.22827
G1 X162.784 Y152.836 E1.27067
G1 X162.834 Y160.605 E1.51124
G1 X162.485 Y162.027 E1.55658
G1 X161.7 Y163.542 E1.60941
G1 X160.541 Y164.624 E1.65851
G1 X159.235 Y165.401 E1.70557
G1 X158.84 Y165.55 E1.71864
G1 X157.434 Y165.762 E1.76267
G1 X155.032 Y165.791 E1.83705
G1 X153.482 Y165.45 E1.8862
G1 X153.308 Y165.379 E1.89202
G1 X151.933 Y165.79 E1.93645
G1 X143.212 Y165.79 E2.2065
G1 X141.797 Y165.442 E2.25162
G1 X140.281 Y164.656 E2.3045
G1 X139.205 Y163.503 E2.35334
G1 X138.305 Y161.995 E2.40772
G1 X138.083 Y160.644 E2.45011
G1 X138.034 Y139.369 E3.1089
G1 X138.382 Y137.954 E3.15402
G1 X139.168 Y136.438 E3.2069
G0 F12000 X139.491 Y136.683
G1 F600 X140.563 Y135.683 E3.25229
G1 X141.967 Y134.845 E3.30292
G1 X143.245 Y134.635 E3.34303
G1 X157.609 Y134.59 E3.78781
G1 X158.927 Y134.914 E3.82984
G1 X160.341 Y135.647 E3.87916
G1 X161.341 Y136.719 E3.92455
G1 X162.179 Y138.123 E3.97518
G1 X162.389 Y139.401 E4.01529
G1 X162.434 Y147.06 E4.25245
G1 X162.109 Y148.384 E4.29467
G1 X161.41 Y149.734 E4.34174
G1 X161.147 Y150.012 E4.35359
G1 X161.365 Y150.259 E4.36379
G1 X162.179 Y151.623 E4.41298
G1 X162.389 Y152.901 E4.45308
G1 X162.434 Y160.56 E4.69025
G1 X162.109 Y161.884 E4.73247
G1 X161.377 Y163.297 E4.78174
G1 X160.302 Y164.3 E4.82727
G1 X159.03 Y165.057 E4.8731
G1 X158.741 Y165.16 E4.8826
G1 X157.374 Y165.366 E4.92541
G1 X155.075 Y165.39 E4.9966
G1 X153.568 Y165.059 E5.04438
G1 X153.339 Y164.953 E5.05219
G1 X151.876 Y165.39 E5.09947
G1 X143.258 Y165.39 E5.36633
G1 X141.94 Y165.066 E5.40836
G1 X140.526 Y164.333 E5.45768
G1 X139.526 Y163.261 E5.50307
G1 X138.688 Y161.857 E5.5537
G1 X138.478 Y160.579 E5.59381
G1 X138.434 Y139.415 E6.24916
G1 X138.758 Y138.097 E6.29118
G1 X139.491 Y136.683 E6.3405
G0 F12000 X139.813 Y136.93
G1 F600 X140.808 Y136.002 E6.38263
G1 X142.105 Y135.228 E6.4294
G1 X143.31 Y135.03 E6.46722
G1 X157.563 Y134.99 E6.90856
G1 X158.784 Y135.29 E6.9475
G1 X160.094 Y135.969 E6.99319
G1 X161.022 Y136.964 E7.03532
G1 X161.796 Y138.261 E7.08209
G1 X161.994 Y139.466 E7.1199
G1 X162.034 Y147.015 E7.35366
G1 X161.733 Y148.241 E7.39275
G1 X161.055 Y149.55 E7.4384
G1 X160.582 Y149.991 E7.45842
G1 X161.022 Y150.464 E7.47843
G1 X161.796 Y151.761 E7.5252
G1 X161.994 Y152.966 E7.56301
G1 X162.034 Y160.515 E7.79677
G1 X161.733 Y161.741 E7.83586
G1 X161.055 Y163.05 E7.88151
G1 X160.06 Y163.978 E7.92364
G1 X158.825 Y164.713 E7.96814
G1 X158.681 Y164.764 E7.97287
G1 X157.314 Y164.97 E8.01568
G1 X155.118 Y164.99 E8.08368
G1 X153.654 Y164.668 E8.1301
G1 X153.383 Y164.522 E8.13963
G1 X151.818 Y164.99 E8.19021
G1 X143.304 Y164.99 E8.45385
G1 X142.083 Y164.69 E8.49278
G1 X140.773 Y164.011 E8.53847
G1 X139.845 Y163.016 E8.5806
G1 X139.071 Y161.719 E8.62737
G1 X138.873 Y160.514 E8.66518
G1 X138.834 Y139.461 E9.3171
G1 X139.134 Y138.24 E9.35603
G1 X139.813 Y136.93 E9.40172
G0 F12000 X140.135 Y137.177
G1 F600 X141.05 Y136.324 E9.44045
G1 X142.245 Y135.611 E9.48354
G1 X143.375 Y135.425 E9.519
G1 X157.517 Y135.39 E9.95692
G1 X158.641 Y135.666 E9.99275
G1 X159.847 Y136.291 E10.03482
G1 X160.7 Y137.206 E10.07355
G1 X161.413 Y138.401 E10.11664
G1 X161.599 Y139.531 E10.1521
G1 X161.634 Y146.97 E10.38245
G1 X161.357 Y148.098 E10.41842
G1 X160.733 Y149.303 E10.46044
G1 X160.016 Y149.971 E10.49078
G1 X160.7 Y150.706 E10.52187
G1 X161.413 Y151.901 E10.56496
G1 X161.599 Y153.031 E10.60043
G1 X161.634 Y160.47 E10.83078
G1 X161.357 Y161.598 E10.86674
G1 X160.733 Y162.803 E10.90876
G1 X159.818 Y163.656 E10.9475
G1 X158.62 Y164.369 E10.99067
G1 X157.31 Y164.57 E11.03171
G1 X155.161 Y164.59 E11.09825
G1 X153.74 Y164.277 E11.14331
G1 X153.382 Y164.043 E11.15655
G1 X153.157 Y164.172 E11.16459
G1 X151.76 Y164.59 E11.20974
G1 X143.35 Y164.59 E11.47016
G1 X142.226 Y164.314 E11.50599
G1 X141.02 Y163.689 E11.54806
G1 X140.167 Y162.774 E11.58679
G1 X139.454 Y161.579 E11.62988
G1 X139.268 Y160.449 E11.66534
G1 X139.234 Y139.507 E12.31382
G1 X139.51 Y138.383 E12.34965
G1 X140.135 Y137.177 E12.39172
G0 F12000 X140.457 Y137.424
G1 F600 X141.292 Y136.646 E12.42706
G1 X142.385 Y135.994 E12.46646
G1 X143.44 Y135.82 E12.49957
G1 X157.47 Y135.79 E12.93402
G1 X158.499 Y136.043 E12.96683
G1 X159.6 Y136.613 E13.00522
G1 X160.378 Y137.448 E13.04056
G1 X161.03 Y138.541 E13.07997
G1 X161.204 Y139.596 E13.11308
G1 X161.234 Y146.925 E13.34002
G1 X160.981 Y147.955 E13.37287
G1 X160.411 Y149.056 E13.41126
G1 X159.607 Y149.805 E13.44528
G1 X159.337 Y149.977 E13.45519
G1 X159.646 Y150.162 E13.46635
G1 X160.378 Y150.948 E13.49961
G1 X161.03 Y152.041 E13.53901
G1 X161.204 Y153.096 E13.57212
G1 X161.234 Y160.425 E13.79907
G1 X160.981 Y161.455 E13.83191
G1 X160.411 Y162.556 E13.8703
G1 X159.576 Y163.334 E13.90564
G1 X158.481 Y163.986 E13.94511
G1 X157.306 Y164.17 E13.98193
G1 X155.204 Y164.19 E14.04702
G1 X153.896 Y163.901 E14.0885
G1 X153.382 Y163.566 E14.1075
G1 X153.042 Y163.789 E14.12009
G1 X151.702 Y164.19 E14.1634
G1 X143.397 Y164.19 E14.42057
G1 X142.368 Y163.937 E14.45338
G1 X141.267 Y163.367 E14.49177
G1 X140.489 Y162.532 E14.52711
G1 X139.837 Y161.439 E14.56652
G1 X139.663 Y160.384 E14.59963
G1 X139.634 Y139.554 E15.24464
G1 X139.887 Y138.525 E15.27745
G1 X140.457 Y137.424 E15.31584
G0 F12000 X140.779 Y137.671
G1 F600 X141.534 Y136.968 E15.34778
G1 X142.525 Y136.377 E15.38351
G1 X143.505 Y136.215 E15.41427
G1 X157.424 Y136.19 E15.84528
G1 X158.356 Y136.419 E15.87499
G1 X159.353 Y136.935 E15.90976
G1 X160.056 Y137.69 E15.9417
G1 X160.647 Y138.681 E15.97743
G1 X160.809 Y139.661 E16.00819
G1 X160.834 Y146.88 E16.23173
G1 X160.605 Y147.812 E16.26144
G1 X160.089 Y148.809 E16.29621
G1 X159.334 Y149.512 E16.32815
G1 X158.514 Y150.001 E16.35771
G1 X159.353 Y150.435 E16.38696
G1 X160.056 Y151.19 E16.41891
G1 X160.647 Y152.181 E16.45464
G1 X160.809 Y153.161 E16.48539
G1 X160.834 Y160.38 E16.70893
G1 X160.605 Y161.312 E16.73865
G1 X160.089 Y162.309 E16.77341
G1 X159.334 Y163.012 E16.80536
G1 X158.342 Y163.603 E16.84111
G1 X157.302 Y163.77 E16.87373
G1 X155.247 Y163.79 E16.93737
G1 X154.053 Y163.526 E16.97523
G1 X153.383 Y163.089 E17
G1 X152.872 Y163.422 E17.01889
G1 X151.644 Y163.79 E17.05858
G1 X143.443 Y163.79 E17.31253
G1 X142.511 Y163.561 E17.34225
G1 X141.514 Y163.045 E17.37701
G1 X140.811 Y162.29 E17.40895
G1 X140.22 Y161.299 E17.44468
G1 X140.058 Y160.319 E17.47544
G1 X140.034 Y139.6 E18.11701
G1 X140.263 Y138.668 E18.14673
G1 X140.779 Y137.671 E18.18149
G0 F12000 X141.102 Y137.916
G1 F600 X141.773 Y137.292 E18.20986
G1 X142.665 Y136.76 E18.24202
G1 X143.57 Y136.61 E18.27043
G1 X157.378 Y136.59 E18.698
G1 X158.213 Y136.795 E18.72462
G1 X159.108 Y137.258 E18.75582
G1 X159.732 Y137.929 E18.7842
G1 X160.264 Y138.821 E18.81636
G1 X160.414 Y139.726 E18.84476
G1 X160.434 Y146.834 E19.06486
G1 X160.229 Y147.669 E19.09149
G1 X159.766 Y148.564 E19.12269
G1 X159.095 Y149.188 E19.15106
G1 X158.203 Y149.72 E19.18322
G1 X157.298 Y149.87 E19.21163
G1 X153.134 Y149.888 E19.34057
G1 X153.134 Y150.09 E19.34682
G1 X157.378 Y150.09 E19.47824
G1 X158.213 Y150.295 E19.50486
G1 X159.108 Y150.758 E19.53607
G1 X159.732 Y151.429 E19.56444
G1 X160.264 Y152.321 E19.5966
G1 X160.414 Y153.226 E19.62501
G1 X160.434 Y160.334 E19.84511
G1 X160.229 Y161.169 E19.87173
G1 X159.766 Y162.064 E19.90293
G1 X159.095 Y162.688 E19.93131
G1 X158.203 Y163.22 E19.96347
G1 X157.298 Y163.37 E19.99187
G1 X155.291 Y163.39 E20.05402
G1 X154.208 Y163.15 E20.08837
G1 X153.383 Y162.612 E20.11887
G1 X152.703 Y163.055 E20.144
G1 X151.586 Y163.39 E20.18011
G1 X143.489 Y163.39 E20.43084
G1 X142.654 Y163.185 E20.45746
G1 X141.759 Y162.722 E20.48866
G1 X141.135 Y162.051 E20.51704
G1 X140.603 Y161.159 E20.5492
G1 X140.453 Y160.254 E20.5776
G1 X140.434 Y139.646 E21.21573
G1 X140.639 Y138.811 E21.24236
G1 X141.102 Y137.916 E21.27356
G0 F12000 X141.425 Y138.161
G1 F600 X142.012 Y137.616 E21.29836
G1 X142.805 Y137.143 E21.32696
G1 X143.636 Y137.005 E21.35304
G1 X157.332 Y136.99 E21.77714
G1 X158.07 Y137.171 E21.80067
G1 X158.863 Y137.581 E21.82831
G1 X159.408 Y138.168 E21.85312
G1 X159.881 Y138.961 E21.88171
G1 X160.019 Y139.792 E21.90779
G1 X160.034 Y146.788 E22.12442
G1 X159.853 Y147.526 E22.14795
G1 X159.443 Y148.319 E22.1756
G1 X158.856 Y148.864 E22.2004
G1 X158.063 Y149.337 E22.22899
G1 X157.232 Y149.475 E22.25508
G1 X152.734 Y149.489 E22.39436
G1 X152.734 Y150.49 E22.42535
G1 X157.332 Y150.49 E22.56773
G1 X158.07 Y150.671 E22.59126
G1 X158.863 Y151.081 E22.61891
G1 X159.408 Y151.668 E22.64371
G1 X159.881 Y152.461 E22.6723
G1 X160.019 Y153.292 E22.69838
G1 X160.034 Y160.288 E22.91502
G1 X159.853 Y161.026 E22.93855
G1 X159.443 Y161.819 E22.96619
G1 X158.856 Y162.364 E22.99099
G1 X158.063 Y162.837 E23.01958
G1 X157.232 Y162.975 E23.04567
G1 X155.331 Y162.99 E23.10454
G1 X154.367 Y162.776 E23.13511
G1 X153.384 Y162.134 E23.17147
G1 X152.534 Y162.688 E23.20289
G1 X151.528 Y162.99 E23.23541
G1 X143.535 Y162.99 E23.48292
G1 X142.797 Y162.809 E23.50644
G1 X142.004 Y162.399 E23.53409
G1 X141.459 Y161.812 E23.55889
G1 X140.986 Y161.019 E23.58748
G1 X140.848 Y160.188 E23.61357
G1 X140.834 Y139.692 E24.24823
G1 X141.015 Y138.954 E24.27176
G1 X141.425 Y138.161 E24.2994
G0 F12000 X141.748 Y138.406
G1 F600 X142.251 Y137.94 E24.32063
G1 X142.945 Y137.526 E24.34566
G1 X143.702 Y137.4 E24.36942
G1 X157.282 Y137.39 E24.78993
G1 X157.931 Y137.549 E24.81062
G1 X158.618 Y137.904 E24.83456
G1 X159.084 Y138.407 E24.8558
G1 X159.498 Y139.101 E24.88082
G1 X159.624 Y139.858 E24.90458
G1 X159.634 Y146.738 E25.11762
G1 X159.475 Y147.387 E25.13831
G1 X159.12 Y148.074 E25.16226
G1 X158.617 Y148.54 E25.18349
G1 X157.923 Y148.954 E25.20852
G1 X157.166 Y149.08 E25.23228
G1 X152.334 Y149.09 E25.3819
G1 X152.334 Y150.89 E25.43764
G1 X157.282 Y150.89 E25.59086
G1 X157.931 Y151.049 E25.61155
G1 X158.618 Y151.404 E25.63549
G1 X159.084 Y151.907 E25.65672
G1 X159.498 Y152.601 E25.68175
G1 X159.624 Y153.358 E25.70551
G1 X159.634 Y160.238 E25.91855
G1 X159.475 Y160.887 E25.93924
G1 X159.12 Y161.574 E25.96319
G1 X158.617 Y162.04 E25.98442
G1 X157.923 Y162.454 E26.00944
G1 X157.166 Y162.58 E26.03321
G1 X155.376 Y162.59 E26.08863
G1 X154.524 Y162.401 E26.11566
G1 X153.645 Y161.827 E26.14817
G1 X153.371 Y161.699 E26.15753
G1 X153.036 Y161.883 E26.16937
G1 X152.363 Y162.322 E26.19425
G1 X151.47 Y162.59 E26.22312
G1 X143.585 Y162.59 E26.46728
G1 X142.936 Y162.431 E26.48797
G1 X142.249 Y162.076 E26.51191
G1 X141.783 Y161.573 E26.53315
G1 X141.369 Y160.879 E26.55817
G1 X141.243 Y160.122 E26.58193
G1 X141.234 Y139.742 E27.213
G1 X141.393 Y139.093 E27.23369
G1 X141.748 Y138.406 E27.25764
G0 F12000 X142.071 Y138.652
G1 F600 X142.49 Y138.264 E27.27532
G1 X143.085 Y137.909 E27.29678
G1 X143.768 Y137.795 E27.31822
G1 X157.232 Y137.79 E27.73513
G1 X157.792 Y137.927 E27.75299
G1 X158.372 Y138.227 E27.77321
G1 X158.76 Y138.646 E27.79089
G1 X159.115 Y139.241 E27.81234
G1 X159.229 Y139.924 E27.83378
G1 X159.234 Y146.688 E28.04323
G1 X159.097 Y147.248 E28.06108
G1 X158.797 Y147.828 E28.0813
G1 X158.378 Y148.216 E28.09899
G1 X157.783 Y148.571 E28.12044
G1 X157.1 Y148.685 E28.14188
G1 X151.934 Y148.69 E28.30185
G1 X151.934 Y151.29 E28.38236
G1 X157.232 Y151.29 E28.54641
G1 X157.792 Y151.427 E28.56427
G1 X158.372 Y151.727 E28.58449
G1 X158.76 Y152.146 E28.60217
G1 X159.115 Y152.741 E28.62362
G1 X159.229 Y153.424 E28.64506
G1 X159.234 Y160.188 E28.85451
G1 X159.097 Y160.748 E28.87236
G1 X158.797 Y161.328 E28.89258
G1 X158.378 Y161.716 E28.91027
G1 X157.783 Y162.071 E28.93172
G1 X157.1 Y162.185 E28.95316
G1 X155.417 Y162.19 E29.00528
G1 X154.683 Y162.027 E29.02856
G1 X153.842 Y161.478 E29.05966
G1 X153.478 Y161.307 E29.07211
G1 X153.357 Y161.295 E29.07588
G1 X153.145 Y161.367 E29.08281
G1 X152.828 Y161.541 E29.09401
G1 X152.192 Y161.956 E29.11752
G1 X151.412 Y162.19 E29.14274
G1 X143.635 Y162.19 E29.38356
G1 X143.075 Y162.053 E29.40141
G1 X142.495 Y161.753 E29.42163
G1 X142.107 Y161.334 E29.43931
G1 X141.752 Y160.739 E29.46077
G1 X141.638 Y160.056 E29.48221
G1 X141.634 Y139.792 E30.10969
G1 X141.771 Y139.232 E30.12754
G1 X142.071 Y138.652 E30.14776
G0 F12000 X142.394 Y138.898
G1 F600 X142.732 Y138.585 E30.16202
G1 X143.223 Y138.292 E30.17973
G1 X143.834 Y138.19 E30.19891
G1 X157.182 Y138.19 E30.61223
G1 X157.653 Y138.305 E30.62725
G1 X158.126 Y138.55 E30.64374
G1 X158.439 Y138.888 E30.65801
G1 X158.732 Y139.379 E30.67571
G1 X158.834 Y139.99 E30.69489
G1 X158.834 Y146.638 E30.90075
G1 X158.719 Y147.109 E30.91576
G1 X158.474 Y147.582 E30.93226
G1 X158.136 Y147.895 E30.94652
G1 X157.645 Y148.188 E30.96423
G1 X157.034 Y148.29 E30.98341
G1 X151.534 Y148.29 E31.15372
G1 X151.534 Y151.69 E31.259
G1 X157.182 Y151.69 E31.43389
G1 X157.653 Y151.805 E31.4489
G1 X158.126 Y152.05 E31.4654
G1 X158.439 Y152.388 E31.47966
G1 X158.732 Y152.879 E31.49737
G1 X158.834 Y153.49 E31.51655
G1 X158.834 Y160.138 E31.7224
G1 X158.719 Y160.609 E31.73742
G1 X158.474 Y161.082 E31.75391
G1 X158.136 Y161.395 E31.76818
G1 X157.645 Y161.688 E31.78588
G1 X157.034 Y161.79 E31.80506
G1 X155.458 Y161.79 E31.85387
G1 X154.842 Y161.653 E31.87341
G1 X154.039 Y161.129 E31.9031
G1 X153.586 Y160.916 E31.9186
G1 X153.31 Y160.889 E31.92718
G1 X152.981 Y161 E31.93794
G1 X152.626 Y161.195 E31.95048
G1 X152.021 Y161.59 E31.97285
G1 X151.354 Y161.79 E31.99441
G1 X143.685 Y161.79 E32.23189
G1 X143.214 Y161.675 E32.2469
G1 X142.741 Y161.43 E32.26339
G1 X142.428 Y161.092 E32.27766
G1 X142.135 Y160.601 E32.29536
G1 X142.033 Y159.99 E32.31454
G1 X142.034 Y139.842 E32.93843
G1 X142.149 Y139.371 E32.95344
G1 X142.394 Y138.898 E32.96994
G0 F12000 X142.717 Y139.144
G1 F600 X142.527 Y139.51 E32.98271
G1 X142.434 Y139.892 E32.99488
G1 X142.433 Y159.99 E33.61722
G1 X142.518 Y160.463 E33.6321
G1 X142.749 Y160.85 E33.64606
G1 X142.987 Y161.107 E33.6569
G1 X143.353 Y161.297 E33.66967
G1 X143.735 Y161.39 E33.68185
G1 X151.296 Y161.39 E33.91598
G1 X151.85 Y161.224 E33.93388
G1 X152.418 Y160.853 E33.95489
G1 X152.821 Y160.632 E33.96912
G1 X153.263 Y160.482 E33.98358
G1 X153.612 Y160.517 E33.99444
G1 X153.853 Y160.599 E34.00232
G1 X154.235 Y160.779 E34.0154
G1 X155.001 Y161.279 E34.04372
G1 X155.5 Y161.39 E34.05955
G1 X157.034 Y161.39 E34.10705
G1 X157.507 Y161.305 E34.12193
G1 X157.894 Y161.074 E34.13589
G1 X158.151 Y160.836 E34.14674
G1 X158.341 Y160.47 E34.1595
G1 X158.434 Y160.088 E34.17168
G1 X158.434 Y153.49 E34.37599
G1 X158.349 Y153.017 E34.39087
G1 X158.118 Y152.63 E34.40482
G1 X157.88 Y152.373 E34.41567
G1 X157.514 Y152.183 E34.42844
G1 X157.132 Y152.09 E34.44061
G1 X151.134 Y152.09 E34.62634
G1 X151.134 Y147.89 E34.7564
G1 X157.034 Y147.89 E34.93909
G1 X157.507 Y147.805 E34.95397
G1 X157.894 Y147.574 E34.96793
