;FLAVOR:Marlin
;TIME:17446
;Filament used: 13.3622m
;Layer height: 0.2
;MINX:71.226
;MINY:98.353
;MINZ:0.2
;MAXX:228.738
;MAXY:204.437
;MAXZ:14.4
;POSTPROCESSED
;Generated with Cura_SteamEngine 5.4.0
M140 S95
M105
M190 S95
M82 ;absolute extrusion mode
M201 X500.00 Y500.00 Z100.00 E5000.00 ;Setup machine max acceleration
M203 X500.00 Y500.00 Z10.00 E50.00 ;Setup machine max feedrate
M204 P500.00 R1000.00 T500.00 ;Setup Print/Retract/Travel acceleration
M205 X8.00 Y8.00 Z0.40 E5.00 ;Setup Jerk
M220 S100 ;Reset Feedrate
M221 S100 ;Reset Flowrate
M140 S95.0 ; set bed temp
M190 S95.0 ; wait for bed temp
G28 X Y; home X Y
G28 Z; home Z
G29;
M420 S1; save bed mesh
G92 E0 ;Reset Extruder
G1 Z2.0 F3000 ;Move Z Axis up
G1 X10.1 Y20 Z0 F5000.0 ;Move to start position
M104 S245.0 ; wait for extruder printing temp
M109 S245.0 ; wait for extruder printing temp
G1 X10.1 Y200.0 Z0.28 F1500.0 E15 ;Draw the first line
G1 X10.4 Y200.0 Z0.28 F5000.0 ;Move to side a little
G1 X10.4 Y20 Z0.28 F1500.0 E30 ;Draw the second line
G92 E0 ;Reset Extruder
G92 E0
G92 E0
G1 F3000 E-4
;LAYER_COUNT:72
;LAYER:0
M106 S127.5
G0 F12000 X133.449 Y103.546 Z0.2
;TYPE:SKIRT
G1 F3000 E0
G1 F600 X134.118 Y102.757 E0.03203
G1 X135.161 Y101.663 E0.07884
G1 X135.849 Y101.022 E0.10795
G1 X137.195 Y99.937 E0.16149
G1 X138.368 Y99.152 E0.20519
G1 X139.941 Y98.528 E0.25759
G1 X141.73 Y98.356 E0.31325
G1 X143.22 Y98.602 E0.36001
G1 X144.807 Y99.301 E0.41371
G1 X145.904 Y100.314 E0.45994
G1 X146.771 Y101.513 E0.50576
G1 X147.285 Y103.042 E0.55571
G1 X147.445 Y103.869 E0.58179
G1 X147.336 Y105.625 E0.63627
G1 X147.084 Y106.308 E0.65881
G1 X147.034 Y106.662 E0.66989
G1 X147.042 Y107.106 E0.68364
G1 X147.116 Y107.549 E0.69754
G1 X147.214 Y107.848 E0.70729
G1 X147.311 Y108.085 E0.71522
G1 X147.45 Y108.367 E0.72495
G1 X147.721 Y108.748 E0.73943
G1 X147.991 Y109.024 E0.75139
G1 X148.943 Y109.675 E0.7871
G1 X149.987 Y111.117 E0.84222
G1 X150.2 Y110.703 E0.85664
G1 X151.257 Y109.533 E0.90546
G1 X152.079 Y108.976 E0.93621
G1 X152.367 Y108.627 E0.95022
G1 X152.581 Y108.3 E0.96232
G1 X152.743 Y107.977 E0.97351
G1 X152.865 Y107.599 E0.98581
G1 X152.934 Y107.318 E0.99477
G1 X152.958 Y107 E1.00465
G1 X152.967 Y106.657 E1.01527
G1 X152.914 Y106.298 E1.02651
G1 X152.688 Y105.677 E1.04697
G1 X152.536 Y103.995 E1.09927
G1 X152.845 Y102.528 E1.14569
G1 X153.14 Y101.678 E1.17355
G1 X154.081 Y100.3 E1.22522
G1 X155.314 Y99.216 E1.27606
G1 X155.581 Y99.06 E1.28563
G1 X157.221 Y98.499 E1.33931
G1 X157.969 Y98.353 E1.3629
G1 X159.884 Y98.459 E1.42229
G1 X160.286 Y98.568 E1.43519
G1 X161.776 Y99.272 E1.48622
G1 X162.631 Y99.798 E1.5173
G1 X163.044 Y100.101 E1.53317
G1 X164.104 Y100.987 E1.57594
G1 X165.046 Y101.876 E1.61605
G1 X165.933 Y102.817 E1.65609
G1 X166.715 Y103.754 E1.69389
G1 X167.427 Y104.713 E1.73087
G1 X223.532 Y184.851 E4.76006
G1 X224.086 Y185.746 E4.79266
G1 X224.663 Y186.87 E4.83178
G1 X228.463 Y195.201 E5.11532
G1 X228.738 Y196.669 E5.16157
G1 X228.629 Y198.481 E5.21778
G1 X227.959 Y199.915 E5.26679
G1 X226.435 Y202.313 E5.35477
G1 X225.354 Y203.324 E5.4006
G1 X223.793 Y204.206 E5.45612
G1 X222.435 Y204.409 E5.49864
G1 X160.335 Y204.437 E7.42158
G1 X158.92 Y204.089 E7.4667
G1 X157.404 Y203.303 E7.51958
G1 X156.328 Y202.15 E7.56841
G1 X155.428 Y200.642 E7.62279
G1 X155.206 Y199.291 E7.66518
G1 X155.156 Y180.996 E8.23169
G1 X155.498 Y179.601 E8.27617
G1 X156.291 Y178.065 E8.3297
G1 X157.44 Y177.004 E8.37813
G1 X158.824 Y176.177 E8.42805
G1 X159.272 Y176.045 E8.44251
G1 X160.641 Y175.842 E8.48537
G1 X162.209 Y175.791 E8.53395
G1 X162.694 Y175.746 E8.54903
G1 X163.449 Y175.623 E8.57271
G1 X164.078 Y175.48 E8.59269
G1 X164.76 Y175.271 E8.61478
G1 X165.31 Y175.07 E8.63291
G1 X165.965 Y174.773 E8.65518
G1 X166.576 Y174.453 E8.67654
G1 X167.159 Y174.094 E8.69774
G1 X167.69 Y173.717 E8.7179
G1 X168.115 Y173.374 E8.73481
G1 X168.719 Y172.82 E8.76019
G1 X169.148 Y172.368 E8.77949
G1 X169.586 Y171.843 E8.80066
G1 X169.956 Y171.337 E8.82007
G1 X170.362 Y170.696 E8.84357
G1 X170.625 Y170.217 E8.86049
G1 X170.928 Y169.566 E8.88272
G1 X171.195 Y168.879 E8.90555
G1 X171.388 Y168.267 E8.92542
G1 X171.539 Y167.656 E8.9449
G1 X171.67 Y166.917 E8.96814
G1 X171.729 Y166.386 E8.98469
G1 X171.769 Y165.622 E9.00838
G1 X171.756 Y165.062 E9.02572
G1 X171.699 Y164.323 E9.04867
G1 X171.588 Y163.563 E9.07246
G1 X171.501 Y163.143 E9.08574
G1 X171.24 Y162.225 E9.11529
G1 X171.133 Y161.922 E9.12524
G1 X170.724 Y160.968 E9.15738
G1 X150.705 Y118.041 E10.62406
G1 X149.984 Y117.133 E10.65997
G1 X149.907 Y117.277 E10.66502
G1 X149.287 Y118.051 E10.69573
G1 X129.202 Y161.127 E12.16746
G1 X128.95 Y161.715 E12.18727
G1 X128.674 Y162.487 E12.21265
G1 X128.553 Y162.922 E12.22663
G1 X128.409 Y163.597 E12.24801
G1 X128.3 Y164.337 E12.27117
G1 X128.245 Y165.055 E12.29347
G1 X128.231 Y165.66 E12.3122
G1 X128.27 Y166.429 E12.33605
G1 X128.319 Y166.858 E12.34942
G1 X128.458 Y167.645 E12.37416
G1 X128.623 Y168.309 E12.39535
G1 X128.788 Y168.833 E12.41236
G1 X129.109 Y169.655 E12.43969
G1 X129.327 Y170.124 E12.4557
G1 X129.66 Y170.73 E12.47711
G1 X130.044 Y171.337 E12.49936
G1 X130.386 Y171.804 E12.51728
G1 X130.904 Y172.422 E12.54225
G1 X131.337 Y172.874 E12.56163
G1 X131.756 Y173.261 E12.57929
G1 X132.402 Y173.785 E12.60505
G1 X132.842 Y174.097 E12.62175
G1 X133.416 Y174.45 E12.64262
G1 X134.035 Y174.774 E12.66425
G1 X134.684 Y175.068 E12.68631
G1 X135.222 Y175.265 E12.70406
G1 X135.947 Y175.486 E12.72753
G1 X136.53 Y175.619 E12.74604
G1 X137.31 Y175.746 E12.77051
G1 X137.786 Y175.79 E12.78531
G1 X138.756 Y175.824 E12.81537
G1 X139.675 Y175.826 E12.84383
G1 X141.118 Y176.18 E12.88983
G1 X142.627 Y176.984 E12.94278
G1 X143.669 Y178.117 E12.99044
G1 X144.539 Y179.566 E13.04278
G1 X144.843 Y181.139 E13.09239
G1 X144.843 Y199.257 E13.65342
G1 X144.495 Y200.672 E13.69854
G1 X143.709 Y202.188 E13.75141
G1 X142.556 Y203.264 E13.80025
G1 X141.048 Y204.164 E13.85463
G1 X139.697 Y204.386 E13.89702
G1 X77.477 Y204.436 E15.82368
G1 X76.021 Y204.074 E15.87014
G1 X74.527 Y203.289 E15.9224
G1 X74.409 Y203.195 E15.92707
G1 X73.348 Y201.947 E15.97779
G1 X71.863 Y199.645 E16.06262
G1 X71.389 Y198.282 E16.1073
G1 X71.226 Y196.582 E16.16018
G1 X71.26 Y196.322 E16.1683
G1 X71.704 Y194.85 E16.21591
G1 X75.465 Y186.606 E16.4965
G1 X75.984 Y185.622 E16.53095
G1 X76.627 Y184.612 E16.56802
G1 X132.682 Y104.567 E19.59397
G1 X132.969 Y104.185 E19.60876
G0 F540 X133.449 Y103.546
G0 F12000 X133.754 Y103.805
G1 F600 X134.423 Y103.016 E19.64079
G1 X135.434 Y101.956 E19.68615
G1 X136.122 Y101.315 E19.71527
G1 X137.446 Y100.249 E19.7679
G1 X138.551 Y99.51 E19.80907
G1 X140.038 Y98.92 E19.85861
G1 X141.714 Y98.759 E19.91074
G1 X143.107 Y98.989 E19.95446
G1 X144.585 Y99.64 E20.00447
G1 X145.604 Y100.581 E20.04742
G1 X146.411 Y101.697 E20.09006
G1 X146.892 Y103.118 E20.13652
G1 X147.043 Y103.897 E20.16109
G1 X146.941 Y105.541 E20.21209
G1 X146.694 Y106.21 E20.23418
G1 X146.633 Y106.639 E20.24759
G1 X146.643 Y107.146 E20.2633
G1 X146.725 Y107.639 E20.27877
G1 X146.841 Y107.995 E20.29037
G1 X146.943 Y108.242 E20.29864
G1 X147.106 Y108.574 E20.31009
G1 X147.411 Y109.002 E20.32637
G1 X147.734 Y109.333 E20.34069
G1 X148.661 Y109.966 E20.37545
G1 X149.6 Y111.264 E20.42505
G1 X149.991 Y112.125 E20.45434
G1 X150.164 Y111.649 E20.47002
G1 X150.532 Y110.932 E20.49497
G1 X151.521 Y109.838 E20.54064
G1 X152.27 Y109.33 E20.56867
G1 X152.484 Y109.112 E20.57812
G1 X152.692 Y108.862 E20.5882
G1 X152.929 Y108.5 E20.60159
G1 X153.115 Y108.128 E20.61447
G1 X153.251 Y107.707 E20.62817
G1 X153.33 Y107.383 E20.6385
G1 X153.357 Y107.031 E20.64943
G1 X153.368 Y106.633 E20.66176
G1 X153.304 Y106.199 E20.67534
G1 X153.081 Y105.587 E20.69551
G1 X152.94 Y104.021 E20.7442
G1 X153.223 Y102.659 E20.78728
G1 X153.501 Y101.859 E20.8135
G1 X154.384 Y100.566 E20.86198
G1 X155.578 Y99.516 E20.91122
G1 X155.711 Y99.438 E20.91599
G1 X157.298 Y98.892 E20.96796
G1 X158 Y98.755 E20.99011
G1 X159.819 Y98.856 E21.04652
G1 X160.115 Y98.93 E21.05597
G1 X161.605 Y99.634 E21.107
G1 X162.394 Y100.121 E21.13571
G1 X162.807 Y100.424 E21.15157
G1 X163.829 Y101.278 E21.19281
G1 X164.771 Y102.167 E21.23292
G1 X165.626 Y103.074 E21.27152
G1 X166.394 Y103.993 E21.3086
G1 X167.099 Y104.942 E21.34521
G1 X223.192 Y185.062 E24.37373
G1 X223.746 Y185.957 E24.40632
G1 X224.299 Y187.036 E24.44387
G1 X228.079 Y195.323 E24.72591
G1 X228.336 Y196.695 E24.76914
G1 X228.235 Y198.379 E24.82137
G1 X227.621 Y199.7 E24.86648
G1 X226.122 Y202.058 E24.953
G1 X225.116 Y202.999 E24.99566
G1 X223.662 Y203.821 E25.04738
G1 X222.376 Y204.013 E25.08764
G1 X160.381 Y204.037 E27.00733
G1 X159.063 Y203.713 E27.04935
G1 X157.649 Y202.98 E27.09867
G1 X156.649 Y201.908 E27.14407
G1 X155.811 Y200.504 E27.1947
G1 X155.601 Y199.226 E27.2348
G1 X155.556 Y181.046 E27.79775
G1 X155.876 Y179.74 E27.83939
G1 X156.614 Y178.311 E27.88919
G1 X157.682 Y177.325 E27.9342
G1 X158.983 Y176.547 E27.98114
G1 X159.332 Y176.441 E27.99243
G1 X160.654 Y176.242 E28.03383
G1 X162.226 Y176.191 E28.08253
G1 X162.751 Y176.142 E28.09886
G1 X163.524 Y176.016 E28.12311
G1 X164.187 Y175.865 E28.14417
G1 X164.888 Y175.651 E28.16686
G1 X165.448 Y175.446 E28.18533
G1 X166.144 Y175.131 E28.20899
G1 X166.781 Y174.797 E28.23126
G1 X167.369 Y174.435 E28.25264
G1 X167.933 Y174.035 E28.27405
G1 X168.379 Y173.675 E28.2918
G1 X168.997 Y173.108 E28.31777
G1 X169.448 Y172.633 E28.33805
G1 X169.904 Y172.085 E28.36013
G1 X170.287 Y171.562 E28.3802
G1 X170.7 Y170.91 E28.4041
G1 X170.987 Y170.389 E28.42252
G1 X171.295 Y169.726 E28.44515
G1 X171.574 Y169.009 E28.46898
G1 X171.77 Y168.387 E28.48917
G1 X171.93 Y167.741 E28.50978
G1 X172.067 Y166.97 E28.53403
G1 X172.127 Y166.43 E28.55085
G1 X172.169 Y165.622 E28.5759
G1 X172.155 Y165.031 E28.59421
G1 X172.097 Y164.279 E28.61757
G1 X171.982 Y163.489 E28.64229
G1 X171.891 Y163.052 E28.65611
G1 X171.625 Y162.116 E28.68624
G1 X171.501 Y161.764 E28.69779
G1 X171.092 Y160.81 E28.72994
G1 X151.049 Y117.831 E30.19839
G1 X150.275 Y116.856 E30.23694
G1 X150.014 Y116.03 E30.26376
G1 X149.595 Y117.027 E30.29725
G1 X148.943 Y117.841 E30.32954
G1 X128.839 Y160.958 E31.80267
G1 X128.573 Y161.58 E31.82362
G1 X128.297 Y162.352 E31.849
G1 X128.162 Y162.838 E31.86462
G1 X128.014 Y163.531 E31.88656
G1 X127.902 Y164.292 E31.91038
G1 X127.845 Y165.033 E31.9334
G1 X127.831 Y165.651 E31.95254
G1 X127.872 Y166.462 E31.97768
G1 X127.925 Y166.928 E31.99221
G1 X128.066 Y167.726 E32.0173
G1 X128.241 Y168.429 E32.03973
G1 X128.409 Y168.963 E32.05707
G1 X128.742 Y169.816 E32.08542
G1 X128.965 Y170.295 E32.10178
G1 X129.322 Y170.944 E32.12472
G1 X129.713 Y171.562 E32.14736
G1 X130.074 Y172.055 E32.16628
G1 X130.598 Y172.68 E32.19154
G1 X131.059 Y173.162 E32.21219
G1 X131.499 Y173.568 E32.23073
G1 X132.151 Y174.097 E32.25673
G1 X132.628 Y174.435 E32.27483
G1 X133.217 Y174.797 E32.29624
G1 X133.856 Y175.132 E32.31858
G1 X134.546 Y175.444 E32.34203
G1 X135.094 Y175.645 E32.3601
G1 X135.838 Y175.872 E32.38419
G1 X136.455 Y176.012 E32.40378
G1 X137.253 Y176.142 E32.42882
G1 X137.77 Y176.19 E32.44489
G1 X138.742 Y176.224 E32.47501
G1 X139.628 Y176.226 E32.50245
G1 X140.972 Y176.556 E32.5453
G1 X142.379 Y177.305 E32.59466
G1 X143.346 Y178.357 E32.6389
G1 X144.159 Y179.711 E32.68781
G1 X144.443 Y181.179 E32.73411
G1 X144.443 Y199.211 E33.29247
G1 X144.119 Y200.529 E33.3345
G1 X143.386 Y201.943 E33.38382
G1 X142.314 Y202.943 E33.42921
G1 X140.91 Y203.781 E33.47984
G1 X139.632 Y203.991 E33.51995
G1 X77.525 Y204.036 E35.4431
G1 X76.165 Y203.698 E35.4865
G1 X74.713 Y202.935 E35.53729
G1 X73.684 Y201.73 E35.58635
G1 X72.225 Y199.469 E35.66968
G1 X71.782 Y198.195 E35.71144
G1 X71.628 Y196.589 E35.7614
G1 X71.643 Y196.437 E35.76613
G1 X72.068 Y195.016 E35.81206
G1 X75.819 Y186.793 E36.09193
G1 X76.338 Y185.809 E36.12637
G1 X76.955 Y184.841 E36.16192
G1 X133.002 Y104.807 E39.18744
G1 X133.274 Y104.445 E39.20146
G0 F540 X133.754 Y103.805
G0 F12000 X134.059 Y104.064
G1 F600 X134.728 Y103.275 E39.2335
G1 X135.707 Y102.249 E39.27741
G1 X136.395 Y101.608 E39.30653
G1 X137.668 Y100.581 E39.35717
G1 X138.734 Y99.868 E39.39689
G1 X140.135 Y99.312 E39.44356
G1 X141.698 Y99.162 E39.49218
G1 X142.994 Y99.376 E39.53285
G1 X144.363 Y99.979 E39.57918
G1 X145.304 Y100.848 E39.61884
G1 X146.05 Y101.88 E39.65827
G1 X146.499 Y103.194 E39.70127
G1 X146.641 Y103.925 E39.72433
G1 X146.546 Y105.457 E39.77186
G1 X146.304 Y106.111 E39.79345
G1 X146.253 Y106.471 E39.80471
G1 X146.235 Y106.725 E39.81259
G1 X146.244 Y107.186 E39.82687
G1 X146.335 Y107.733 E39.84404
G1 X146.463 Y108.128 E39.8569
G1 X146.584 Y108.419 E39.86666
G1 X146.703 Y108.661 E39.87501
G1 X146.858 Y108.915 E39.88422
G1 X147.022 Y109.145 E39.89297
G1 X147.197 Y109.355 E39.90143
G1 X147.475 Y109.64 E39.91376
G1 X148.378 Y110.256 E39.94761
G1 X149.253 Y111.466 E39.99385
G1 X149.757 Y112.578 E40.03165
G1 X149.965 Y114.146 E40.08063
G1 X149.944 Y114.708 E40.09805
G1 X149.594 Y115.996 E40.13938
G1 X149.247 Y116.822 E40.16712
G1 X148.599 Y117.631 E40.19921
G1 X128.476 Y160.789 E41.67374
G1 X128.196 Y161.445 E41.69582
G1 X127.92 Y162.217 E41.72121
G1 X127.771 Y162.754 E41.73847
G1 X127.619 Y163.465 E41.76098
G1 X127.504 Y164.248 E41.78549
G1 X127.445 Y165.011 E41.80918
G1 X127.431 Y165.642 E41.82873
G1 X127.474 Y166.495 E41.85518
G1 X127.531 Y166.998 E41.87085
G1 X127.675 Y167.811 E41.89642
G1 X127.859 Y168.549 E41.91997
G1 X128.032 Y169.098 E41.93779
G1 X128.373 Y169.971 E41.96681
G1 X128.603 Y170.466 E41.98372
G1 X128.984 Y171.158 E42.00818
G1 X129.382 Y171.787 E42.03123
G1 X129.762 Y172.306 E42.05114
G1 X130.299 Y172.947 E42.07704
G1 X130.773 Y173.442 E42.09826
G1 X131.242 Y173.875 E42.11802
G1 X131.907 Y174.414 E42.14453
G1 X132.411 Y174.772 E42.16367
G1 X133.006 Y175.138 E42.1853
G1 X133.685 Y175.493 E42.20903
G1 X134.401 Y175.817 E42.23337
G1 X134.972 Y176.026 E42.25219
G1 X135.729 Y176.257 E42.2767
G1 X136.38 Y176.405 E42.29737
G1 X137.196 Y176.538 E42.32298
G1 X137.754 Y176.59 E42.34033
G1 X138.728 Y176.624 E42.37051
G1 X139.577 Y176.626 E42.3968
G1 X140.83 Y176.933 E42.43674
G1 X142.129 Y177.625 E42.48232
G1 X143.025 Y178.6 E42.52332
G1 X143.779 Y179.856 E42.56868
G1 X144.043 Y181.219 E42.61167
G1 X144.043 Y199.165 E43.16738
G1 X143.743 Y200.386 E43.20631
G1 X143.064 Y201.696 E43.252
G1 X142.069 Y202.624 E43.29413
G1 X140.772 Y203.398 E43.3409
G1 X139.567 Y203.596 E43.37871
G1 X77.573 Y203.636 E45.29837
G1 X76.309 Y203.322 E45.3387
G1 X74.967 Y202.617 E45.38564
G1 X74.02 Y201.513 E45.43068
G1 X72.587 Y199.293 E45.5125
G1 X72.175 Y198.108 E45.55135
G1 X72.026 Y196.551 E45.59978
G1 X72.432 Y195.182 E45.644
G1 X76.173 Y186.979 E45.92317
G1 X76.675 Y186.024 E45.95658
G1 X77.283 Y185.07 E45.99161
G1 X133.322 Y105.047 E49.01671
G1 X133.579 Y104.704 E49.02998
G0 F540 X134.059 Y104.064
G0 F12000 X134.364 Y104.323
G1 F600 X135.018 Y103.551 E49.06131
G1 X135.98 Y102.542 E49.10448
G1 X136.668 Y101.901 E49.1336
G1 X137.89 Y100.913 E49.18226
G1 X138.917 Y100.226 E49.22052
G1 X140.232 Y99.704 E49.26433
G1 X141.682 Y99.565 E49.30944
G1 X142.881 Y99.763 E49.34707
G1 X144.141 Y100.318 E49.3897
G1 X145.004 Y101.115 E49.42607
G1 X145.69 Y102.065 E49.46236
G1 X146.106 Y103.27 E49.50183
G1 X146.239 Y103.953 E49.52338
G1 X146.151 Y105.373 E49.56743
G1 X145.914 Y106.012 E49.58854
G1 X145.855 Y106.43 E49.60161
G1 X145.835 Y106.716 E49.61049
G1 X145.845 Y107.226 E49.62628
G1 X145.945 Y107.827 E49.64515
G1 X146.084 Y108.256 E49.65911
G1 X146.225 Y108.596 E49.67051
G1 X146.352 Y108.854 E49.67942
G1 X146.521 Y109.132 E49.68949
G1 X146.714 Y109.401 E49.69974
G1 X146.897 Y109.621 E49.7086
G1 X147.214 Y109.945 E49.72264
G1 X148.095 Y110.546 E49.75566
G1 X148.906 Y111.668 E49.79853
G1 X149.369 Y112.689 E49.83324
G1 X149.565 Y114.131 E49.87831
G1 X149.546 Y114.65 E49.89439
G1 X149.225 Y115.841 E49.93258
G1 X148.899 Y116.617 E49.95865
G1 X148.255 Y117.421 E49.99055
G1 X128.113 Y160.62 E51.46647
G1 X127.819 Y161.31 E51.48969
G1 X127.543 Y162.082 E51.51508
G1 X127.38 Y162.67 E51.53397
G1 X127.224 Y163.399 E51.55706
G1 X127.106 Y164.203 E51.58222
G1 X127.046 Y164.98 E51.60635
G1 X127.031 Y165.633 E51.62658
G1 X127.076 Y166.528 E51.65433
