;FLAVOR:Marlin
;TIME:1593
;Filament used: 0.47597m
;Layer height: 0.1
;MINX:136.898
;MINY:129.482
;MINZ:0.2
;MAXX:163.102
;MAXY:170.518
;MAXZ:8.3
;POSTPROCESSED
;Generated with Cura_SteamEngine 5.4.0
M140 S80
M105
M190 S80
M82 ;absolute extrusion mode
M201 X500.00 Y500.00 Z100.00 E5000.00 ;Setup machine max acceleration
M203 X500.00 Y500.00 Z10.00 E50.00 ;Setup machine max feedrate
M204 P500.00 R1000.00 T500.00 ;Setup Print/Retract/Travel acceleration
M205 X8.00 Y8.00 Z0.40 E5.00 ;Setup Jerk
M220 S100 ;Reset Feedrate
M221 S100 ;Reset Flowrate
M140 S80.0 ; set bed temp
M190 S80.0 ; wait for bed temp
G28 X Y; home X Y
G28 Z; home Z
G29;
M420 S1; save bed mesh
G92 E0 ;Reset Extruder
G1 Z2.0 F3000 ;Move Z Axis up
G1 X10.1 Y20 Z0 F5000.0 ;Move to start position
M104 S245 ; wait for extruder printing temp
M109 S245 ; wait for extruder printing temp
G1 X10.1 Y200.0 Z0.28 F1500.0 E15 ;Draw the first line
G1 X10.4 Y200.0 Z0.28 F5000.0 ;Move to side a little
G1 X10.4 Y20 Z0.28 F1500.0 E30 ;Draw the second line
G92 E0 ;Reset Extruder
G92 E0
G92 E0
G1 F3000 E-4
;LAYER_COUNT:82
;LAYER:0
M106 S25.5
G0 F12000 X145.957 Y132.828 Z0.2
;TYPE:SKIRT
G1 F3000 E0
G1 F600 X146.32 Y132.433 E0.01661
G1 X146.743 Y132.024 E0.03483
G1 X147.332 Y131.529 E0.05866
G1 X147.64 Y131.3 E0.07054
G1 X148.289 Y130.869 E0.09466
G1 X148.577 Y130.703 E0.10496
G1 X149.407 Y130.292 E0.13364
G1 X149.651 Y130.189 E0.14184
G1 X150.427 Y129.923 E0.16724
G1 X151.252 Y129.702 E0.19369
G1 X151.629 Y129.628 E0.20558
G1 X152.39 Y129.523 E0.22937
G1 X152.668 Y129.5 E0.23801
G1 X153.673 Y129.482 E0.26913
G1 X153.939 Y129.495 E0.27738
G1 X154.918 Y129.609 E0.3079
G1 X155.18 Y129.656 E0.31614
G1 X156.098 Y129.886 E0.34545
G1 X156.522 Y130.019 E0.35921
G1 X157.308 Y130.327 E0.38535
G1 X157.57 Y130.449 E0.3943
G1 X158.395 Y130.902 E0.42344
G1 X158.901 Y131.224 E0.44201
G1 X159.188 Y131.432 E0.45299
G1 X159.871 Y131.996 E0.48042
G1 X160.126 Y132.235 E0.49124
G1 X160.725 Y132.875 E0.51838
G1 X161.02 Y133.227 E0.5326
G1 X161.422 Y133.777 E0.5537
G1 X161.77 Y134.33 E0.57393
G1 X162.122 Y135.003 E0.59745
G1 X162.528 Y135.97 E0.62992
G1 X162.769 Y136.706 E0.65391
G1 X162.835 Y136.964 E0.66215
G1 X163.008 Y137.87 E0.69071
G1 X163.044 Y138.144 E0.69927
G1 X163.102 Y139.199 E0.73199
G1 X163.088 Y139.778 E0.74992
G1 X163.066 Y140.108 E0.76016
G1 X162.941 Y141.036 E0.78916
G1 X162.828 Y141.573 E0.80615
G1 X162.693 Y142.064 E0.82192
G1 X162.443 Y142.813 E0.84637
G1 X162.325 Y143.103 E0.85606
G1 X161.959 Y143.857 E0.88202
G1 X161.58 Y144.505 E0.90526
G1 X156.77 Y161.009 E1.43757
G1 X156.737 Y161.629 E1.4568
G1 X156.673 Y162.116 E1.47201
G1 X156.516 Y162.913 E1.49716
G1 X156.402 Y163.341 E1.51088
G1 X156.182 Y163.996 E1.53227
G1 X155.875 Y164.736 E1.55708
G1 X155.604 Y165.288 E1.57612
G1 X155.395 Y165.656 E1.58923
G1 X154.943 Y166.343 E1.61469
G1 X154.635 Y166.755 E1.63062
G1 X154.109 Y167.37 E1.65568
G1 X153.918 Y167.568 E1.6642
G1 X153.165 Y168.249 E1.69564
G1 X152.807 Y168.53 E1.70973
G1 X152.175 Y168.974 E1.73365
G1 X151.895 Y169.144 E1.74379
G1 X151.083 Y169.569 E1.77217
G1 X150.653 Y169.76 E1.78674
G1 X150.029 Y169.994 E1.80737
G1 X149.312 Y170.207 E1.83054
G1 X148.735 Y170.338 E1.84886
G1 X148.208 Y170.426 E1.8654
G1 X147.445 Y170.505 E1.88915
G1 X147.168 Y170.518 E1.89774
G1 X146.348 Y170.506 E1.92314
G1 X145.619 Y170.442 E1.9458
G1 X144.933 Y170.338 E1.96728
G1 X144.632 Y170.275 E1.9768
G1 X143.756 Y170.027 E2.00499
G1 X143.216 Y169.834 E2.02275
G1 X142.514 Y169.527 E2.04648
G1 X142.2 Y169.368 E2.05738
G1 X141.409 Y168.905 E2.08576
G1 X141.097 Y168.693 E2.09744
G1 X140.438 Y168.183 E2.12324
G1 X140.151 Y167.933 E2.13503
G1 X139.548 Y167.333 E2.16137
G1 X139.172 Y166.901 E2.1791
G1 X138.73 Y166.326 E2.20156
G1 X138.485 Y165.967 E2.21502
G1 X138.141 Y165.389 E2.23584
G1 X137.815 Y164.739 E2.25836
G1 X137.559 Y164.133 E2.27873
G1 X137.333 Y163.48 E2.30013
G1 X137.183 Y162.938 E2.31754
G1 X137.054 Y162.337 E2.33658
G1 X137.002 Y162.019 E2.34656
G1 X136.906 Y160.949 E2.37982
G1 X136.898 Y160.381 E2.39741
G1 X136.907 Y160.105 E2.40596
G1 X136.931 Y159.832 E2.41445
G1 X137.048 Y149.131 E2.74583
G1 X137.05 Y148.292 E2.77181
G1 X137.097 Y147.764 E2.78822
G1 X137.435 Y146.092 E2.84104
G1 X137.626 Y145.516 E2.85983
G1 X138.205 Y144.231 E2.90348
G1 X138.746 Y143.332 E2.93596
G1 X139.18 Y142.75 E2.95845
G1 X145.031 Y134.08 E3.28233
G1 X145.191 Y133.829 E3.29155
G1 X145.458 Y133.453 E3.30583
G0 F540 X145.528 Y133.355
G0 X145.957 Y132.828
G0 F12000 X146.252 Y133.098
G1 F600 X146.598 Y132.721 E3.32167
G1 X147.021 Y132.312 E3.33989
G1 X147.571 Y131.85 E3.36213
G1 X147.862 Y131.633 E3.37337
G1 X148.489 Y131.216 E3.39669
G1 X148.777 Y131.05 E3.40698
G1 X149.563 Y130.661 E3.43414
G1 X149.807 Y130.558 E3.44234
G1 X150.556 Y130.302 E3.46685
G1 X151.329 Y130.095 E3.49163
G1 X151.706 Y130.021 E3.50353
G1 X152.423 Y129.922 E3.52594
G1 X152.701 Y129.899 E3.53458
G1 X153.653 Y129.882 E3.56406
G1 X153.919 Y129.895 E3.57231
G1 X154.847 Y130.003 E3.60124
G1 X155.109 Y130.05 E3.60948
G1 X155.978 Y130.268 E3.63722
G1 X156.402 Y130.401 E3.65098
G1 X157.139 Y130.69 E3.6755
G1 X157.401 Y130.812 E3.68444
G1 X158.181 Y131.24 E3.71199
G1 X158.666 Y131.548 E3.72979
G1 X158.953 Y131.756 E3.74076
G1 X159.597 Y132.288 E3.76663
G1 X159.852 Y132.527 E3.77745
G1 X160.418 Y133.132 E3.8031
G1 X160.713 Y133.484 E3.81732
G1 X161.084 Y133.991 E3.83678
G1 X161.416 Y134.516 E3.85601
G1 X161.753 Y135.158 E3.87846
G1 X162.148 Y136.095 E3.90995
G1 X162.381 Y136.805 E3.93309
G1 X162.447 Y137.063 E3.94134
G1 X162.611 Y137.922 E3.96842
G1 X162.647 Y138.196 E3.97697
G1 X162.702 Y139.19 E4.0078
G1 X162.689 Y139.751 E4.02518
G1 X162.667 Y140.081 E4.03542
G1 X162.55 Y140.954 E4.06269
G1 X162.442 Y141.467 E4.07893
G1 X162.307 Y141.958 E4.09469
G1 X162.072 Y142.662 E4.11768
G1 X161.954 Y142.952 E4.12737
G1 X161.612 Y143.658 E4.15166
G1 X161.302 Y144.2 E4.171
G1 X161.213 Y144.335 E4.176
G1 X156.373 Y160.94 E4.71158
G1 X156.34 Y161.577 E4.73133
G1 X156.276 Y162.064 E4.74654
G1 X156.129 Y162.81 E4.77008
G1 X156.015 Y163.238 E4.7838
G1 X155.803 Y163.869 E4.80441
G1 X155.516 Y164.56 E4.82758
G1 X155.256 Y165.09 E4.84586
G1 X155.047 Y165.458 E4.85896
G1 X154.609 Y166.123 E4.88362
G1 X154.331 Y166.495 E4.898
G1 X153.821 Y167.092 E4.92231
G1 X153.63 Y167.29 E4.93083
G1 X152.918 Y167.934 E4.96056
G1 X152.56 Y168.215 E4.97465
G1 X151.967 Y168.632 E4.9971
G1 X151.687 Y168.802 E5.00724
G1 X150.92 Y169.204 E5.03406
G1 X150.513 Y169.385 E5.04785
G1 X149.889 Y169.619 E5.06849
G1 X149.223 Y169.817 E5.09
G1 X148.669 Y169.943 E5.1076
G1 X148.142 Y170.031 E5.12414
G1 X147.426 Y170.105 E5.14643
G1 X147.149 Y170.118 E5.15502
G1 X146.354 Y170.106 E5.17964
G1 X145.679 Y170.047 E5.20062
G1 X145.015 Y169.946 E5.22142
G1 X144.714 Y169.883 E5.23094
G1 X143.891 Y169.65 E5.25742
G1 X143.351 Y169.457 E5.27518
G1 X142.695 Y169.17 E5.29735
G1 X142.381 Y169.011 E5.30825
G1 X141.634 Y168.574 E5.33505
G1 X141.322 Y168.362 E5.34673
G1 X140.701 Y167.881 E5.37105
G1 X140.414 Y167.631 E5.38284
G1 X139.85 Y167.07 E5.40747
G1 X139.474 Y166.638 E5.42521
G1 X139.06 Y166.1 E5.44623
G1 X138.829 Y165.762 E5.4589
G1 X138.485 Y165.184 E5.47973
G1 X138.183 Y164.583 E5.50056
G1 X137.937 Y164.002 E5.5201
G1 X137.719 Y163.373 E5.54071
G1 X137.569 Y162.831 E5.55812
G1 X137.449 Y162.272 E5.57583
G1 X137.397 Y161.954 E5.58581
G1 X137.306 Y160.943 E5.61724
G1 X137.298 Y160.394 E5.63424
G1 X137.307 Y160.118 E5.64279
G1 X137.331 Y159.845 E5.65128
G1 X137.448 Y149.135 E5.98293
G1 X137.449 Y148.325 E6.00802
G1 X137.489 Y147.843 E6.02299
G1 X137.815 Y146.217 E6.07434
G1 X137.991 Y145.68 E6.09184
G1 X138.548 Y144.437 E6.13402
G1 X139.067 Y143.571 E6.16528
G1 X139.51 Y142.976 E6.18825
G1 X145.362 Y134.304 E6.5122
G1 X145.517 Y134.061 E6.52113
G1 X145.756 Y133.725 E6.5339
G0 F540 X145.854 Y133.587
G0 X146.252 Y133.098
G0 F12000 X146.547 Y133.368
G1 F600 X146.876 Y133.009 E6.54898
G1 X147.299 Y132.6 E6.5672
G1 X147.81 Y132.171 E6.58786
G1 X148.101 Y131.954 E6.5991
G1 X148.689 Y131.563 E6.62096
G1 X148.977 Y131.397 E6.63125
G1 X149.719 Y131.03 E6.65689
G1 X149.963 Y130.927 E6.66509
G1 X150.66 Y130.688 E6.6879
G1 X151.406 Y130.488 E6.71182
G1 X151.783 Y130.414 E6.72372
G1 X152.456 Y130.321 E6.74475
G1 X152.734 Y130.298 E6.75339
G1 X153.633 Y130.282 E6.78123
G1 X153.899 Y130.295 E6.78948
G1 X154.776 Y130.397 E6.81682
G1 X155.038 Y130.444 E6.82506
G1 X155.859 Y130.65 E6.85127
G1 X156.256 Y130.774 E6.86415
G1 X156.97 Y131.053 E6.88789
G1 X157.232 Y131.175 E6.89684
G1 X157.967 Y131.578 E6.9228
G1 X158.431 Y131.872 E6.9398
G1 X158.718 Y132.08 E6.95078
G1 X159.324 Y132.581 E6.97513
G1 X159.56 Y132.801 E6.98512
G1 X160.111 Y133.389 E7.01007
G1 X160.406 Y133.741 E7.02429
G1 X160.746 Y134.206 E7.04213
G1 X161.062 Y134.703 E7.06037
G1 X161.384 Y135.313 E7.08172
G1 X161.779 Y136.25 E7.11321
G1 X161.993 Y136.904 E7.13452
G1 X162.059 Y137.162 E7.14277
G1 X162.214 Y137.974 E7.16836
G1 X162.25 Y138.248 E7.17692
G1 X162.302 Y139.181 E7.20586
G1 X162.29 Y139.724 E7.22267
G1 X162.268 Y140.054 E7.23292
G1 X162.158 Y140.872 E7.25847
G1 X162.056 Y141.361 E7.27394
G1 X161.921 Y141.852 E7.28971
G1 X161.701 Y142.511 E7.31122
G1 X161.583 Y142.801 E7.32092
G1 X161.252 Y143.483 E7.34439
G1 X160.968 Y143.98 E7.36212
G1 X160.846 Y144.165 E7.36898
G1 X155.977 Y160.871 E7.90781
G1 X155.943 Y161.525 E7.92808
G1 X155.879 Y162.012 E7.94329
G1 X155.742 Y162.707 E7.96523
G1 X155.628 Y163.135 E7.97894
G1 X155.424 Y163.741 E7.99874
G1 X155.157 Y164.384 E8.0203
G1 X154.908 Y164.892 E8.03782
G1 X154.699 Y165.26 E8.05093
G1 X154.275 Y165.903 E8.07478
G1 X154.027 Y166.235 E8.08761
G1 X153.533 Y166.814 E8.11118
G1 X153.342 Y167.012 E8.11969
G1 X152.671 Y167.619 E8.14771
G1 X152.313 Y167.9 E8.1618
G1 X151.759 Y168.29 E8.18278
G1 X151.479 Y168.46 E8.19293
G1 X150.757 Y168.839 E8.21818
G1 X150.373 Y169.01 E8.23119
G1 X149.749 Y169.244 E8.25183
G1 X149.134 Y169.427 E8.2717
G1 X148.603 Y169.548 E8.28856
G1 X148.076 Y169.636 E8.30511
G1 X147.407 Y169.705 E8.32593
G1 X147.13 Y169.718 E8.33452
G1 X146.36 Y169.706 E8.35837
G1 X145.739 Y169.651 E8.37767
G1 X145.097 Y169.554 E8.39778
G1 X144.796 Y169.491 E8.4073
G1 X144.026 Y169.273 E8.43208
G1 X143.486 Y169.08 E8.44984
G1 X142.876 Y168.813 E8.47045
G1 X142.562 Y168.654 E8.48135
G1 X141.858 Y168.243 E8.5066
G1 X141.567 Y168.046 E8.51748
G1 X140.964 Y167.579 E8.54109
G1 X140.677 Y167.329 E8.55288
G1 X140.152 Y166.807 E8.5758
G1 X139.776 Y166.375 E8.59354
G1 X139.39 Y165.874 E8.61312
G1 X139.173 Y165.557 E8.62502
G1 X138.829 Y164.979 E8.64585
G1 X138.541 Y164.404 E8.66576
G1 X138.315 Y163.871 E8.68369
G1 X138.105 Y163.266 E8.70352
G1 X137.955 Y162.724 E8.72093
G1 X137.844 Y162.207 E8.7373
G1 X137.792 Y161.889 E8.74728
G1 X137.706 Y160.937 E8.77688
G1 X137.698 Y160.407 E8.79329
G1 X137.707 Y160.131 E8.80185
G1 X137.731 Y159.858 E8.81033
G1 X137.848 Y149.139 E9.14227
G1 X137.848 Y148.358 E9.16645
G1 X137.888 Y147.876 E9.18143
G1 X138.195 Y146.342 E9.22987
G1 X138.371 Y145.805 E9.24737
G1 X138.891 Y144.643 E9.28679
G1 X139.41 Y143.777 E9.31805
G1 X139.837 Y143.207 E9.3401
G1 X145.693 Y134.528 E9.66431
G1 X145.843 Y134.293 E9.67294
G1 X146.053 Y133.997 E9.68418
G0 F540 X146.18 Y133.819
G0 X146.547 Y133.368
G0 F12000 X146.842 Y133.638
G1 F600 X147.155 Y133.296 E9.69853
G1 X147.557 Y132.906 E9.71588
G1 X148.049 Y132.492 E9.73579
G1 X148.34 Y132.275 E9.74703
G1 X148.889 Y131.91 E9.76744
G1 X149.177 Y131.744 E9.77773
G1 X149.875 Y131.399 E9.80184
G1 X150.119 Y131.296 E9.81005
G1 X150.789 Y131.067 E9.83197
G1 X151.483 Y130.881 E9.85422
G1 X151.86 Y130.807 E9.86612
G1 X152.489 Y130.72 E9.88578
G1 X152.767 Y130.697 E9.89442
G1 X153.613 Y130.682 E9.92062
G1 X153.879 Y130.695 E9.92886
G1 X154.705 Y130.791 E9.95461
G1 X154.967 Y130.838 E9.96285
G1 X155.74 Y131.032 E9.98753
G1 X156.137 Y131.156 E10.00041
G1 X156.801 Y131.416 E10.02249
G1 X157.063 Y131.538 E10.03144
G1 X157.753 Y131.916 E10.0558
G1 X158.217 Y132.21 E10.07281
G1 X158.463 Y132.388 E10.08222
G1 X159.051 Y132.874 E10.10584
G1 X159.287 Y133.094 E10.11583
G1 X159.804 Y133.646 E10.13925
G1 X160.099 Y133.998 E10.15347
G1 X160.408 Y134.421 E10.16969
G1 X160.724 Y134.918 E10.18793
G1 X161.015 Y135.468 E10.20719
G1 X161.41 Y136.405 E10.23868
G1 X161.605 Y137.003 E10.25816
G1 X161.671 Y137.261 E10.2664
G1 X161.817 Y138.026 E10.29052
G1 X161.853 Y138.3 E10.29908
G1 X161.902 Y139.173 E10.32615
G1 X161.891 Y139.697 E10.34238
G1 X161.869 Y140.027 E10.35262
G1 X161.766 Y140.791 E10.37649
G1 X161.67 Y141.255 E10.39117
G1 X161.535 Y141.746 E10.40694
G1 X161.33 Y142.36 E10.42698
G1 X161.212 Y142.65 E10.43667
G1 X160.892 Y143.308 E10.45933
G1 X160.634 Y143.76 E10.47545
G1 X160.479 Y143.995 E10.48416
G1 X155.581 Y160.802 E11.02625
G1 X155.546 Y161.473 E11.04705
G1 X155.482 Y161.96 E11.06226
G1 X155.355 Y162.604 E11.08259
G1 X155.241 Y163.032 E11.0963
G1 X155.045 Y163.613 E11.11529
G1 X154.798 Y164.208 E11.13524
G1 X154.56 Y164.694 E11.15199
G1 X154.351 Y165.062 E11.1651
G1 X153.954 Y165.664 E11.18743
G1 X153.722 Y165.976 E11.19947
G1 X153.245 Y166.536 E11.22225
G1 X153.054 Y166.734 E11.23077
G1 X152.423 Y167.305 E11.25712
G1 X152.083 Y167.573 E11.27052
G1 X151.551 Y167.948 E11.29068
G1 X151.271 Y168.118 E11.30082
G1 X150.594 Y168.474 E11.32451
G1 X150.233 Y168.635 E11.33674
G1 X149.609 Y168.869 E11.35738
G1 X149.045 Y169.037 E11.3756
G1 X148.537 Y169.153 E11.39174
G1 X148.01 Y169.241 E11.40828
G1 X147.388 Y169.305 E11.42765
G1 X147.111 Y169.318 E11.43623
G1 X146.366 Y169.306 E11.4593
G1 X145.799 Y169.256 E11.47693
G1 X145.179 Y169.162 E11.49635
G1 X144.878 Y169.099 E11.50587
G1 X144.16 Y168.896 E11.52897
G1 X143.646 Y168.713 E11.54587
G1 X143.057 Y168.456 E11.56577
G1 X142.743 Y168.297 E11.57667
G1 X142.082 Y167.911 E11.60037
G1 X141.812 Y167.729 E11.61045
G1 X141.227 Y167.277 E11.63334
G1 X140.94 Y167.027 E11.64513
G1 X140.454 Y166.544 E11.66635
G1 X140.078 Y166.112 E11.68408
G1 X139.72 Y165.647 E11.70225
G1 X139.517 Y165.352 E11.71334
G1 X139.173 Y164.774 E11.73417
G1 X138.899 Y164.225 E11.75317
G1 X138.693 Y163.739 E11.76951
G1 X138.491 Y163.159 E11.78853
G1 X138.341 Y162.617 E11.80595
G1 X138.239 Y162.142 E11.82099
G1 X138.187 Y161.824 E11.83097
G1 X138.106 Y160.931 E11.85873
G1 X138.098 Y160.42 E11.87456
G1 X138.107 Y160.144 E11.88311
G1 X138.131 Y159.871 E11.89159
G1 X138.248 Y149.143 E12.22381
G1 X138.247 Y148.391 E12.2471
G1 X138.287 Y147.909 E12.26207
G1 X138.575 Y146.467 E12.30761
G1 X138.751 Y145.93 E12.3251
G1 X139.234 Y144.849 E12.36177
G1 X139.753 Y143.983 E12.39303
G1 X140.169 Y143.431 E12.41443
G1 X146.024 Y134.752 E12.73862
G1 X146.169 Y134.525 E12.74696
G1 X146.351 Y134.269 E12.75668
G0 F540 X146.506 Y134.051
G0 X146.842 Y133.638
G0 F12000 X147.137 Y133.908
G1 F600 X147.434 Y133.583 E12.77032
G1 X147.836 Y133.193 E12.78766
G1 X148.288 Y132.813 E12.80594
G1 X148.579 Y132.596 E12.81719
G1 X149.089 Y132.257 E12.83615
G1 X149.377 Y132.091 E12.84644
G1 X150.031 Y131.768 E12.86903
G1 X150.275 Y131.665 E12.87723
G1 X150.893 Y131.453 E12.89746
G1 X151.56 Y131.274 E12.91884
G1 X151.937 Y131.2 E12.93074
G1 X152.522 Y131.119 E12.94903
G1 X152.8 Y131.096 E12.95767
G1 X153.593 Y131.082 E12.98223
G1 X153.859 Y131.095 E12.99047
G1 X154.634 Y131.185 E13.01463
G1 X154.896 Y131.232 E13.02287
G1 X155.621 Y131.414 E13.04602
G1 X156.018 Y131.538 E13.0589
G1 X156.632 Y131.779 E13.07932
G1 X156.894 Y131.901 E13.08827
G1 X157.539 Y132.254 E13.11104
G1 X157.983 Y132.535 E13.12731
G1 X158.208 Y132.697 E13.1359
G1 X158.779 Y133.168 E13.15882
G1 X158.995 Y133.368 E13.16793
G1 X159.497 Y133.903 E13.19065
G1 X159.792 Y134.255 E13.20487
G1 X160.07 Y134.636 E13.21948
G1 X160.386 Y135.133 E13.23771
G1 X160.647 Y135.624 E13.25493
G1 X161.03 Y136.529 E13.28536
G1 X161.217 Y137.102 E13.30402
G1 X161.283 Y137.36 E13.31227
G1 X161.42 Y138.078 E13.33491
G1 X161.456 Y138.352 E13.34346
G1 X161.502 Y139.165 E13.36868
G1 X161.492 Y139.67 E13.38432
G1 X161.47 Y140 E13.39456
G1 X161.374 Y140.711 E13.41678
G1 X161.284 Y141.15 E13.43065
G1 X161.156 Y141.619 E13.44571
G1 X160.959 Y142.209 E13.46497
G1 X160.841 Y142.499 E13.47466
G1 X160.544 Y143.11 E13.4957
G1 X160.3 Y143.539 E13.51098
