;FLAVOR:Marlin
;TIME:2118
;Filament used: 0.768224m
;Layer height: 0.2
;MINX:137.25
;MINY:126.936
;MINZ:0.2
;MAXX:162.75
;MAXY:173.011
;MAXZ:26.4
;POSTPROCESSED
;Generated with Cura_SteamEngine 5.4.0
M140 S95
M105
M190 S95
M82 ;absolute extrusion mode
M201 X500.00 Y500.00 Z100.00 E5000.00 ;Setup machine max acceleration
M203 X500.00 Y500.00 Z10.00 E50.00 ;Setup machine max feedrate
M204 P500.00 R1000.00 T500.00 ;Setup Print/Retract/Travel acceleration
M205 X8.00 Y8.00 Z0.40 E5.00 ;Setup Jerk
M220 S100 ;Reset Feedrate
M221 S100 ;Reset Flowrate
M140 S95.0 ; set bed temp
M190 S95.0 ; wait for bed temp
G28 X Y; home X Y
G28 Z; home Z
G29;
M420 S1; save bed mesh
G92 E0 ;Reset Extruder
G1 Z2.0 F3000 ;Move Z Axis up
G1 X10.1 Y20 Z0 F5000.0 ;Move to start position
M104 S250.0 ; wait for extruder printing temp
M109 S250.0 ; wait for extruder printing temp
G1 X10.1 Y200.0 Z0.28 F1500.0 E15 ;Draw the first line
G1 X10.4 Y200.0 Z0.28 F5000.0 ;Move to side a little
G1 X10.4 Y20 Z0.28 F1500.0 E30 ;Draw the second line
G92 E0 ;Reset Extruder
G92 E0
G92 E0
;LAYER_COUNT:132
;LAYER:0
M106 S127.5
G0 F12000 X138.423 Y134.2 Z0.2
;TYPE:SKIRT
G1 F600 X144.305 Y128.317 E0.2576
G1 X145.241 Y127.716 E0.29205
G1 X146.314 Y127.203 E0.32887
G1 X148.041 Y126.936 E0.38299
G1 X149.423 Y127.161 E0.42634
G1 X150.37 Y127.441 E0.45692
G1 X151.829 Y128.315 E0.50959
G1 X153.058 Y129.761 E0.56835
G1 X153.159 Y129.951 E0.57501
G1 X157.422 Y129.972 E0.70702
G1 X158.211 Y130.084 E0.7317
G1 X159.951 Y130.821 E0.79021
G1 X161.261 Y131.916 E0.84308
G1 X162.296 Y133.381 E0.89862
G1 X162.358 Y133.519 E0.90331
G1 X162.75 Y135.167 E0.95576
G1 X162.75 Y164.906 E1.87663
G1 X162.229 Y166.748 E1.93591
G1 X162.161 Y166.883 E1.94059
G1 X161.042 Y168.341 E1.9975
G1 X159.653 Y169.468 E2.05289
G1 X157.647 Y170.112 E2.11813
G1 X153.029 Y170.112 E2.26112
G1 X152.581 Y170.839 E2.28757
G1 X151.611 Y171.731 E2.32837
G1 X150.602 Y172.443 E2.36661
G1 X148.85 Y173.011 E2.42364
G1 X147.195 Y172.982 E2.4749
G1 X145.898 Y172.641 E2.51643
G1 X145.253 Y172.38 E2.53797
G1 X143.887 Y171.324 E2.59144
G1 X138.415 Y165.85 E2.83111
G1 X137.451 Y164.051 E2.89431
G1 X137.25 Y162.277 E2.94959
G1 X137.29 Y137.208 E3.72586
G1 X137.469 Y135.974 E3.76447
G1 X138.423 Y134.2 E3.82684
G0 F12000 X138.746 Y134.443
G1 F600 X144.557 Y128.631 E4.08133
G1 X145.457 Y128.053 E4.11445
G1 X146.434 Y127.589 E4.14795
G1 X148.038 Y127.341 E4.1982
G1 X149.309 Y127.545 E4.23806
G1 X150.211 Y127.812 E4.26719
G1 X151.566 Y128.623 E4.31609
G1 X152.753 Y130.02 E4.37286
G1 X152.894 Y130.35 E4.38397
G1 X157.366 Y130.368 E4.52245
G1 X158.104 Y130.473 E4.54553
G1 X159.74 Y131.166 E4.60055
G1 X160.963 Y132.188 E4.6499
G1 X161.969 Y133.612 E4.70389
G1 X162.35 Y135.214 E4.75488
G1 X162.35 Y164.85 E5.67256
G1 X161.844 Y166.639 E5.73013
G1 X160.754 Y168.059 E5.78556
G1 X159.459 Y169.11 E5.83721
G1 X157.584 Y169.712 E5.89818
G1 X152.766 Y169.712 E6.04737
G1 X152.643 Y169.975 E6.05636
G1 X152.269 Y170.582 E6.07844
G1 X151.38 Y171.404 E6.11593
G1 X150.421 Y172.081 E6.15228
G1 X148.789 Y172.61 E6.20541
G1 X147.251 Y172.583 E6.25304
G1 X146 Y172.254 E6.29309
G1 X145.455 Y172.031 E6.31133
G1 X144.17 Y171.041 E6.36156
G1 X138.74 Y165.609 E6.59939
G1 X137.839 Y163.928 E6.65845
G1 X137.65 Y162.278 E6.70987
G1 X137.686 Y137.265 E7.48441
G1 X137.855 Y136.1 E7.52086
G1 X138.746 Y134.443 E7.57912
G0 F12000 X139.069 Y134.686
G1 F600 X144.809 Y128.945 E7.8305
G1 X145.673 Y128.39 E7.8623
G1 X146.554 Y127.975 E7.89245
G1 X148.036 Y127.746 E7.93889
G1 X149.195 Y127.929 E7.97522
G1 X150.053 Y128.183 E8.00293
G1 X151.303 Y128.931 E8.04804
G1 X152.448 Y130.279 E8.1028
G1 X152.607 Y130.749 E8.11817
G1 X157.31 Y130.764 E8.2638
G1 X157.997 Y130.862 E8.28529
G1 X159.527 Y131.51 E8.33674
G1 X160.666 Y132.462 E8.3827
G1 X161.598 Y133.781 E8.43271
G1 X161.95 Y135.261 E8.47982
G1 X161.95 Y164.794 E9.39431
G1 X161.479 Y166.458 E9.44787
G1 X160.468 Y167.776 E9.4993
G1 X159.265 Y168.752 E9.54727
G1 X157.521 Y169.312 E9.60399
G1 X152.508 Y169.312 E9.75922
G1 X152.303 Y169.765 E9.77461
G1 X151.959 Y170.323 E9.79491
G1 X151.108 Y171.11 E9.83081
G1 X150.239 Y171.72 E9.86368
G1 X148.731 Y172.209 E9.91277
G1 X147.307 Y172.184 E9.95687
G1 X146.102 Y171.867 E9.99545
G1 X145.657 Y171.682 E10.01038
G1 X144.453 Y170.758 E10.05737
G1 X139.065 Y165.368 E10.29337
G1 X138.227 Y163.805 E10.34828
G1 X138.05 Y162.279 E10.39585
G1 X138.082 Y137.322 E11.16865
G1 X138.241 Y136.226 E11.20294
G1 X139.069 Y134.686 E11.25708
G0 F12000 X139.392 Y134.929
G1 F600 X145.062 Y129.258 E11.5054
G1 X145.843 Y128.752 E11.53422
G1 X146.673 Y128.361 E11.56263
G1 X148.035 Y128.151 E11.6053
G1 X149.081 Y128.313 E11.63808
G1 X149.895 Y128.554 E11.66437
G1 X151.04 Y129.239 E11.70568
G1 X152.093 Y130.479 E11.75605
G1 X152.32 Y131.148 E11.77793
G1 X157.253 Y131.16 E11.93068
G1 X157.89 Y131.251 E11.95061
G1 X159.316 Y131.855 E11.99856
G1 X160.368 Y132.734 E12.04101
G1 X161.227 Y133.95 E12.08711
G1 X161.55 Y135.308 E12.13034
G1 X161.55 Y164.738 E13.04164
G1 X161.115 Y166.276 E13.09113
G1 X160.18 Y167.494 E13.13868
G1 X159.071 Y168.394 E13.18291
G1 X157.458 Y168.912 E13.23537
G1 X152.247 Y168.912 E13.39673
G1 X151.962 Y169.555 E13.4185
G1 X151.647 Y170.066 E13.43709
G1 X150.836 Y170.816 E13.4713
G1 X150.057 Y171.359 E13.5007
G1 X148.673 Y171.808 E13.54576
G1 X147.363 Y171.785 E13.58633
G1 X146.204 Y171.48 E13.62344
G1 X145.86 Y171.333 E13.63502
G1 X144.736 Y170.475 E13.67881
G1 X139.388 Y165.125 E13.91305
G1 X138.615 Y163.684 E13.96368
G1 X138.45 Y162.279 E14.00749
G1 X138.478 Y137.379 E14.77852
G1 X138.627 Y136.352 E14.81066
G1 X139.392 Y134.929 E14.86068
G0 F12000 X139.715 Y135.172
G1 F600 X145.314 Y129.572 E15.10589
G1 X146.061 Y129.088 E15.13346
G1 X146.79 Y128.747 E15.15838
G1 X148.032 Y128.556 E15.19729
G1 X148.967 Y128.697 E15.22657
G1 X149.737 Y128.925 E15.25143
G1 X150.777 Y129.547 E15.28896
G1 X151.738 Y130.679 E15.33494
G1 X152.033 Y131.548 E15.36335
G1 X157.196 Y131.556 E15.52323
G1 X157.783 Y131.64 E15.54159
G1 X159.103 Y132.199 E15.58598
G1 X160.071 Y133.008 E15.62504
G1 X160.856 Y134.119 E15.66717
G1 X161.15 Y135.355 E15.70651
G1 X161.15 Y164.682 E16.61462
G1 X160.75 Y166.095 E16.6601
G1 X159.894 Y167.211 E16.70365
G1 X158.877 Y168.036 E16.7442
G1 X157.395 Y168.512 E16.7924
G1 X151.986 Y168.512 E16.95989
G1 X151.596 Y169.393 E16.98972
G1 X151.337 Y169.807 E17.00484
G1 X150.564 Y170.522 E17.03745
G1 X149.877 Y170.997 E17.06331
G1 X148.614 Y171.407 E17.10443
G1 X147.419 Y171.386 E17.14144
G1 X146.306 Y171.093 E17.17708
G1 X146.066 Y170.986 E17.18521
G1 X145.019 Y170.192 E17.2259
G1 X139.713 Y164.884 E17.4583
G1 X139.003 Y163.56 E17.50482
G1 X138.85 Y162.279 E17.54477
G1 X138.874 Y137.436 E18.31404
G1 X139.013 Y136.478 E18.34402
G1 X139.715 Y135.172 E18.38993
G0 F12000 X140.038 Y135.415
G1 F600 X145.566 Y129.886 E18.63203
G1 X146.279 Y129.424 E18.65834
G1 X146.908 Y129.133 E18.6798
G1 X148.031 Y128.961 E18.71498
G1 X148.853 Y129.081 E18.7407
G1 X149.579 Y129.296 E18.76415
G1 X150.514 Y129.855 E18.79788
G1 X151.384 Y130.88 E18.83951
G1 X151.746 Y131.948 E18.87443
G1 X157.139 Y131.952 E19.04142
G1 X157.676 Y132.029 E19.05822
G1 X158.89 Y132.543 E19.09904
G1 X159.774 Y133.282 E19.13472
G1 X160.485 Y134.288 E19.17287
G1 X160.75 Y135.402 E19.20833
G1 X160.75 Y164.626 E20.11325
G1 X160.386 Y165.913 E20.15467
G1 X159.606 Y166.929 E20.19433
G1 X158.683 Y167.678 E20.23114
G1 X157.332 Y168.112 E20.27508
G1 X151.691 Y168.112 E20.44975
G1 X151.649 Y168.284 E20.45524
G1 X151.23 Y169.231 E20.4873
G1 X151.028 Y169.547 E20.49891
G1 X150.292 Y170.228 E20.52996
G1 X149.696 Y170.636 E20.55233
G1 X148.556 Y171.006 E20.58944
G1 X147.475 Y170.987 E20.62292
G1 X146.408 Y170.706 E20.65709
G1 X146.27 Y170.639 E20.66184
G1 X145.302 Y169.909 E20.69938
G1 X140.036 Y164.641 E20.93003
G1 X139.391 Y163.439 E20.97227
G1 X139.25 Y162.279 E21.00845
G1 X139.27 Y137.493 E21.77596
G1 X139.399 Y136.604 E21.80377
G1 X140.038 Y135.415 E21.84557
G0 F12000 X140.361 Y135.658
G1 F600 X145.818 Y130.2 E22.08456
G1 X146.497 Y129.76 E22.10962
G1 X147.026 Y129.519 E22.12762
G1 X148.032 Y129.365 E22.15913
G1 X148.739 Y129.465 E22.18124
G1 X149.421 Y129.667 E22.20327
G1 X150.251 Y130.163 E22.23321
G1 X151.03 Y131.081 E22.27049
G1 X151.389 Y132.141 E22.30514
G1 X151.429 Y132.348 E22.31167
G1 X157.082 Y132.348 E22.48672
G1 X157.569 Y132.418 E22.50195
G1 X158.679 Y132.888 E22.53928
G1 X159.476 Y133.554 E22.57144
G1 X160.114 Y134.457 E22.60568
G1 X160.35 Y135.449 E22.63725
G1 X160.35 Y164.57 E23.53899
G1 X160.021 Y165.732 E23.57638
G1 X159.32 Y166.646 E23.61205
G1 X158.489 Y167.32 E23.64518
G1 X157.269 Y167.712 E23.68486
G1 X151.352 Y167.712 E23.86808
G1 X151.283 Y168.124 E23.88102
G1 X150.893 Y169.015 E23.91114
G1 X150.717 Y169.29 E23.92125
G1 X150.066 Y169.898 E23.94883
G1 X149.519 Y170.273 E23.96937
G1 X148.495 Y170.605 E24.0027
G1 X147.531 Y170.588 E24.03255
G1 X146.51 Y170.319 E24.06525
G1 X145.585 Y169.626 E24.10104
G1 X140.359 Y164.398 E24.32994
G1 X139.779 Y163.317 E24.36792
G1 X139.65 Y162.279 E24.40031
G1 X139.666 Y137.55 E25.16605
G1 X139.785 Y136.73 E25.19171
G1 X140.361 Y135.658 E25.22939
G0 F12000 X140.684 Y135.901
G1 F600 X146.07 Y130.514 E25.46527
G1 X146.715 Y130.096 E25.48907
G1 X147.141 Y129.906 E25.50352
G1 X148.034 Y129.769 E25.53149
G1 X148.625 Y129.849 E25.54996
G1 X149.263 Y130.038 E25.57056
G1 X149.988 Y130.471 E25.59671
G1 X150.677 Y131.283 E25.62969
G1 X150.996 Y132.216 E25.66022
G1 X151.098 Y132.748 E25.67699
G1 X157.082 Y132.748 E25.86229
G1 X157.461 Y132.806 E25.87416
G1 X158.466 Y133.232 E25.90796
G1 X159.179 Y133.828 E25.93674
G1 X159.743 Y134.626 E25.967
G1 X159.95 Y135.496 E25.99469
G1 X159.95 Y164.514 E26.89324
G1 X159.657 Y165.55 E26.92657
G1 X159.032 Y166.364 E26.95835
G1 X158.295 Y166.962 E26.98774
G1 X157.206 Y167.312 E27.02316
G1 X151.014 Y167.312 E27.2149
G1 X150.897 Y168.009 E27.23678
G1 X150.556 Y168.8 E27.26346
G1 X150.409 Y169.03 E27.27191
G1 X149.84 Y169.568 E27.29616
G1 X149.342 Y169.91 E27.31486
G1 X148.434 Y170.204 E27.34442
G1 X147.587 Y170.189 E27.37065
G1 X146.687 Y169.952 E27.39947
G1 X145.868 Y169.343 E27.43107
G1 X140.684 Y164.157 E27.65813
G1 X140.167 Y163.193 E27.692
G1 X140.05 Y162.279 E27.72053
G1 X140.062 Y137.607 E28.48451
G1 X140.171 Y136.856 E28.50801
G1 X140.684 Y135.901 E28.54157
G0 F12000 X141.007 Y136.144
G1 F600 X146.324 Y130.826 E28.77443
G1 X146.878 Y130.461 E28.79498
G1 X147.255 Y130.293 E28.80776
G1 X148.036 Y130.173 E28.83223
G1 X148.511 Y130.233 E28.84705
G1 X149.105 Y130.409 E28.86623
G1 X149.725 Y130.779 E28.88859
G1 X150.323 Y131.484 E28.91722
G1 X150.603 Y132.291 E28.94367
G1 X150.767 Y133.148 E28.97069
G1 X157.082 Y133.148 E29.16623
G1 X157.35 Y133.193 E29.17465
G1 X158.255 Y133.577 E29.20509
G1 X158.881 Y134.1 E29.23035
G1 X159.372 Y134.795 E29.2567
G1 X159.55 Y135.543 E29.28051
G1 X159.55 Y164.458 E30.17586
G1 X159.292 Y165.369 E30.20518
G1 X158.746 Y166.081 E30.23297
G1 X158.101 Y166.604 E30.25868
G1 X157.143 Y166.912 E30.28984
G1 X150.676 Y166.912 E30.49009
G1 X150.511 Y167.895 E30.52096
G1 X150.189 Y168.642 E30.54615
G1 X150.099 Y168.772 E30.55104
G1 X149.565 Y169.277 E30.5738
G1 X149.162 Y169.548 E30.58884
G1 X148.376 Y169.803 E30.61443
G1 X147.643 Y169.79 E30.63713
G1 X146.863 Y169.584 E30.66211
G1 X146.151 Y169.06 E30.68948
G1 X141.007 Y163.914 E30.91479
G1 X140.555 Y163.072 E30.94438
G1 X140.45 Y162.279 E30.96915
G1 X140.458 Y137.664 E31.73136
G1 X140.557 Y136.982 E31.7527
G1 X141.007 Y136.144 E31.78215
G0 F12000 X141.33 Y136.387
G1 F600 X146.579 Y131.137 E32.01203
G1 X147.098 Y130.795 E32.03128
G1 X147.369 Y130.68 E32.0404
G1 X148.042 Y130.576 E32.06148
G1 X148.397 Y130.616 E32.07255
G1 X148.94 Y130.777 E32.09008
G1 X149.463 Y131.089 E32.10894
G1 X149.97 Y131.687 E32.13322
G1 X150.21 Y132.366 E32.15552
G1 X150.436 Y133.548 E32.19278
G1 X157.082 Y133.548 E32.39858
G1 X157.238 Y133.58 E32.40351
G1 X158.042 Y133.921 E32.43055
G1 X158.584 Y134.374 E32.45242
G1 X159.001 Y134.964 E32.4748
G1 X159.15 Y135.59 E32.49472
G1 X159.15 Y164.402 E33.38689
G1 X158.927 Y165.188 E33.41219
G1 X158.458 Y165.8 E33.43606
G1 X157.909 Y166.246 E33.45797
G1 X157.08 Y166.512 E33.48493
G1 X150.338 Y166.512 E33.69369
G1 X150.125 Y167.781 E33.73354
G1 X149.822 Y168.484 E33.75724
G1 X149.342 Y168.945 E33.77785
G1 X148.985 Y169.185 E33.79117
G1 X148.317 Y169.402 E33.81292
G1 X147.699 Y169.391 E33.83206
G1 X147.037 Y169.216 E33.85326
G1 X146.434 Y168.777 E33.87636
G1 X141.33 Y163.671 E34.09991
G1 X140.942 Y162.948 E34.12532
G1 X140.85 Y162.279 E34.14623
G1 X140.854 Y137.721 E34.90668
G1 X140.943 Y137.108 E34.92586
G1 X141.33 Y136.387 E34.95119
G0 F12000 X141.655 Y136.628
G1 F600 X146.834 Y131.448 E35.17801
G1 X147.318 Y131.129 E35.19596
G1 X147.477 Y131.068 E35.20123
G1 X148.048 Y130.98 E35.21912
G1 X148.353 Y131.014 E35.22863
G1 X148.776 Y131.145 E35.24234
G1 X149.202 Y131.399 E35.2577
G1 X149.618 Y131.89 E35.27762
G1 X149.817 Y132.441 E35.29577
G1 X150.105 Y133.948 E35.34327
G1 X157.082 Y133.948 E35.55932
G1 X157.831 Y134.266 E35.58452
G1 X158.286 Y134.646 E35.60287
G1 X158.63 Y135.133 E35.62133
G1 X158.75 Y135.637 E35.63738
G1 X158.75 Y164.346 E36.52636
G1 X158.563 Y165.005 E36.54757
G1 X158.167 Y165.522 E36.56773
G1 X157.717 Y165.888 E36.5857
G1 X157.017 Y166.112 E36.60845
G1 X150 Y166.112 E36.82574
G1 X149.739 Y167.667 E36.87456
G1 X149.488 Y168.25 E36.89422
G1 X149.065 Y168.656 E36.91237
G1 X148.808 Y168.822 E36.92184
G1 X148.258 Y169.001 E36.93975
G1 X147.755 Y168.992 E36.95533
G1 X147.211 Y168.848 E36.97276
G1 X146.717 Y168.494 E36.99158
G1 X141.655 Y163.43 E37.21329
G1 X141.329 Y162.822 E37.23466
G1 X141.25 Y162.279 E37.25165
G1 X141.25 Y137.779 E38.01029
G1 X141.329 Y137.236 E38.02728
G1 X141.655 Y136.628 E38.04865
G0 F12000 X141.98 Y136.869
G1 F600 X147.089 Y131.759 E38.2724
G1 X147.538 Y131.463 E38.28905
G1 X148.056 Y131.383 E38.30528
G1 X148.235 Y131.396 E38.31084
G1 X148.61 Y131.512 E38.32299
G1 X148.942 Y131.71 E38.33496
G1 X149.265 Y132.092 E38.35045
G1 X149.424 Y132.516 E38.36448
G1 X149.689 Y133.901 E38.40814
G1 X149.696 Y134.348 E38.42198
G1 X157.001 Y134.348 E38.64818
G1 X157.62 Y134.611 E38.66901
G1 X157.988 Y134.918 E38.68385
G1 X158.259 Y135.302 E38.6984
G1 X158.35 Y135.684 E38.71056
G1 X158.35 Y164.29 E39.59635
G1 X158.199 Y164.823 E39.61351
G1 X157.878 Y165.241 E39.62983
G1 X157.523 Y165.53 E39.644
G1 X156.954 Y165.712 E39.6625
G1 X149.662 Y165.712 E39.8883
G1 X149.353 Y167.553 E39.9461
G1 X149.154 Y168.016 E39.96171
G1 X148.788 Y168.367 E39.97741
G1 X148.635 Y168.458 E39.98292
G1 X148.199 Y168.6 E39.99712
G1 X147.811 Y168.593 E40.00914
G1 X147.384 Y168.48 E40.02282
G1 X147 Y168.211 E40.03733
G1 X141.98 Y163.189 E40.25721
G1 X141.714 Y162.693 E40.27464
G1 X141.65 Y162.279 E40.28761
G1 X141.65 Y137.779 E41.04626
G1 X141.714 Y137.365 E41.05923
G1 X141.98 Y136.869 E41.07666
G0 F12000 X142.303 Y137.112
G1 F600 X147.342 Y132.072 E41.29734
G1 X147.687 Y131.844 E41.31015
G1 X148.117 Y131.778 E41.32362
G1 X148.492 Y131.894 E41.33577
G1 X148.679 Y132.018 E41.34272
G1 X148.914 Y132.296 E41.35399
G1 X149.031 Y132.591 E41.36382
G1 X149.296 Y133.976 E41.40749
G1 X149.296 Y134.748 E41.43139
G1 X156.919 Y134.748 E41.66744
G1 X157.41 Y134.957 E41.68396
G1 X157.69 Y135.19 E41.69524
G1 X157.889 Y135.472 E41.70593
G1 X157.95 Y135.684 E41.71276
G1 X157.95 Y164.234 E42.59682
G1 X157.835 Y164.64 E42.60988
G1 X157.589 Y164.96 E42.62238
G1 X157.329 Y165.172 E42.63277
G1 X156.891 Y165.312 E42.64701
G1 X149.293 Y165.312 E42.88228
G1 X149.286 Y165.537 E42.88925
G1 X148.967 Y167.437 E42.94891
G1 X148.819 Y167.783 E42.96056
G1 X148.511 Y168.078 E42.97377
G1 X148.139 Y168.199 E42.98588
G1 X147.913 Y168.206 E42.99288
G1 X147.554 Y168.111 E43.00438
G1 X147.283 Y167.928 E43.01451
G1 X142.303 Y162.946 E43.23263
G1 X142.098 Y162.564 E43.24606
G1 X142.05 Y162.279 E43.25501
G1 X142.05 Y137.779 E44.01365
G1 X142.098 Y137.494 E44.0226
G1 X142.303 Y137.112 E44.03603
G0 F12000 X142.909 Y137.638
G1 F600 X147.908 Y132.638 E44.25496
G1 X148.019 Y132.581 E44.25883
G1 X148.142 Y132.602 E44.26269
G1 X148.245 Y132.741 E44.26805
G1 X148.496 Y134.052 E44.30938
G1 X148.496 Y135.548 E44.3557
