;FLAVOR:Marlin
;TIME:8425
;Filament used: 2.16607m
;Layer height: 0.1
;MINX:122.327
;MINY:118.032
;MINZ:0.2
;MAXX:177.673
;MAXY:178.791
;MAXZ:27
;POSTPROCESSED
;Generated with Cura_SteamEngine 5.4.0
M140 S80
M105
M190 S80
M82 ;absolute extrusion mode
M201 X500.00 Y500.00 Z100.00 E5000.00 ;Setup machine max acceleration
M203 X500.00 Y500.00 Z10.00 E50.00 ;Setup machine max feedrate
M204 P500.00 R1000.00 T500.00 ;Setup Print/Retract/Travel acceleration
M205 X8.00 Y8.00 Z0.40 E5.00 ;Setup Jerk
M220 S100 ;Reset Feedrate
M221 S100 ;Reset Flowrate
M140 S80.0 ; set bed temp
M190 S80.0 ; wait for bed temp
G28 X Y; home X Y
G28 Z; home Z
G29;
M420 S1; save bed mesh
G92 E0 ;Reset Extruder
G1 Z2.0 F3000 ;Move Z Axis up
G1 X10.1 Y20 Z0 F5000.0 ;Move to start position
M104 S245 ; wait for extruder printing temp
M109 S245 ; wait for extruder printing temp
G1 X10.1 Y200.0 Z0.28 F1500.0 E15 ;Draw the first line
G1 X10.4 Y200.0 Z0.28 F5000.0 ;Move to side a little
G1 X10.4 Y20 Z0.28 F1500.0 E30 ;Draw the second line
G92 E0 ;Reset Extruder
G92 E0
G92 E0
G1 F3000 E-4
;LAYER_COUNT:269
;LAYER:0
M106 S25.5
G0 F12000 X129.634 Y122.213 Z0.2
;TYPE:SKIRT
G1 F3000 E0
G1 F600 X130.686 Y121.11 E0.0472
G1 X132.195 Y120.168 E0.10228
G1 X133.729 Y119.832 E0.15091
G1 X138.029 Y119.832 E0.28406
G1 X138.773 Y119.116 E0.31603
G1 X140.433 Y118.253 E0.37397
G1 X141.636 Y118.072 E0.41164
G1 X154.19 Y118.032 E0.80038
G1 X155.593 Y118.373 E0.84508
G1 X157.12 Y119.167 E0.89838
G1 X157.726 Y119.832 E0.92624
G1 X161.235 Y119.832 E1.03489
G1 X162.63 Y120.175 E1.07938
G1 X164.189 Y120.982 E1.13374
G1 X165.291 Y122.21 E1.18483
G1 X166.133 Y123.689 E1.23753
G1 X166.522 Y125.726 E1.30174
G1 X167.485 Y125.865 E1.33187
G1 X169.259 Y126.819 E1.39424
G1 X174.503 Y132.064 E1.62391
G1 X175.471 Y133.859 E1.68706
G1 X175.648 Y135.222 E1.72962
G1 X175.673 Y142.973 E1.96963
G1 X176.508 Y143.863 E2.00742
G1 X177.401 Y145.359 E2.06137
G1 X177.623 Y146.714 E2.10389
G1 X177.673 Y155.985 E2.39097
G1 X177.325 Y157.404 E2.43621
G1 X176.538 Y158.922 E2.48916
G1 X175.669 Y159.731 E2.52592
G1 X175.632 Y167.369 E2.76244
G1 X175.453 Y168.603 E2.80105
G1 X174.499 Y170.377 E2.86342
G1 X169.254 Y175.621 E3.09308
G1 X167.459 Y176.589 E3.15623
G1 X166.096 Y176.766 E3.19879
G1 X158.645 Y176.791 E3.42951
G1 X157.755 Y177.626 E3.4673
G1 X156.259 Y178.519 E3.52125
G1 X154.904 Y178.741 E3.56377
G1 X146.133 Y178.791 E3.83537
G1 X144.714 Y178.443 E3.88061
G1 X143.196 Y177.656 E3.93356
G1 X142.387 Y176.787 E3.97032
G1 X133.949 Y176.751 E4.23161
G1 X132.715 Y176.572 E4.27022
G1 X130.941 Y175.618 E4.33259
G1 X125.697 Y170.373 E4.56226
G1 X124.729 Y168.578 E4.62541
G1 X124.552 Y167.215 E4.66797
G1 X124.529 Y159.987 E4.89178
G1 X123.491 Y158.872 E4.93895
G1 X122.599 Y157.377 E4.99286
G1 X122.377 Y156.022 E5.03538
G1 X122.327 Y146.745 E5.32265
G1 X122.671 Y145.341 E5.36741
G1 X123.458 Y143.821 E5.42041
G1 X124.526 Y142.828 E5.46557
G1 X124.528 Y134.581 E5.72094
G1 X126.133 Y130.3 E5.86251
G1 X126.801 Y128.559 E5.92025
G1 X127.581 Y126.564 E5.98658
G1 X128.393 Y124.598 E6.05245
G1 X128.661 Y124.007 E6.07254
G1 X128.993 Y123.338 E6.09567
G1 X129.238 Y122.908 E6.11099
G0 F540 X129.634 Y122.213
G0 F12000 X129.959 Y122.451
G1 F600 X130.94 Y121.423 E6.15499
G1 X132.347 Y120.544 E6.20636
G1 X133.773 Y120.232 E6.25156
G1 X138.191 Y120.232 E6.38837
G1 X139.01 Y119.443 E6.42358
G1 X140.557 Y118.639 E6.47757
G1 X141.695 Y118.468 E6.5132
G1 X154.142 Y118.432 E6.89863
G1 X155.451 Y118.75 E6.94034
G1 X156.873 Y119.49 E6.98998
G1 X157.549 Y120.232 E7.02106
G1 X161.189 Y120.232 E7.13377
G1 X162.487 Y120.551 E7.17516
G1 X163.94 Y121.303 E7.22582
G1 X164.964 Y122.444 E7.2733
G1 X165.753 Y123.83 E7.32268
G1 X166.183 Y126.081 E7.39364
G1 X167.359 Y126.251 E7.43044
G1 X169.016 Y127.142 E7.48869
G1 X174.179 Y132.306 E7.71481
G1 X175.083 Y133.983 E7.7738
G1 X175.251 Y135.274 E7.81412
G1 X175.273 Y143.132 E8.05744
G1 X176.185 Y144.102 E8.09867
G1 X177.018 Y145.499 E8.14903
G1 X177.228 Y146.779 E8.1892
G1 X177.273 Y155.94 E8.47288
G1 X176.949 Y157.261 E8.51499
G1 X176.216 Y158.675 E8.56431
G1 X175.27 Y159.556 E8.60434
G1 X175.236 Y167.312 E8.84451
G1 X175.067 Y168.477 E8.88096
G1 X174.176 Y170.134 E8.93922
G1 X169.012 Y175.297 E9.16533
G1 X167.335 Y176.201 E9.22433
G1 X166.044 Y176.369 E9.26464
G1 X158.486 Y176.391 E9.49868
G1 X157.516 Y177.303 E9.5399
G1 X156.119 Y178.136 E9.59027
G1 X154.839 Y178.346 E9.63043
G1 X146.178 Y178.391 E9.89863
G1 X144.857 Y178.067 E9.94074
G1 X143.443 Y177.334 E9.99006
G1 X142.562 Y176.388 E10.03009
G1 X134.006 Y176.355 E10.29503
G1 X132.841 Y176.186 E10.33148
G1 X131.184 Y175.295 E10.38974
G1 X126.021 Y170.131 E10.61586
G1 X125.117 Y168.454 E10.67485
G1 X124.949 Y167.163 E10.71516
G1 X124.928 Y159.752 E10.94465
G1 X124.73 Y159.615 E10.9521
G1 X123.813 Y158.63 E10.99377
G1 X122.982 Y157.237 E11.044
G1 X122.772 Y155.957 E11.08417
G1 X122.727 Y146.794 E11.3679
G1 X123.049 Y145.48 E11.4098
G1 X123.781 Y144.066 E11.4591
G1 X124.787 Y143.13 E11.50165
G1 X124.926 Y143.034 E11.50688
G1 X124.928 Y134.654 E11.76637
G1 X126.507 Y130.443 E11.90563
G1 X127.173 Y128.705 E11.96326
G1 X127.951 Y126.717 E12.02937
G1 X128.757 Y124.763 E12.09482
G1 X129.019 Y124.185 E12.11447
G1 X129.341 Y123.536 E12.1369
G1 X129.563 Y123.146 E12.1508
G0 F540 X129.959 Y122.451
G0 F12000 X130.283 Y122.692
G1 F600 X131.196 Y121.734 E12.19178
G1 X132.499 Y120.92 E12.23935
G1 X133.817 Y120.632 E12.28113
G1 X138.381 Y120.632 E12.42245
G1 X138.473 Y120.516 E12.42704
G1 X139.247 Y119.77 E12.46032
G1 X140.681 Y119.025 E12.51036
G1 X141.754 Y118.864 E12.54396
G1 X154.093 Y118.832 E12.92604
G1 X155.31 Y119.128 E12.96482
G1 X156.626 Y119.813 E13.01076
G1 X157.372 Y120.632 E13.04507
G1 X161.143 Y120.632 E13.16184
G1 X162.344 Y120.927 E13.20013
G1 X163.691 Y121.624 E13.24709
G1 X164.637 Y122.678 E13.29095
G1 X165.373 Y123.971 E13.33702
G1 X165.849 Y126.468 E13.41573
G1 X166.137 Y126.478 E13.42466
G1 X167.233 Y126.637 E13.45895
G1 X168.773 Y127.465 E13.51309
G1 X173.855 Y132.548 E13.73566
G1 X174.695 Y134.107 E13.7905
G1 X174.854 Y135.326 E13.82856
G1 X174.873 Y143.334 E14.07653
G1 X175.024 Y143.444 E14.08232
G1 X175.863 Y144.345 E14.12044
G1 X176.635 Y145.639 E14.1671
G1 X176.833 Y146.844 E14.20491
G1 X176.873 Y155.895 E14.48518
G1 X176.573 Y157.118 E14.52417
G1 X175.894 Y158.428 E14.56986
G1 X174.871 Y159.381 E14.61316
G1 X174.84 Y167.255 E14.85698
G1 X174.681 Y168.351 E14.89127
G1 X173.853 Y169.891 E14.94541
G1 X168.77 Y174.973 E15.16798
G1 X167.211 Y175.813 E15.22282
G1 X165.992 Y175.972 E15.26089
G1 X158.284 Y175.991 E15.49957
G1 X158.174 Y176.142 E15.50535
G1 X157.273 Y176.981 E15.54347
G1 X155.979 Y177.753 E15.59013
G1 X154.774 Y177.951 E15.62794
G1 X146.223 Y177.991 E15.89273
G1 X145 Y177.691 E15.93172
G1 X143.69 Y177.012 E15.97741
G1 X142.737 Y175.989 E16.02071
G1 X134.063 Y175.959 E16.2893
G1 X132.967 Y175.8 E16.32359
G1 X131.427 Y174.972 E16.37774
G1 X126.345 Y169.889 E16.6003
G1 X125.505 Y168.33 E16.65514
G1 X125.346 Y167.111 E16.69321
G1 X125.327 Y159.525 E16.92811
G1 X125.023 Y159.342 E16.9391
G1 X124.135 Y158.388 E16.97946
G1 X123.365 Y157.097 E17.026
G1 X123.167 Y155.892 E17.06382
G1 X123.127 Y146.843 E17.34402
G1 X123.427 Y145.619 E17.38305
G1 X124.104 Y144.311 E17.42865
G1 X125.059 Y143.423 E17.46903
G1 X125.326 Y143.253 E17.47883
G1 X125.328 Y134.727 E17.74284
G1 X126.881 Y130.586 E17.87979
G1 X127.545 Y128.851 E17.93731
G1 X128.321 Y126.869 E18.00322
G1 X129.121 Y124.928 E18.06823
G1 X129.377 Y124.363 E18.08744
G1 X129.689 Y123.734 E18.10918
G1 X129.887 Y123.387 E18.12155
G0 F540 X130.283 Y122.692
G0 F12000 X130.608 Y122.93
G1 F600 X131.45 Y122.047 E18.15933
G1 X132.651 Y121.297 E18.20318
G1 X133.862 Y121.032 E18.24156
G1 X138.588 Y121.032 E18.38791
G1 X138.75 Y120.804 E18.39657
G1 X139.481 Y120.1 E18.42799
G1 X140.806 Y119.411 E18.47424
G1 X141.813 Y119.26 E18.50577
G1 X154.045 Y119.232 E18.88453
G1 X155.168 Y119.505 E18.92032
G1 X156.379 Y120.136 E18.9626
G1 X157.195 Y121.032 E19.00013
G1 X161.097 Y121.032 E19.12096
G1 X162.201 Y121.303 E19.15616
G1 X163.442 Y121.945 E19.19942
G1 X164.31 Y122.912 E19.23966
G1 X164.993 Y124.112 E19.28242
G1 X165.516 Y126.861 E19.36907
G1 X166.08 Y126.874 E19.38653
G1 X167.107 Y127.023 E19.41867
G1 X168.53 Y127.788 E19.4687
G1 X173.531 Y132.79 E19.68772
G1 X174.307 Y134.231 E19.7384
G1 X174.457 Y135.378 E19.77422
G1 X174.473 Y143.558 E20.02751
G1 X174.731 Y143.717 E20.0369
G1 X175.541 Y144.587 E20.07371
G1 X176.252 Y145.779 E20.11668
G1 X176.438 Y146.909 E20.15215
G1 X176.473 Y155.85 E20.42901
G1 X176.197 Y156.975 E20.46488
G1 X175.572 Y158.181 E20.50694
G1 X174.687 Y159.005 E20.54438
G1 X174.472 Y159.143 E20.55229
G1 X174.444 Y167.198 E20.80172
G1 X174.295 Y168.225 E20.83385
G1 X173.53 Y169.648 E20.88388
G1 X168.528 Y174.649 E21.1029
G1 X167.087 Y175.425 E21.15358
G1 X165.94 Y175.575 E21.1894
G1 X158.06 Y175.591 E21.43341
G1 X157.901 Y175.849 E21.44279
G1 X157.031 Y176.659 E21.4796
G1 X155.839 Y177.37 E21.52258
G1 X154.709 Y177.556 E21.55804
G1 X146.268 Y177.591 E21.81942
G1 X145.143 Y177.315 E21.85529
G1 X143.937 Y176.69 E21.89735
G1 X143.113 Y175.805 E21.93479
G1 X142.975 Y175.59 E21.9427
G1 X134.12 Y175.563 E22.2169
G1 X133.093 Y175.414 E22.24903
G1 X131.67 Y174.649 E22.29906
G1 X126.669 Y169.647 E22.51808
G1 X125.893 Y168.206 E22.56876
G1 X125.743 Y167.059 E22.60458
G1 X125.727 Y159.282 E22.8454
G1 X125.316 Y159.069 E22.85973
G1 X124.457 Y158.146 E22.89878
G1 X123.748 Y156.957 E22.94164
G1 X123.562 Y155.827 E22.97711
G1 X123.527 Y146.888 E23.25391
G1 X123.803 Y145.762 E23.2898
G1 X124.427 Y144.556 E23.33185
G1 X125.331 Y143.716 E23.37006
G1 X125.726 Y143.48 E23.38431
G1 X125.728 Y134.8 E23.65309
G1 X127.254 Y130.729 E23.78771
G1 X127.918 Y128.997 E23.84515
G1 X128.691 Y127.021 E23.91085
G1 X129.485 Y125.093 E23.97542
G1 X129.735 Y124.541 E23.99418
G1 X130.037 Y123.932 E24.01523
G1 X130.212 Y123.625 E24.02617
G0 F540 X130.608 Y122.93
G0 F12000 X130.933 Y123.168
G1 F600 X131.704 Y122.36 E24.06076
G1 X132.803 Y121.673 E24.10089
G1 X133.906 Y121.432 E24.13585
G1 X138.803 Y121.432 E24.28749
G1 X139.027 Y121.092 E24.30009
G1 X139.715 Y120.43 E24.32966
G1 X140.931 Y119.797 E24.37211
G1 X141.872 Y119.656 E24.40157
G1 X153.997 Y119.632 E24.77703
G1 X155.026 Y119.882 E24.80982
G1 X156.13 Y120.458 E24.84838
G1 X156.868 Y121.261 E24.88215
G1 X156.979 Y121.432 E24.88846
G1 X161.051 Y121.432 E25.01455
G1 X162.058 Y121.679 E25.04666
G1 X163.193 Y122.266 E25.08622
G1 X163.983 Y123.146 E25.12284
G1 X164.613 Y124.253 E25.16228
G1 X165.184 Y127.256 E25.25694
G1 X166.023 Y127.27 E25.28292
G1 X166.981 Y127.409 E25.3129
G1 X168.287 Y128.111 E25.35881
G1 X173.207 Y133.032 E25.57428
G1 X173.919 Y134.355 E25.62081
G1 X174.06 Y135.43 E25.65438
G1 X174.073 Y143.801 E25.91359
G1 X174.438 Y143.99 E25.92632
G1 X175.219 Y144.829 E25.96181
G1 X175.869 Y145.919 E26.00111
G1 X176.043 Y146.974 E26.03422
G1 X176.073 Y155.804 E26.30764
G1 X175.82 Y156.833 E26.34045
G1 X175.25 Y157.934 E26.37885
G1 X174.414 Y158.712 E26.41421
G1 X174.073 Y158.915 E26.4265
G1 X174.048 Y167.141 E26.68122
G1 X173.909 Y168.099 E26.71119
G1 X173.207 Y169.405 E26.75711
G1 X168.286 Y174.325 E26.97258
G1 X166.963 Y175.037 E27.0191
G1 X165.888 Y175.178 E27.05268
G1 X157.817 Y175.191 E27.3026
G1 X157.628 Y175.556 E27.31532
G1 X156.789 Y176.337 E27.35082
G1 X155.699 Y176.987 E27.39012
G1 X154.644 Y177.161 E27.42323
G1 X146.314 Y177.191 E27.68117
G1 X145.285 Y176.938 E27.71398
G1 X144.184 Y176.368 E27.75237
G1 X143.406 Y175.532 E27.78773
G1 X143.203 Y175.191 E27.80002
G1 X134.177 Y175.167 E28.07951
G1 X133.219 Y175.028 E28.10949
G1 X131.913 Y174.326 E28.1554
G1 X126.993 Y169.405 E28.37088
G1 X126.281 Y168.082 E28.4174
G1 X126.14 Y167.007 E28.45097
G1 X126.127 Y159.039 E28.6977
G1 X125.561 Y158.746 E28.71744
G1 X124.781 Y157.907 E28.75291
G1 X124.131 Y156.817 E28.79221
G1 X123.957 Y155.762 E28.82532
G1 X123.927 Y146.933 E29.09871
G1 X124.179 Y145.905 E29.13149
G1 X124.75 Y144.801 E29.16997
G1 X125.573 Y144.037 E29.20475
G1 X126.126 Y143.707 E29.22469
G1 X126.128 Y134.873 E29.49823
G1 X127.627 Y130.872 E29.63053
G1 X128.29 Y129.143 E29.68787
G1 X129.061 Y127.173 E29.75338
G1 X129.849 Y125.258 E29.8175
G1 X130.093 Y124.719 E29.83582
G1 X130.385 Y124.13 E29.85618
G1 X130.537 Y123.863 E29.8657
G0 F540 X130.933 Y123.168
G0 F12000 X131.258 Y123.406
G1 F600 X131.958 Y122.673 E29.89708
G1 X132.955 Y122.05 E29.93348
G1 X133.951 Y121.832 E29.96506
G1 X139.017 Y121.832 E30.12193
G1 X139.335 Y121.352 E30.13975
G1 X139.951 Y120.758 E30.16625
G1 X141.056 Y120.183 E30.20482
G1 X141.931 Y120.052 E30.23222
G1 X153.949 Y120.032 E30.60436
G1 X154.884 Y120.259 E30.63415
G1 X155.882 Y120.78 E30.66902
G1 X156.573 Y121.532 E30.70064
G1 X156.751 Y121.832 E30.71144
G1 X161.001 Y121.832 E30.84304
G1 X161.919 Y122.057 E30.87231
G1 X162.944 Y122.587 E30.90804
G1 X163.656 Y123.38 E30.94104
G1 X164.233 Y124.394 E30.97717
G1 X164.852 Y127.652 E31.07986
G1 X165.966 Y127.666 E31.11436
G1 X166.855 Y127.795 E31.14217
G1 X168.044 Y128.434 E31.18397
G1 X172.884 Y133.275 E31.39594
G1 X173.531 Y134.478 E31.43824
G1 X173.663 Y135.482 E31.4696
G1 X173.673 Y144.044 E31.73472
G1 X174.193 Y144.313 E31.75285
G1 X174.895 Y145.068 E31.78477
G1 X175.486 Y146.059 E31.8205
G1 X175.648 Y147.039 E31.85126
G1 X175.673 Y155.758 E32.12124
G1 X175.444 Y156.69 E32.15096
G1 X174.928 Y157.687 E32.18572
G1 X174.173 Y158.39 E32.21767
G1 X173.674 Y158.687 E32.23565
G1 X173.652 Y167.084 E32.49567
G1 X173.523 Y167.973 E32.52348
G1 X172.884 Y169.162 E32.56528
G1 X168.043 Y174.002 E32.77725
G1 X166.84 Y174.649 E32.81955
G1 X165.836 Y174.781 E32.85091
G1 X157.574 Y174.791 E33.10674
G1 X157.305 Y175.311 E33.12487
G1 X156.55 Y176.013 E33.15679
G1 X155.559 Y176.604 E33.19252
G1 X154.579 Y176.766 E33.22328
G1 X146.36 Y176.791 E33.47778
G1 X145.428 Y176.562 E33.5075
G1 X144.431 Y176.046 E33.54226
G1 X143.728 Y175.291 E33.57421
G1 X143.431 Y174.792 E33.59219
G1 X134.234 Y174.771 E33.87698
G1 X133.345 Y174.642 E33.90479
G1 X132.156 Y174.003 E33.94659
G1 X127.316 Y169.162 E34.15856
G1 X126.669 Y167.959 E34.20086
G1 X126.537 Y166.955 E34.23222
G1 X126.527 Y158.796 E34.48486
G1 X125.806 Y158.423 E34.51
G1 X125.105 Y157.668 E34.5419
G1 X124.514 Y156.677 E34.57763
G1 X124.352 Y155.697 E34.60839
G1 X124.327 Y146.978 E34.87837
G1 X124.555 Y146.048 E34.90802
G1 X125.073 Y145.046 E34.94295
G1 X125.815 Y144.358 E34.97428
G1 X126.526 Y143.933 E34.99993
G1 X126.528 Y134.946 E35.27822
G1 X128.001 Y131.015 E35.40821
G1 X128.662 Y129.289 E35.46544
G1 X129.431 Y127.325 E35.53075
G1 X130.214 Y125.423 E35.59444
G1 X130.452 Y124.896 E35.61235
G1 X130.733 Y124.328 E35.63197
G1 X130.862 Y124.101 E35.64005
G0 F540 X131.258 Y123.406
G0 F12000 X131.582 Y123.647
G1 F600 X132.214 Y122.984 E35.66842
G1 X133.107 Y122.426 E35.70102
G1 X133.995 Y122.232 E35.72917
G1 X139.231 Y122.232 E35.8913
G1 X139.644 Y121.609 E35.91445
G1 X140.185 Y121.088 E35.93771
G1 X141.181 Y120.569 E35.97248
G1 X141.99 Y120.448 E35.99781
G1 X153.9 Y120.432 E36.36661
G1 X154.743 Y120.637 E36.39347
G1 X155.636 Y121.103 E36.42466
G1 X156.25 Y121.771 E36.45276
G1 X156.523 Y122.232 E36.46935
G1 X160.951 Y122.232 E36.60646
G1 X161.78 Y122.435 E36.63289
G1 X162.695 Y122.908 E36.66479
G1 X163.329 Y123.614 E36.69417
G1 X163.853 Y124.535 E36.72698
G1 X164.52 Y128.049 E36.83773
G1 X165.909 Y128.062 E36.88075
G1 X166.729 Y128.181 E36.9064
G1 X167.801 Y128.757 E36.94409
G1 X172.561 Y133.518 E37.15256
G1 X173.143 Y134.601 E37.19063
G1 X173.266 Y135.534 E37.21977
G1 X173.273 Y144.287 E37.49081
G1 X173.948 Y144.636 E37.51434
G1 X174.571 Y145.307 E37.54269
G1 X175.103 Y146.199 E37.57485
G1 X175.253 Y147.104 E37.60326
G1 X175.273 Y155.712 E37.8698
G1 X175.068 Y156.547 E37.89643
G1 X174.605 Y157.442 E37.92763
G1 X173.934 Y158.066 E37.956
G1 X173.274 Y158.459 E37.97979
G1 X173.256 Y167.027 E38.2451
G1 X173.137 Y167.847 E38.27076
G1 X172.561 Y168.919 E38.30844
G1 X167.8 Y173.679 E38.51691
G1 X166.717 Y174.261 E38.55498
G1 X165.784 Y174.384 E38.58412
G1 X157.331 Y174.391 E38.84587
G1 X156.982 Y175.066 E38.8694
G1 X156.311 Y175.689 E38.89775
G1 X155.419 Y176.221 E38.92991
