;FLAVOR:Marlin
;TIME:5088
;Filament used: 1.36149m
;Layer height: 0.1
;MINX:117.376
;MINY:119.271
;MINZ:0.2
;MAXX:165.397
;MAXY:180.73
;MAXZ:13
;POSTPROCESSED
;Generated with Cura_SteamEngine 5.4.0
M140 S80
M105
M190 S80
M82 ;absolute extrusion mode
M201 X500.00 Y500.00 Z100.00 E5000.00 ;Setup machine max acceleration
M203 X500.00 Y500.00 Z10.00 E50.00 ;Setup machine max feedrate
M204 P500.00 R1000.00 T500.00 ;Setup Print/Retract/Travel acceleration
M205 X8.00 Y8.00 Z0.40 E5.00 ;Setup Jerk
M220 S100 ;Reset Feedrate
M221 S100 ;Reset Flowrate
M140 S80.0 ; set bed temp
M190 S80.0 ; wait for bed temp
G28 X Y; home X Y
G28 Z; home Z
G29;
M420 S1; save bed mesh
G92 E0 ;Reset Extruder
G1 Z2.0 F3000 ;Move Z Axis up
G1 X10.1 Y20 Z0 F5000.0 ;Move to start position
M104 S245 ; wait for extruder printing temp
M109 S245 ; wait for extruder printing temp
G1 X10.1 Y200.0 Z0.28 F1500.0 E15 ;Draw the first line
G1 X10.4 Y200.0 Z0.28 F5000.0 ;Move to side a little
G1 X10.4 Y20 Z0.28 F1500.0 E30 ;Draw the second line
G92 E0 ;Reset Extruder
G92 E0
G92 E0
G1 F3000 E-4
;LAYER_COUNT:129
;LAYER:0
M106 S25.5
G0 F12000 X119.663 Y131.321 Z0.2
;TYPE:SKIRT
G1 F3000 E0
G1 F600 X121.171 Y130.421 E0.05438
G1 X122.522 Y130.199 E0.09677
G1 X136.907 Y130.182 E0.54221
G1 X136.939 Y129.936 E0.54989
G1 X137.681 Y127.512 E0.62839
G1 X138.954 Y125.145 E0.71161
G1 X140.596 Y123.16 E0.79138
G1 X142.575 Y121.533 E0.87071
G1 X144.898 Y120.287 E0.95234
G1 X147.443 Y119.528 E1.03457
G1 X150.032 Y119.271 E1.11514
G1 X152.602 Y119.528 E1.19511
G1 X155.118 Y120.294 E1.27655
G1 X157.415 Y121.526 E1.35727
G1 X159.444 Y123.202 E1.43876
G1 X161.068 Y125.182 E1.51805
G1 X162.313 Y127.512 E1.59986
G1 X163.069 Y130.021 E1.681
G1 X163.325 Y132.62 E1.76187
G1 X163.069 Y135.223 E1.84286
G1 X162.622 Y136.685 E1.8902
G1 X163.151 Y136.959 E1.90864
G1 X164.223 Y138.109 E1.95733
G1 X165.125 Y139.62 E2.01182
G1 X165.347 Y140.971 E2.05421
G1 X165.397 Y158.996 E2.61236
G1 X165.049 Y160.411 E2.65748
G1 X164.263 Y161.927 E2.71036
G1 X163.104 Y163.009 E2.75946
G1 X162.614 Y163.301 E2.77712
G1 X163.073 Y164.841 E2.82688
G1 X163.329 Y167.425 E2.90729
G1 X163.073 Y170.023 E2.98812
G1 X162.318 Y172.496 E3.06819
G1 X161.061 Y174.834 E3.15039
G1 X159.398 Y176.849 E3.23129
G1 X157.42 Y178.471 E3.31049
G1 X155.066 Y179.726 E3.3931
G1 X152.586 Y180.474 E3.47331
G1 X149.978 Y180.73 E3.55445
G1 X147.382 Y180.474 E3.63523
G1 X144.913 Y179.72 E3.71517
G1 X142.555 Y178.453 E3.79806
G1 X140.569 Y176.813 E3.87781
G1 X138.929 Y174.811 E3.95795
G1 X137.682 Y172.474 E4.03997
G1 X136.931 Y169.984 E4.12051
G1 X136.675 Y167.381 E4.2015
G1 X136.931 Y164.776 E4.28255
G1 X137.678 Y162.333 E4.36166
G1 X138.439 Y160.917 E4.41143
G1 X137.184 Y159.89 E4.46165
G1 X136.035 Y158.5 E4.51749
G1 X122.555 Y158.5 E4.9349
G1 X121.14 Y158.152 E4.98002
G1 X119.624 Y157.366 E5.0329
G1 X118.548 Y156.213 E5.08174
G1 X117.648 Y154.705 E5.13612
G1 X117.426 Y153.354 E5.17851
G1 X117.376 Y135.328 E5.73669
G1 X117.724 Y133.913 E5.78181
G1 X118.51 Y132.397 E5.83469
G1 X119.079 Y131.866 E5.85879
G0 F540 X119.663 Y131.321
G0 F12000 X119.905 Y131.642
G1 F600 X121.309 Y130.804 E5.90942
G1 X122.587 Y130.594 E5.94952
G1 X136.89 Y130.581 E6.39242
G1 X137.264 Y130.637 E6.40413
G1 X137.321 Y130.053 E6.4223
G1 X138.051 Y127.667 E6.49956
G1 X139.286 Y125.371 E6.58029
G1 X140.879 Y123.445 E6.65769
G1 X142.797 Y121.868 E6.73457
G1 X145.055 Y120.657 E6.81391
G1 X147.519 Y119.922 E6.89354
G1 X150.031 Y119.673 E6.9717
G1 X152.522 Y119.922 E7.04922
G1 X154.963 Y120.665 E7.12823
G1 X157.193 Y121.861 E7.20659
G1 X159.159 Y123.485 E7.28555
G1 X160.734 Y125.405 E7.36245
G1 X161.942 Y127.666 E7.44182
G1 X162.675 Y130.099 E7.52051
G1 X162.923 Y132.62 E7.59895
G1 X162.675 Y135.141 E7.67739
G1 X162.141 Y136.887 E7.73392
G1 X162.904 Y137.281 E7.76051
G1 X163.904 Y138.354 E7.80593
G1 X164.742 Y139.758 E7.85656
G1 X164.952 Y141.036 E7.89667
G1 X164.997 Y158.95 E8.45138
G1 X164.673 Y160.268 E8.49341
G1 X163.94 Y161.682 E8.54272
G1 X162.865 Y162.685 E8.58825
G1 X162.142 Y163.116 E8.61432
G1 X162.679 Y164.917 E8.67251
G1 X162.927 Y167.425 E8.75055
G1 X162.679 Y169.941 E8.82884
G1 X161.945 Y172.346 E8.9067
G1 X160.73 Y174.605 E8.98612
G1 X159.112 Y176.566 E9.06485
G1 X157.197 Y178.137 E9.14155
G1 X154.914 Y179.354 E9.22166
G1 X152.507 Y180.08 E9.29951
G1 X149.978 Y180.328 E9.37819
G1 X147.464 Y180.08 E9.45642
G1 X145.063 Y179.347 E9.53415
G1 X142.784 Y178.122 E9.61427
G1 X140.849 Y176.525 E9.69196
G1 X139.265 Y174.591 E9.76937
G1 X138.054 Y172.322 E9.84901
G1 X137.325 Y169.905 E9.92718
G1 X137.077 Y167.381 E10.00572
G1 X137.325 Y164.858 E10.08422
G1 X138.051 Y162.483 E10.16112
G1 X138.976 Y160.762 E10.22162
G1 X138.642 Y160.573 E10.2335
G1 X137.467 Y159.605 E10.28064
G1 X136.41 Y158.326 E10.33202
G1 X136.281 Y158.1 E10.34008
G1 X122.601 Y158.1 E10.76368
G1 X121.283 Y157.776 E10.80571
G1 X119.869 Y157.043 E10.85503
G1 X118.869 Y155.971 E10.90042
G1 X118.031 Y154.567 E10.95105
G1 X117.821 Y153.289 E10.99116
G1 X117.776 Y135.374 E11.5459
G1 X118.1 Y134.056 E11.58793
G1 X118.833 Y132.642 E11.63725
G1 X119.321 Y132.187 E11.65791
G0 F540 X119.905 Y131.642
G0 F12000 X120.15 Y131.961
G1 F600 X121.447 Y131.187 E11.70468
G1 X122.652 Y130.989 E11.74249
G1 X136.83 Y130.977 E12.18152
G1 X137.621 Y131.096 E12.20628
G1 X137.715 Y130.135 E12.23618
G1 X138.423 Y127.82 E12.31115
G1 X139.62 Y125.595 E12.38938
G1 X141.162 Y123.73 E12.46431
G1 X143.023 Y122.2 E12.53892
G1 X145.208 Y121.028 E12.61569
G1 X147.595 Y120.316 E12.69282
G1 X150.03 Y120.075 E12.76859
G1 X152.441 Y120.316 E12.84362
G1 X154.809 Y121.037 E12.92027
G1 X156.971 Y122.196 E12.99623
G1 X158.874 Y123.768 E13.07266
G1 X160.4 Y125.628 E13.14716
G1 X161.571 Y127.82 E13.22412
G1 X162.281 Y130.177 E13.30034
G1 X162.521 Y132.62 E13.37635
G1 X162.281 Y135.059 E13.45224
G1 X161.661 Y137.088 E13.51794
G1 X162.657 Y137.604 E13.55267
G1 X163.585 Y138.599 E13.5948
G1 X164.359 Y139.896 E13.64157
G1 X164.557 Y141.101 E13.67939
G1 X164.597 Y158.904 E14.23066
G1 X164.297 Y160.125 E14.26959
G1 X163.618 Y161.435 E14.31528
G1 X162.623 Y162.363 E14.35741
G1 X161.67 Y162.931 E14.39177
G1 X162.285 Y164.993 E14.4584
G1 X162.525 Y167.425 E14.53407
G1 X162.285 Y169.859 E14.6098
G1 X161.572 Y172.196 E14.68546
G1 X160.398 Y174.38 E14.76224
G1 X158.829 Y176.281 E14.83857
G1 X156.974 Y177.803 E14.91287
G1 X154.762 Y178.982 E14.99049
G1 X152.428 Y179.686 E15.06597
G1 X149.978 Y179.926 E15.1422
G1 X147.546 Y179.686 E15.21788
G1 X145.213 Y178.974 E15.29341
G1 X143.009 Y177.79 E15.37088
G1 X141.132 Y176.24 E15.44626
G1 X139.601 Y174.371 E15.52107
G1 X138.426 Y172.17 E15.59833
G1 X137.719 Y169.826 E15.67414
G1 X137.479 Y167.381 E15.75021
G1 X137.719 Y164.94 E15.82616
G1 X138.424 Y162.633 E15.90086
G1 X139.516 Y160.601 E15.97229
G1 X138.896 Y160.264 E15.99414
G1 X137.75 Y159.32 E16.04012
G1 X136.718 Y158.071 E16.09029
G1 X136.523 Y157.7 E16.10327
G1 X122.647 Y157.7 E16.53294
G1 X121.426 Y157.4 E16.57187
G1 X120.116 Y156.721 E16.61756
G1 X119.188 Y155.726 E16.65969
G1 X118.414 Y154.429 E16.70646
G1 X118.216 Y153.224 E16.74428
G1 X118.176 Y135.42 E17.29558
G1 X118.476 Y134.199 E17.33451
G1 X119.155 Y132.889 E17.3802
G1 X119.565 Y132.506 E17.39758
G0 F540 X120.15 Y131.961
G0 F12000 X120.392 Y132.283
G1 F600 X121.587 Y131.57 E17.44067
G1 X122.717 Y131.384 E17.47613
G1 X136.771 Y131.373 E17.91131
G1 X137.711 Y131.514 E17.94075
G1 X137.972 Y131.619 E17.94946
G1 X138.109 Y130.217 E17.99308
G1 X138.796 Y127.97 E18.06583
G1 X139.952 Y125.821 E18.1414
G1 X141.445 Y124.015 E18.21395
G1 X143.245 Y122.535 E18.28611
G1 X145.365 Y121.398 E18.3606
G1 X147.671 Y120.71 E18.43512
G1 X150.029 Y120.477 E18.50849
G1 X152.361 Y120.71 E18.58106
G1 X154.654 Y121.408 E18.65528
G1 X156.749 Y122.531 E18.72889
G1 X158.589 Y124.051 E18.80279
G1 X160.064 Y125.85 E18.87483
G1 X161.2 Y127.976 E18.94947
G1 X161.887 Y130.255 E19.02317
G1 X162.119 Y132.62 E19.09676
G1 X161.887 Y134.977 E19.17009
G1 X161.181 Y137.289 E19.24495
G1 X162.41 Y137.926 E19.28781
G1 X163.263 Y138.841 E19.32655
G1 X163.976 Y140.036 E19.36964
G1 X164.162 Y141.166 E19.4051
G1 X164.197 Y158.858 E19.95294
G1 X163.921 Y159.982 E19.98878
G1 X163.296 Y161.188 E20.03084
G1 X162.381 Y162.041 E20.06957
G1 X161.198 Y162.746 E20.11222
G1 X161.891 Y165.069 E20.18728
G1 X162.123 Y167.425 E20.26059
G1 X161.891 Y169.777 E20.33377
G1 X161.199 Y172.046 E20.40723
G1 X160.066 Y174.155 E20.48136
G1 X158.546 Y175.996 E20.55529
G1 X156.751 Y177.469 E20.62719
G1 X154.61 Y178.61 E20.70231
G1 X152.349 Y179.292 E20.77544
G1 X149.978 Y179.524 E20.84921
G1 X147.628 Y179.292 E20.92233
G1 X145.363 Y178.601 E20.99566
G1 X143.238 Y177.459 E21.07036
G1 X141.412 Y175.952 E21.14367
G1 X139.937 Y174.151 E21.21575
G1 X138.798 Y172.018 E21.29063
G1 X138.113 Y169.747 E21.36408
G1 X137.881 Y167.381 E21.4377
G1 X138.113 Y165.022 E21.5111
G1 X138.797 Y162.783 E21.58359
G1 X139.959 Y160.622 E21.65957
G1 X140.093 Y160.46 E21.66608
G1 X139.122 Y159.932 E21.7003
G1 X138.033 Y159.035 E21.74399
G1 X137.051 Y157.847 E21.79172
G1 X136.765 Y157.3 E21.81083
G1 X122.693 Y157.3 E22.24657
G1 X121.569 Y157.024 E22.28241
G1 X120.363 Y156.399 E22.32447
G1 X119.51 Y155.484 E22.36321
G1 X118.797 Y154.289 E22.4063
G1 X118.611 Y153.159 E22.44176
G1 X118.576 Y135.466 E22.98963
G1 X118.852 Y134.342 E23.02546
G1 X119.477 Y133.136 E23.06752
G1 X119.807 Y132.828 E23.0815
G0 F540 X120.392 Y132.283
G0 F12000 X120.634 Y132.605
G1 F600 X121.727 Y131.953 E23.12091
G1 X122.782 Y131.779 E23.15402
G1 X136.712 Y131.769 E23.58537
G1 X137.652 Y131.91 E23.6148
G1 X138.314 Y132.225 E23.6375
G1 X138.503 Y130.299 E23.69743
G1 X139.168 Y128.123 E23.76788
G1 X140.286 Y126.045 E23.84095
G1 X141.728 Y124.3 E23.91105
G1 X143.471 Y122.867 E23.98092
G1 X145.518 Y121.769 E24.05285
G1 X147.747 Y121.104 E24.12487
G1 X150.028 Y120.879 E24.19585
G1 X152.281 Y121.104 E24.26596
G1 X154.503 Y121.78 E24.33788
G1 X156.524 Y122.864 E24.40889
G1 X158.304 Y124.334 E24.48038
G1 X159.73 Y126.073 E24.55001
G1 X160.829 Y128.13 E24.62223
G1 X161.493 Y130.333 E24.69348
G1 X161.717 Y132.62 E24.76463
G1 X161.493 Y134.895 E24.83542
G1 X160.84 Y137.033 E24.90464
G1 X160.567 Y137.556 E24.92291
G1 X161.062 Y137.678 E24.9387
G1 X162.163 Y138.248 E24.97709
G1 X162.941 Y139.083 E25.01243
G1 X163.593 Y140.176 E25.05184
G1 X163.767 Y141.231 E25.08495
G1 X163.797 Y158.811 E25.62932
G1 X163.544 Y159.84 E25.66213
G1 X162.974 Y160.941 E25.70052
G1 X162.139 Y161.719 E25.73586
G1 X161.046 Y162.371 E25.77527
G1 X160.577 Y162.448 E25.78999
G1 X160.836 Y162.931 E25.80696
G1 X161.497 Y165.145 E25.8785
G1 X161.721 Y167.425 E25.94944
G1 X161.497 Y169.695 E26.02008
G1 X160.826 Y171.896 E26.09133
G1 X159.734 Y173.93 E26.16281
G1 X158.263 Y175.711 E26.23434
G1 X156.528 Y177.135 E26.30384
G1 X154.458 Y178.238 E26.37647
G1 X152.27 Y178.898 E26.44724
G1 X149.978 Y179.122 E26.51855
G1 X147.71 Y178.898 E26.58912
G1 X145.513 Y178.228 E26.66025
G1 X143.467 Y177.128 E26.73218
G1 X141.695 Y175.666 E26.80331
G1 X140.271 Y173.928 E26.87289
G1 X139.169 Y171.864 E26.94534
G1 X138.507 Y169.669 E27.01633
G1 X138.283 Y167.381 E27.08752
G1 X138.507 Y165.104 E27.15837
G1 X139.17 Y162.933 E27.22866
G1 X140.289 Y160.851 E27.30185
G1 X140.727 Y160.32 E27.32316
G1 X140.268 Y160.1 E27.33892
G1 X139.348 Y159.6 E27.37135
G1 X138.316 Y158.75 E27.41275
G1 X137.387 Y157.626 E27.4579
G1 X137.008 Y156.9 E27.48326
G1 X122.74 Y156.9 E27.92507
G1 X121.711 Y156.647 E27.95788
G1 X120.61 Y156.077 E27.99627
G1 X119.832 Y155.242 E28.03161
G1 X119.18 Y154.149 E28.07102
G1 X119.006 Y153.094 E28.10413
G1 X118.976 Y135.513 E28.64853
G1 X119.229 Y134.484 E28.68134
G1 X119.799 Y133.383 E28.71973
G1 X120.049 Y133.15 E28.73032
G0 F540 X120.634 Y132.605
G0 F12000 X120.876 Y132.927
G1 F600 X121.867 Y132.336 E28.76605
G1 X122.847 Y132.174 E28.7968
G1 X136.652 Y132.165 E29.22428
G1 X137.536 Y132.298 E29.25196
G1 X138.708 Y132.855 E29.29214
G1 X138.685 Y132.537 E29.30201
G1 X138.897 Y130.381 E29.3691
G1 X139.54 Y128.276 E29.43725
G1 X140.62 Y126.269 E29.50782
G1 X142.011 Y124.585 E29.57546
G1 X143.693 Y123.202 E29.64289
G1 X145.675 Y122.139 E29.71253
G1 X147.823 Y121.498 E29.78194
G1 X150.027 Y121.281 E29.85052
G1 X152.201 Y121.498 E29.91817
G1 X154.348 Y122.151 E29.98766
G1 X156.302 Y123.199 E30.05632
G1 X158.019 Y124.617 E30.12528
G1 X159.396 Y126.296 E30.19251
G1 X160.458 Y128.284 E30.26231
G1 X161.099 Y130.411 E30.33109
G1 X161.315 Y132.62 E30.39982
G1 X161.099 Y134.813 E30.46806
G1 X160.457 Y136.916 E30.53615
G1 X159.971 Y137.821 E30.56795
G1 X160.919 Y138.054 E30.59818
G1 X161.916 Y138.57 E30.63294
G1 X162.619 Y139.325 E30.66489
G1 X163.21 Y140.316 E30.70062
G1 X163.372 Y141.296 E30.73138
G1 X163.397 Y158.765 E31.27231
G1 X163.168 Y159.697 E31.30202
G1 X162.652 Y160.694 E31.33679
G1 X161.897 Y161.397 E31.36873
G1 X160.906 Y161.988 E31.40446
G1 X159.96 Y162.144 E31.43415
G1 X160.466 Y163.088 E31.46731
G1 X161.103 Y165.221 E31.53625
G1 X161.319 Y167.425 E31.60482
G1 X161.103 Y169.613 E31.6729
G1 X160.453 Y171.746 E31.74195
G1 X159.402 Y173.705 E31.81079
G1 X157.98 Y175.426 E31.87992
G1 X156.305 Y176.801 E31.94702
G1 X154.306 Y177.866 E32.01716
G1 X152.191 Y178.504 E32.08556
G1 X149.978 Y178.72 E32.15441
G1 X147.792 Y178.504 E32.22243
G1 X145.663 Y177.855 E32.29135
G1 X143.692 Y176.796 E32.36064
G1 X141.98 Y175.383 E32.42937
G1 X140.605 Y173.705 E32.49655
G1 X139.541 Y171.712 E32.56651
G1 X138.901 Y169.59 E32.63514
G1 X138.685 Y167.381 E32.70387
G1 X138.901 Y165.186 E32.77217
G1 X139.543 Y163.083 E32.84025
G1 X140.621 Y161.076 E32.9108
G1 X141.361 Y160.18 E32.94678
G1 X140.459 Y159.749 E32.97774
G1 X139.574 Y159.268 E33.00893
G1 X138.599 Y158.465 E33.04804
G1 X137.721 Y157.402 E33.09073
G1 X137.249 Y156.5 E33.12225
G1 X122.786 Y156.5 E33.5701
G1 X121.854 Y156.271 E33.59982
G1 X120.857 Y155.755 E33.63458
G1 X120.154 Y155 E33.66653
G1 X119.563 Y154.009 E33.70226
G1 X119.401 Y153.029 E33.73301
G1 X119.376 Y135.559 E34.27398
G1 X119.605 Y134.627 E34.30369
G1 X120.121 Y133.63 E34.33846
G1 X120.291 Y133.472 E34.34564
G0 F540 X120.876 Y132.927
G0 F12000 X121.115 Y133.251
G1 F600 X122.007 Y132.719 E34.3778
G1 X122.912 Y132.569 E34.40621
G1 X136.592 Y132.561 E34.82981
G1 X137.421 Y132.686 E34.85577
G1 X139.175 Y133.518 E34.91589
G1 X139.083 Y132.576 E34.94519
G1 X139.291 Y130.463 E35.01094
G1 X139.912 Y128.429 E35.07679
G1 X140.954 Y126.493 E35.14487
G1 X142.294 Y124.87 E35.21005
G1 X143.919 Y123.534 E35.27519
G1 X145.828 Y122.51 E35.34227
G1 X147.899 Y121.892 E35.40919
G1 X150.026 Y121.683 E35.47537
G1 X152.121 Y121.892 E35.54056
G1 X154.193 Y122.522 E35.60762
G1 X156.08 Y123.534 E35.67393
G1 X157.734 Y124.9 E35.74035
G1 X159.062 Y126.519 E35.80519
G1 X160.087 Y128.438 E35.87256
G1 X160.705 Y130.489 E35.93889
G1 X160.913 Y132.62 E36.00519
G1 X160.705 Y134.731 E36.07088
G1 X160.084 Y136.766 E36.13676
G1 X159.301 Y138.225 E36.18803
G1 X159.941 Y138.225 E36.20785
G1 X160.776 Y138.43 E36.23447
G1 X161.671 Y138.893 E36.26568
G1 X162.295 Y139.564 E36.29405
G1 X162.827 Y140.456 E36.32621
G1 X162.977 Y141.361 E36.35462
G1 X162.997 Y158.719 E36.89211
G1 X162.792 Y159.554 E36.91873
G1 X162.329 Y160.449 E36.94994
G1 X161.658 Y161.073 E36.97831
G1 X160.766 Y161.605 E37.01047
G1 X159.861 Y161.755 E37.03888
G1 X159.302 Y161.764 E37.05619
G1 X160.094 Y163.24 E37.10806
G1 X160.709 Y165.298 E37.17457
G1 X160.917 Y167.425 E37.24074
G1 X160.709 Y169.531 E37.30627
G1 X160.081 Y171.592 E37.37299
G1 X159.067 Y173.483 E37.43943
G1 X157.697 Y175.141 E37.50603
G1 X156.082 Y176.467 E37.57074
G1 X154.154 Y177.494 E37.63838
G1 X152.112 Y178.11 E37.70443
G1 X149.978 Y178.318 E37.77082
G1 X147.874 Y178.11 E37.83629
G1 X145.813 Y177.482 E37.903
G1 X143.917 Y176.464 E37.96964
G1 X142.265 Y175.1 E38.03598
G1 X140.939 Y173.482 E38.10076
G1 X139.913 Y171.56 E38.16822
G1 X139.295 Y169.511 E38.23449
G1 X139.087 Y167.381 E38.30076
G1 X139.295 Y165.268 E38.36651
G1 X139.916 Y163.233 E38.43239
G1 X140.952 Y161.305 E38.50016
G1 X141.996 Y160.04 E38.55095
G1 X140.632 Y159.388 E38.59776
G1 X139.8 Y158.936 E38.62708
G1 X138.882 Y158.18 E38.66391
G1 X138.055 Y157.178 E38.70414
G1 X137.491 Y156.1 E38.74181
