;FLAVOR:Marlin
;TIME:3593
;Filament used: 2.69715m
;Layer height: 0.2
;MINX:116.956
;MINY:100.669
;MINZ:0.2
;MAXX:183.044
;MAXY:199.331
;MAXZ:4
;POSTPROCESSED
;Generated with Cura_SteamEngine 5.4.0
M140 S95
M105
M190 S95
M82 ;absolute extrusion mode
M201 X500.00 Y500.00 Z100.00 E5000.00 ;Setup machine max acceleration
M203 X500.00 Y500.00 Z10.00 E50.00 ;Setup machine max feedrate
M204 P500.00 R1000.00 T500.00 ;Setup Print/Retract/Travel acceleration
M205 X8.00 Y8.00 Z0.40 E5.00 ;Setup Jerk
M220 S100 ;Reset Feedrate
M221 S100 ;Reset Flowrate
M140 S95.0 ; set bed temp
M190 S95.0 ; wait for bed temp
G28 X Y; home X Y
G28 Z; home Z
G29;
M420 S1; save bed mesh
G92 E0 ;Reset Extruder
G1 Z2.0 F3000 ;Move Z Axis up
G1 X10.1 Y20 Z0 F5000.0 ;Move to start position
M104 S250.0 ; wait for extruder printing temp
M109 S250.0 ; wait for extruder printing temp
G1 X10.1 Y200.0 Z0.28 F1500.0 E15 ;Draw the first line
G1 X10.4 Y200.0 Z0.28 F5000.0 ;Move to side a little
G1 X10.4 Y20 Z0.28 F1500.0 E30 ;Draw the second line
G92 E0 ;Reset Extruder
G92 E0
G92 E0
;LAYER_COUNT:20
;LAYER:0
M106 S127.5
G0 F12000 X119.697 Y103.372 Z0.2
;TYPE:SKIRT
G1 F600 X121.096 Y102.235 E0.05582
G1 X122.711 Y101.368 E0.11258
G1 X124.524 Y100.816 E0.17127
G1 X126.169 Y100.674 E0.22239
G1 X173.602 Y100.669 E1.69117
G1 X175.407 Y100.816 E1.74724
G1 X177.274 Y101.38 E1.80764
G1 X178.871 Y102.246 E1.86389
G1 X180.271 Y103.395 E1.91997
G1 X181.51 Y104.894 E1.98019
G1 X182.355 Y106.49 E2.03611
G1 X182.91 Y108.362 E2.09657
G1 X183.044 Y110.11 E2.15086
G1 X183.015 Y190.486 E4.63972
G1 X182.889 Y191.748 E4.67899
G1 X182.338 Y193.579 E4.7382
G1 X181.459 Y195.201 E4.79532
G1 X180.304 Y196.604 E4.8516
G1 X178.842 Y197.81 E4.91028
G1 X177.207 Y198.675 E4.96756
G1 X175.342 Y199.228 E5.02779
G1 X173.893 Y199.331 E5.07278
G1 X125.434 Y199.302 E6.57332
G1 X124.463 Y199.197 E6.60356
G1 X122.635 Y198.63 E6.66282
G1 X121.077 Y197.785 E6.71771
G1 X119.62 Y196.581 E6.77623
G1 X118.479 Y195.196 E6.8318
G1 X117.579 Y193.512 E6.89093
G1 X116.956 Y191.453 E6.95754
G1 X116.956 Y132.559 E8.7812
G1 X117.29 Y131.188 E8.8249
G1 X118.073 Y129.691 E8.87721
G1 X119.106 Y128.687 E8.92182
G1 X120.463 Y127.813 E8.9718
G1 X121.965 Y127.468 E9.01952
G1 X123.58 Y127.298 E9.0698
G1 X124.38 Y127.056 E9.09568
G1 X125.14 Y126.649 E9.12238
G1 X125.353 Y126.475 E9.13089
G1 X125.353 Y119.233 E9.35514
G1 X125.14 Y119.058 E9.36368
G1 X124.393 Y118.658 E9.38992
G1 X123.579 Y118.412 E9.41625
G1 X121.686 Y118.228 E9.47514
G1 X120.274 Y117.788 E9.52094
G1 X118.749 Y116.8 E9.57721
G1 X117.898 Y115.633 E9.62193
G1 X117.171 Y114.32 E9.6684
G1 X116.976 Y112.835 E9.71478
G1 X116.956 Y108.582 E9.84648
G1 X117.613 Y106.454 E9.91544
G1 X118.5 Y104.805 E9.97342
G1 X119.697 Y103.372 E10.03124
G0 F12000 X119.98 Y103.657
G1 F600 X121.318 Y102.569 E10.08464
G1 X122.862 Y101.74 E10.1389
G1 X124.599 Y101.212 E10.19512
G1 X126.204 Y101.073 E10.24501
G1 X173.602 Y101.069 E11.71269
G1 X175.333 Y101.212 E11.76648
G1 X177.118 Y101.751 E11.82422
G1 X178.649 Y102.581 E11.87814
G1 X179.988 Y103.68 E11.93178
G1 X181.174 Y105.115 E11.98943
G1 X181.984 Y106.645 E12.04304
G1 X182.514 Y108.432 E12.10075
G1 X182.644 Y110.11 E12.15287
G1 X182.617 Y190.446 E14.64049
G1 X182.495 Y191.67 E14.67858
G1 X181.967 Y193.424 E14.7353
G1 X181.126 Y194.977 E14.78998
G1 X180.02 Y196.32 E14.84386
G1 X178.62 Y197.474 E14.90004
G1 X177.052 Y198.304 E14.95497
G1 X175.272 Y198.832 E15.01247
G1 X173.893 Y198.931 E15.05528
G1 X125.477 Y198.904 E16.55449
G1 X124.542 Y198.803 E16.58361
G1 X122.794 Y198.261 E16.64028
G1 X121.299 Y197.45 E16.69294
G1 X119.905 Y196.298 E16.74894
G1 X118.814 Y194.974 E16.80206
G1 X117.95 Y193.357 E16.85883
G1 X117.356 Y191.393 E16.92237
G1 X117.356 Y132.609 E18.74263
G1 X117.668 Y131.326 E18.78351
G1 X118.396 Y129.935 E18.83213
G1 X119.359 Y128.999 E18.87371
G1 X120.619 Y128.188 E18.92011
G1 X122.007 Y127.866 E18.96423
G1 X123.659 Y127.692 E19.01567
G1 X124.531 Y127.429 E19.04387
G1 X125.366 Y126.981 E19.07322
G1 X125.753 Y126.665 E19.08869
G1 X125.753 Y119.044 E19.32467
G1 X125.365 Y118.724 E19.34025
G1 X124.548 Y118.287 E19.36894
G1 X123.658 Y118.018 E19.39773
G1 X121.767 Y117.834 E19.45656
G1 X120.445 Y117.422 E19.49944
G1 X119.029 Y116.505 E19.55168
G1 X118.248 Y115.439 E19.59259
G1 X117.558 Y114.193 E19.6367
G1 X117.373 Y112.783 E19.68073
G1 X117.356 Y108.641 E19.80899
G1 X117.984 Y106.608 E19.87488
G1 X118.832 Y105.031 E19.93032
G1 X119.98 Y103.657 E19.98577
G0 F12000 X120.263 Y103.942
G1 F600 X121.54 Y102.903 E20.03674
G1 X123.013 Y102.112 E20.08852
G1 X124.674 Y101.607 E20.14227
G1 X126.238 Y101.472 E20.19088
G1 X173.602 Y101.469 E21.65752
G1 X175.26 Y101.608 E21.70904
G1 X176.961 Y102.121 E21.76405
G1 X178.427 Y102.916 E21.81569
G1 X179.705 Y103.965 E21.86689
G1 X180.838 Y105.336 E21.92197
G1 X181.613 Y106.8 E21.97326
G1 X182.118 Y108.502 E22.02823
G1 X182.244 Y110.11 E22.07818
G1 X182.219 Y190.406 E24.56456
G1 X182.101 Y191.592 E24.60146
G1 X181.597 Y193.267 E24.65563
G1 X180.791 Y194.754 E24.708
G1 X179.738 Y196.033 E24.7593
G1 X178.396 Y197.14 E24.81317
G1 X176.897 Y197.933 E24.86568
G1 X175.202 Y198.436 E24.92043
G1 X173.893 Y198.531 E24.96107
G1 X125.52 Y198.506 E26.45895
G1 X124.622 Y198.409 E26.48692
G1 X122.952 Y197.891 E26.54106
G1 X121.521 Y197.115 E26.59147
G1 X120.19 Y196.015 E26.64494
G1 X119.148 Y194.75 E26.69568
G1 X118.322 Y193.204 E26.74996
G1 X117.756 Y191.333 E26.81049
G1 X117.756 Y132.658 E28.62737
G1 X118.046 Y131.465 E28.66539
G1 X118.719 Y130.179 E28.71033
G1 X119.61 Y129.313 E28.74881
G1 X120.776 Y128.562 E28.79176
G1 X122.097 Y128.256 E28.83374
G1 X123.739 Y128.086 E28.88486
G1 X124.686 Y127.8 E28.91549
G1 X125.588 Y127.317 E28.94717
G1 X126.153 Y126.854 E28.96979
G1 X126.153 Y118.855 E29.21748
G1 X125.587 Y118.389 E29.24019
G1 X124.703 Y117.916 E29.27123
G1 X123.737 Y117.624 E29.30248
G1 X121.848 Y117.44 E29.36125
G1 X120.616 Y117.056 E29.40121
G1 X119.31 Y116.21 E29.44939
G1 X118.571 Y115.202 E29.4881
G1 X117.945 Y114.067 E29.52823
G1 X117.77 Y112.731 E29.56996
G1 X117.756 Y108.7 E29.69478
G1 X118.354 Y106.764 E29.75752
G1 X119.166 Y105.255 E29.81058
G1 X120.263 Y103.942 E29.86356
G0 F12000 X120.544 Y104.229
G1 F600 X121.765 Y103.235 E29.91232
G1 X123.164 Y102.484 E29.96148
G1 X124.749 Y102.003 E30.01277
G1 X126.273 Y101.871 E30.06014
G1 X173.602 Y101.869 E31.52569
G1 X175.186 Y102.004 E31.57492
G1 X176.807 Y102.493 E31.62735
G1 X178.203 Y103.249 E31.67651
G1 X179.422 Y104.25 E31.72535
G1 X180.502 Y105.557 E31.77785
G1 X181.24 Y106.951 E31.82669
G1 X181.722 Y108.577 E31.87921
G1 X181.844 Y110.11 E31.92683
G1 X181.821 Y190.366 E34.41197
G1 X181.707 Y191.514 E34.44769
G1 X181.226 Y193.112 E34.49937
G1 X180.458 Y194.53 E34.5493
G1 X179.454 Y195.749 E34.5982
G1 X178.174 Y196.804 E34.64957
G1 X176.746 Y197.56 E34.6996
G1 X175.127 Y198.04 E34.75189
G1 X173.893 Y198.131 E34.7902
G1 X125.563 Y198.108 E36.28675
G1 X124.701 Y198.015 E36.3136
G1 X123.111 Y197.522 E36.36515
G1 X121.743 Y196.78 E36.41334
G1 X120.475 Y195.732 E36.46427
G1 X119.482 Y194.526 E36.51265
G1 X118.694 Y193.051 E36.56443
G1 X118.156 Y191.273 E36.62195
G1 X118.156 Y132.707 E38.43546
G1 X118.424 Y131.604 E38.47061
G1 X119.042 Y130.423 E38.51188
G1 X119.863 Y129.625 E38.54733
G1 X120.932 Y128.937 E38.5867
G1 X122.187 Y128.646 E38.62659
G1 X123.818 Y128.48 E38.67736
G1 X124.841 Y128.171 E38.71045
G1 X125.81 Y127.653 E38.74447
G1 X126.553 Y127.043 E38.77424
G1 X126.553 Y118.666 E39.03363
G1 X125.809 Y118.054 E39.06347
G1 X124.858 Y117.545 E39.09687
G1 X123.816 Y117.23 E39.13057
G1 X121.929 Y117.046 E39.18928
G1 X120.789 Y116.691 E39.22625
G1 X119.59 Y115.914 E39.2705
G1 X118.894 Y114.965 E39.30694
G1 X118.331 Y113.939 E39.34318
G1 X118.17 Y112.73 E39.38094
G1 X118.156 Y108.759 E39.50391
G1 X118.725 Y106.918 E39.56358
G1 X119.498 Y105.481 E39.6141
G1 X120.544 Y104.229 E39.66462
G0 F12000 X120.825 Y104.516
G1 F600 X121.99 Y103.567 E39.71115
G1 X123.315 Y102.856 E39.75771
G1 X124.824 Y102.398 E39.80654
G1 X126.307 Y102.27 E39.85263
G1 X173.602 Y102.269 E41.31713
G1 X175.113 Y102.4 E41.3641
G1 X176.65 Y102.863 E41.4138
G1 X177.981 Y103.584 E41.46068
G1 X179.139 Y104.535 E41.50708
G1 X180.166 Y105.778 E41.557
G1 X180.869 Y107.106 E41.60353
G1 X181.326 Y108.647 E41.6533
G1 X181.444 Y110.11 E41.69875
G1 X181.423 Y190.327 E44.18269
G1 X181.313 Y191.436 E44.2172
G1 X180.855 Y192.957 E44.26638
G1 X180.125 Y194.306 E44.31388
G1 X179.172 Y195.462 E44.36027
G1 X177.95 Y196.47 E44.40932
G1 X176.595 Y197.187 E44.45679
G1 X175.053 Y197.644 E44.50659
G1 X173.893 Y197.731 E44.54261
G1 X125.606 Y197.71 E46.03783
G1 X124.781 Y197.621 E46.06352
G1 X123.269 Y197.152 E46.11254
G1 X121.965 Y196.445 E46.15848
G1 X120.76 Y195.449 E46.20688
G1 X119.816 Y194.302 E46.25288
G1 X119.066 Y192.898 E46.30217
G1 X118.556 Y191.213 E46.35669
G1 X118.556 Y132.757 E48.16679
G1 X118.803 Y131.742 E48.19913
G1 X119.365 Y130.667 E48.2367
G1 X120.114 Y129.939 E48.26904
G1 X121.091 Y129.31 E48.30502
G1 X122.228 Y129.044 E48.34118
G1 X123.897 Y128.874 E48.39313
G1 X124.993 Y128.543 E48.42858
G1 X126.034 Y127.987 E48.46512
G1 X126.953 Y127.232 E48.50195
G1 X126.953 Y118.477 E48.77305
G1 X126.031 Y117.719 E48.81001
G1 X125.013 Y117.174 E48.84577
G1 X123.895 Y116.836 E48.88193
G1 X122.01 Y116.652 E48.94058
G1 X120.96 Y116.325 E48.97463
G1 X119.87 Y115.619 E49.01485
G1 X119.245 Y114.773 E49.04742
G1 X118.718 Y113.813 E49.08133
G1 X118.567 Y112.677 E49.11682
G1 X118.556 Y108.818 E49.23631
G1 X119.096 Y107.072 E49.2929
G1 X119.83 Y105.707 E49.34089
G1 X120.825 Y104.516 E49.38895
G0 F12000 X121.106 Y104.803
G1 F600 X122.215 Y103.899 E49.43325
G1 X123.466 Y103.228 E49.47721
G1 X124.899 Y102.794 E49.52357
G1 X126.342 Y102.669 E49.56842
G1 X173.602 Y102.669 E51.03184
G1 X175.036 Y102.794 E51.07641
G1 X176.493 Y103.233 E51.12353
G1 X177.759 Y103.919 E51.16812
G1 X178.856 Y104.82 E51.21208
G1 X179.83 Y105.999 E51.25943
G1 X180.498 Y107.261 E51.30365
G1 X180.93 Y108.717 E51.35067
G1 X181.044 Y110.11 E51.39395
G1 X181.025 Y190.288 E53.87668
G1 X180.919 Y191.358 E53.90997
G1 X180.485 Y192.8 E53.9566
G1 X179.79 Y194.083 E54.00179
G1 X178.888 Y195.178 E54.04572
G1 X177.728 Y196.134 E54.09226
G1 X176.44 Y196.816 E54.13739
G1 X174.983 Y197.248 E54.18445
G1 X173.893 Y197.331 E54.2183
G1 X125.649 Y197.312 E55.71218
G1 X124.86 Y197.227 E55.73676
G1 X123.428 Y196.783 E55.78318
G1 X122.187 Y196.11 E55.8269
G1 X121.045 Y195.166 E55.87278
G1 X120.15 Y194.078 E55.9164
G1 X119.438 Y192.745 E55.9632
G1 X118.956 Y191.153 E56.0147
G1 X118.956 Y132.807 E57.8214
G1 X119.181 Y131.884 E57.85082
G1 X119.69 Y130.909 E57.88487
G1 X120.365 Y130.253 E57.91402
G1 X121.25 Y129.683 E57.94662
G1 X122.269 Y129.442 E57.97904
G1 X123.975 Y129.268 E58.03214
G1 X125.149 Y128.914 E58.07011
G1 X126.256 Y128.322 E58.10898
G1 X127.205 Y127.542 E58.14702
G1 X127.353 Y127.361 E58.15426
G1 X127.353 Y118.35 E58.43329
G1 X127.196 Y118.158 E58.44097
G1 X126.256 Y117.387 E58.47861
G1 X125.164 Y116.801 E58.51699
G1 X123.974 Y116.442 E58.55548
G1 X122.091 Y116.258 E58.61406
G1 X121.131 Y115.959 E58.6452
G1 X120.149 Y115.323 E58.68143
G1 X119.596 Y114.58 E58.71011
G1 X119.105 Y113.686 E58.74169
G1 X118.964 Y112.624 E58.77486
G1 X118.956 Y108.877 E58.89089
G1 X119.467 Y107.226 E58.94441
G1 X120.162 Y105.933 E58.98986
G1 X121.106 Y104.803 E59.03545
G0 F12000 X121.387 Y105.09
G1 F600 X122.437 Y104.234 E59.0774
G1 X123.621 Y103.599 E59.11901
G1 X124.978 Y103.188 E59.16291
G1 X126.342 Y103.069 E59.20531
G1 X173.602 Y103.069 E60.66872
G1 X174.959 Y103.188 E60.7109
G1 X176.336 Y103.603 E60.75544
G1 X177.537 Y104.254 E60.79774
G1 X178.573 Y105.105 E60.83925
G1 X179.494 Y106.22 E60.88403
G1 X180.127 Y107.416 E60.92594
G1 X180.534 Y108.787 E60.97022
G1 X180.644 Y110.11 E61.01133
G1 X180.627 Y190.249 E63.49285
G1 X180.525 Y191.28 E63.52493
G1 X180.114 Y192.645 E63.56907
G1 X179.457 Y193.859 E63.61181
G1 X178.606 Y194.891 E63.65323
G1 X177.504 Y195.8 E63.69747
G1 X176.285 Y196.445 E63.74017
G1 X174.913 Y196.852 E63.78449
G1 X173.893 Y196.931 E63.81617
G1 X125.692 Y196.914 E65.30872
G1 X124.939 Y196.833 E65.33217
G1 X123.587 Y196.414 E65.376
G1 X122.409 Y195.775 E65.4175
G1 X121.33 Y194.883 E65.46085
G1 X120.484 Y193.854 E65.5021
G1 X119.81 Y192.592 E65.5464
G1 X119.356 Y191.093 E65.5949
G1 X119.356 Y132.857 E67.39819
G1 X119.559 Y132.026 E67.42468
G1 X120.015 Y131.151 E67.45523
G1 X120.616 Y130.567 E67.48118
G1 X121.409 Y130.056 E67.51039
G1 X122.31 Y129.84 E67.53908
G1 X124.054 Y129.662 E67.59336
G1 X125.304 Y129.285 E67.63379
G1 X126.478 Y128.657 E67.67502
G1 X127.489 Y127.826 E67.71554
G1 X127.753 Y127.504 E67.72844
G1 X127.753 Y118.207 E68.01632
G1 X127.48 Y117.874 E68.02966
G1 X126.481 Y117.055 E68.06966
G1 X125.316 Y116.429 E68.11061
G1 X124.052 Y116.048 E68.15149
G1 X122.172 Y115.864 E68.20998
G1 X121.304 Y115.594 E68.23813
G1 X120.426 Y115.025 E68.27053
G1 X119.947 Y114.387 E68.29523
G1 X119.491 Y113.557 E68.32456
G1 X119.364 Y112.623 E68.35374
G1 X119.356 Y108.936 E68.46791
G1 X119.837 Y107.382 E68.51828
G1 X120.496 Y106.157 E68.56136
G1 X121.387 Y105.09 E68.6044
G0 F12000 X121.668 Y105.377
G1 F600 X122.659 Y104.569 E68.644
G1 X123.776 Y103.97 E68.68324
G1 X125.057 Y103.582 E68.72469
G1 X126.342 Y103.469 E68.76463
G1 X173.602 Y103.469 E70.22805
G1 X174.881 Y103.582 E70.26781
G1 X176.181 Y103.974 E70.30985
G1 X177.313 Y104.587 E70.34971
G1 X178.29 Y105.39 E70.38887
G1 X179.158 Y106.441 E70.43108
G1 X179.756 Y107.571 E70.47067
G1 X180.138 Y108.857 E70.51221
G1 X180.244 Y110.11 E70.55115
G1 X180.229 Y190.21 E73.03146
G1 X180.131 Y191.202 E73.06233
G1 X179.744 Y192.488 E73.10391
G1 X179.122 Y193.636 E73.14434
G1 X178.322 Y194.607 E73.1833
G1 X177.282 Y195.464 E73.22503
G1 X176.13 Y196.074 E73.26539
G1 X174.843 Y196.456 E73.30696
G1 X173.893 Y196.531 E73.33647
G1 X125.735 Y196.516 E74.82769
G1 X125.018 Y196.439 E74.85002
G1 X123.746 Y196.045 E74.89126
G1 X122.631 Y195.44 E74.93054
G1 X121.615 Y194.6 E74.97136
G1 X120.818 Y193.63 E75.01023
G1 X120.182 Y192.439 E75.05204
G1 X119.756 Y191.033 E75.09753
G1 X119.756 Y132.907 E76.89742
G1 X119.937 Y132.168 E76.92098
G1 X120.34 Y131.393 E76.94803
G1 X120.867 Y130.881 E76.97078
G1 X121.567 Y130.43 E76.99656
G1 X122.351 Y130.238 E77.02156
G1 X124.133 Y130.056 E77.07702
G1 X125.459 Y129.656 E77.11991
G1 X126.7 Y128.992 E77.16349
G1 X127.774 Y128.11 E77.20653
G1 X128.153 Y127.647 E77.22505
G1 X128.153 Y118.065 E77.52176
G1 X127.764 Y117.59 E77.54077
G1 X126.703 Y116.721 E77.58324
G1 X125.467 Y116.057 E77.62669
G1 X124.131 Y115.654 E77.6699
G1 X122.253 Y115.47 E77.72833
G1 X121.475 Y115.228 E77.75356
G1 X120.703 Y114.728 E77.78204
G1 X120.267 Y114.147 E77.80453
G1 X119.877 Y113.43 E77.82981
G1 X119.764 Y112.622 E77.85507
G1 X119.756 Y108.995 E77.96738
G1 X120.208 Y107.536 E78.01468
G1 X120.828 Y106.383 E78.05522
G1 X121.668 Y105.377 E78.0958
G0 F12000 X121.949 Y105.664
G1 F600 X122.881 Y104.904 E78.13304
G1 X123.931 Y104.341 E78.16993
G1 X125.136 Y103.976 E78.20892
G1 X126.342 Y103.869 E78.24641
G1 X173.602 Y103.869 E79.70982
G1 X174.803 Y103.976 E79.74716
G1 X176.024 Y104.344 E79.78665
G1 X177.091 Y104.922 E79.82422
G1 X178.007 Y105.675 E79.86094
G1 X178.822 Y106.662 E79.90058
G1 X179.385 Y107.726 E79.93785
G1 X179.742 Y108.928 E79.97668
G1 X179.844 Y110.11 E80.01341
G1 X179.831 Y190.171 E82.49252
G1 X179.737 Y191.124 E82.52217
G1 X179.373 Y192.333 E82.56127
G1 X178.789 Y193.412 E82.59926
G1 X178.038 Y194.323 E82.63582
G1 X177.06 Y195.128 E82.67504
G1 X175.974 Y195.703 E82.71309
G1 X174.773 Y196.06 E82.75189
G1 X173.893 Y196.131 E82.77923
G1 X125.778 Y196.118 E84.26912
G1 X125.098 Y196.045 E84.2903
G1 X123.902 Y195.674 E84.32907
G1 X122.855 Y195.107 E84.36594
G1 X121.9 Y194.317 E84.40432
G1 X121.152 Y193.406 E84.44082
G1 X120.554 Y192.286 E84.48013
G1 X120.156 Y190.973 E84.52262
G1 X120.156 Y132.957 E86.31909
G1 X120.315 Y132.308 E86.33978
G1 X120.664 Y131.636 E86.36323
G1 X121.118 Y131.195 E86.38283
G1 X121.726 Y130.803 E86.40523
G1 X122.446 Y130.627 E86.42818
G1 X124.212 Y130.45 E86.48314
G1 X125.614 Y130.027 E86.52849
G1 X126.922 Y129.327 E86.57442
G1 X128.056 Y128.396 E86.61986
