;FLAVOR:Marlin
;TIME:616
;Filament used: 0.125312m
;Layer height: 0.1
;MINX:139.428
;MINY:139.035
;MINZ:0.2
;MAXX:160.572
;MAXY:161.003
;MAXZ:4
;POSTPROCESSED
;Generated with Cura_SteamEngine 5.4.0
M140 S80
M105
M190 S80
M82 ;absolute extrusion mode
M201 X500.00 Y500.00 Z100.00 E5000.00 ;Setup machine max acceleration
M203 X500.00 Y500.00 Z10.00 E50.00 ;Setup machine max feedrate
M204 P500.00 R1000.00 T500.00 ;Setup Print/Retract/Travel acceleration
M205 X8.00 Y8.00 Z0.40 E5.00 ;Setup Jerk
M220 S100 ;Reset Feedrate
M221 S100 ;Reset Flowrate
M140 S80.0 ; set bed temp
M190 S80.0 ; wait for bed temp
G28 X Y; home X Y
G28 Z; home Z
G29;
M420 S1; save bed mesh
G92 E0 ;Reset Extruder
G1 Z2.0 F3000 ;Move Z Axis up
G1 X10.1 Y20 Z0 F5000.0 ;Move to start position
M104 S245 ; wait for extruder printing temp
M109 S245 ; wait for extruder printing temp
G1 X10.1 Y200.0 Z0.28 F1500.0 E15 ;Draw the first line
G1 X10.4 Y200.0 Z0.28 F5000.0 ;Move to side a little
G1 X10.4 Y20 Z0.28 F1500.0 E30 ;Draw the second line
G92 E0 ;Reset Extruder
G92 E0
G92 E0
G1 F3000 E-4
;LAYER_COUNT:39
;LAYER:0
M106 S25.5
G0 F12000 X141.712 Y141.283 Z0.2
;TYPE:SKIRT
G1 F3000 E0
G1 F600 X142.865 Y140.207 E0.04883
G1 X144.373 Y139.307 E0.10321
G1 X145.724 Y139.085 E0.14561
G1 X154.237 Y139.035 E0.40922
G1 X155.659 Y139.384 E0.45456
G1 X157.174 Y140.169 E0.5074
G1 X158.256 Y141.328 E0.55649
G1 X159.072 Y142.698 E0.60587
G1 X159.175 Y142.987 E0.61537
G1 X159.393 Y144.434 E0.66068
G1 X159.414 Y146.726 E0.73166
G1 X160.245 Y148.114 E0.78175
G1 X160.572 Y149.736 E0.83299
G1 X160.572 Y155.824 E1.0215
G1 X160.224 Y157.239 E1.06662
G1 X159.438 Y158.755 E1.1195
G1 X158.285 Y159.831 E1.16834
G1 X156.777 Y160.731 E1.22272
G1 X155.426 Y160.953 E1.26511
G1 X144.61 Y161.003 E1.60003
G1 X143.192 Y160.655 E1.64525
G1 X141.676 Y159.869 E1.69812
G1 X140.597 Y158.713 E1.74709
G1 X139.7 Y157.209 E1.80132
G1 X139.468 Y155.733 E1.84758
G1 X139.428 Y149.565 E2.03858
G1 X139.763 Y148.192 E2.08234
G1 X140.465 Y146.832 E2.12973
G1 X140.578 Y146.68 E2.1356
G1 X140.578 Y144.214 E2.21196
G1 X140.926 Y142.799 E2.25708
G1 X141.344 Y141.993 E2.28519
G0 F540 X141.712 Y141.283
G0 F12000 X142.035 Y141.528
G1 F600 X143.107 Y140.528 E2.33059
G1 X144.511 Y139.69 E2.38122
G1 X145.789 Y139.48 E2.42132
G1 X154.192 Y139.435 E2.68153
G1 X155.516 Y139.76 E2.72374
G1 X156.929 Y140.492 E2.77302
G1 X157.932 Y141.567 E2.81855
G1 X158.728 Y142.903 E2.8667
G1 X158.779 Y143.047 E2.87143
G1 X158.997 Y144.494 E2.91674
G1 X159.015 Y146.887 E2.99085
G1 X159.138 Y147.044 E2.99702
G1 X159.867 Y148.261 E3.04095
G1 X160.172 Y149.775 E3.08877
G1 X160.172 Y155.778 E3.27466
G1 X159.848 Y157.096 E3.31668
G1 X159.115 Y158.51 E3.366
G1 X158.043 Y159.51 E3.4114
G1 X156.639 Y160.348 E3.46203
G1 X155.361 Y160.558 E3.50213
G1 X144.655 Y160.603 E3.83365
G1 X143.335 Y160.279 E3.87574
G1 X141.921 Y159.546 E3.92505
G1 X140.921 Y158.474 E3.97045
G1 X140.083 Y157.069 E4.02111
G1 X139.868 Y155.73 E4.0631
G1 X139.828 Y149.614 E4.25249
G1 X140.141 Y148.331 E4.29338
G1 X140.82 Y147.016 E4.33921
G1 X140.978 Y146.823 E4.34693
G1 X140.978 Y144.26 E4.42629
G1 X141.302 Y142.942 E4.46832
G1 X141.667 Y142.238 E4.49288
G0 F540 X142.035 Y141.528
G0 F12000 X142.357 Y141.775
G1 F600 X143.352 Y140.847 E4.53501
G1 X144.649 Y140.073 E4.58178
G1 X145.854 Y139.875 E4.61959
G1 X154.147 Y139.835 E4.87639
G1 X155.373 Y140.136 E4.91548
G1 X156.682 Y140.814 E4.96113
G1 X157.61 Y141.809 E5.00326
G1 X158.384 Y143.108 E5.05008
G1 X158.597 Y144.497 E5.09359
G1 X158.616 Y147.033 E5.17212
G1 X158.795 Y147.25 E5.18083
G1 X159.489 Y148.408 E5.22264
G1 X159.772 Y149.814 E5.26705
G1 X159.772 Y155.732 E5.4503
G1 X159.472 Y156.953 E5.48923
G1 X158.793 Y158.263 E5.53492
G1 X157.798 Y159.191 E5.57705
G1 X156.501 Y159.965 E5.62382
G1 X155.296 Y160.163 E5.66164
G1 X144.7 Y160.203 E5.98975
G1 X143.478 Y159.903 E6.02871
G1 X142.168 Y159.224 E6.0744
G1 X141.24 Y158.229 E6.11653
G1 X140.466 Y156.932 E6.1633
G1 X140.268 Y155.727 E6.20111
G1 X140.228 Y149.663 E6.38889
G1 X140.52 Y148.468 E6.42698
G1 X141.175 Y147.199 E6.4712
G1 X141.378 Y146.98 E6.48045
G1 X141.378 Y144.306 E6.56325
G1 X141.678 Y143.085 E6.60218
G1 X141.989 Y142.485 E6.62311
G0 F540 X142.357 Y141.775
G0 F12000 X142.679 Y142.022
G1 F600 X143.594 Y141.169 E6.66185
G1 X144.789 Y140.456 E6.70493
G1 X145.919 Y140.27 E6.7404
G1 X154.102 Y140.235 E6.99379
G1 X155.23 Y140.512 E7.02975
G1 X156.435 Y141.136 E7.07177
G1 X157.288 Y142.051 E7.11051
G1 X158.001 Y143.247 E7.15362
G1 X158.197 Y144.5 E7.19289
G1 X158.217 Y147.185 E7.27604
G1 X158.452 Y147.455 E7.28712
G1 X159.11 Y148.554 E7.32679
G1 X159.372 Y149.853 E7.36782
G1 X159.372 Y155.686 E7.54844
G1 X159.096 Y156.81 E7.58428
G1 X158.471 Y158.016 E7.62634
G1 X157.556 Y158.869 E7.66508
G1 X156.361 Y159.582 E7.70816
G1 X155.231 Y159.768 E7.74363
G1 X144.745 Y159.803 E8.06833
G1 X143.621 Y159.527 E8.10417
G1 X142.415 Y158.902 E8.14623
G1 X141.562 Y157.987 E8.18496
G1 X140.849 Y156.792 E8.22805
G1 X140.663 Y155.662 E8.26351
G1 X140.628 Y149.712 E8.44776
G1 X140.898 Y148.607 E8.48298
G1 X141.53 Y147.383 E8.52564
G1 X141.778 Y147.156 E8.53605
G1 X141.778 Y144.352 E8.62288
G1 X142.054 Y143.228 E8.65872
G1 X142.311 Y142.732 E8.67601
G0 F540 X142.679 Y142.022
G0 F12000 X143.001 Y142.269
G1 F600 X143.836 Y141.491 E8.71135
G1 X144.929 Y140.839 E8.75076
G1 X145.984 Y140.665 E8.78387
G1 X154.057 Y140.635 E9.03386
G1 X155.087 Y140.888 E9.0667
G1 X156.188 Y141.458 E9.10509
G1 X156.966 Y142.293 E9.14043
G1 X157.618 Y143.387 E9.17986
G1 X157.797 Y144.503 E9.21486
G1 X157.818 Y147.341 E9.30274
G1 X158.109 Y147.661 E9.31614
G1 X158.732 Y148.701 E9.35368
G1 X158.972 Y149.892 E9.3913
G1 X158.972 Y155.639 E9.56926
G1 X158.719 Y156.668 E9.60207
G1 X158.149 Y157.769 E9.64046
G1 X157.314 Y158.547 E9.6758
G1 X156.221 Y159.199 E9.71521
G1 X155.166 Y159.373 E9.74832
G1 X144.792 Y159.403 E10.06955
G1 X143.763 Y159.15 E10.10236
G1 X142.662 Y158.58 E10.14075
G1 X141.884 Y157.745 E10.17609
G1 X141.232 Y156.652 E10.2155
G1 X141.058 Y155.597 E10.24861
G1 X141.028 Y149.761 E10.42933
G1 X141.276 Y148.746 E10.46168
G1 X141.853 Y147.63 E10.50058
G1 X142.178 Y147.332 E10.51424
G1 X142.178 Y144.399 E10.60506
G1 X142.431 Y143.37 E10.63787
G1 X142.633 Y142.979 E10.6515
G0 F540 X143.001 Y142.269
G0 F12000 X143.323 Y142.516
G1 F600 X144.078 Y141.813 E10.68344
G1 X145.069 Y141.222 E10.71917
G1 X146.049 Y141.06 E10.74993
G1 X154.012 Y141.035 E10.99651
G1 X154.944 Y141.264 E11.02623
G1 X155.941 Y141.78 E11.06099
G1 X156.644 Y142.535 E11.09293
G1 X157.235 Y143.526 E11.12866
G1 X157.397 Y144.506 E11.15942
G1 X157.419 Y147.497 E11.25204
G1 X157.786 Y147.9 E11.26892
G1 X158.354 Y148.848 E11.30314
G1 X158.572 Y149.931 E11.33734
G1 X158.572 Y155.593 E11.51267
G1 X158.343 Y156.525 E11.54239
G1 X157.827 Y157.522 E11.57715
G1 X157.072 Y158.225 E11.60909
G1 X156.081 Y158.816 E11.64482
G1 X155.101 Y158.978 E11.67558
G1 X144.838 Y159.003 E11.99338
G1 X143.906 Y158.774 E12.02309
G1 X142.909 Y158.258 E12.05786
G1 X142.206 Y157.503 E12.0898
G1 X141.615 Y156.512 E12.12553
G1 X141.453 Y155.532 E12.15629
G1 X141.428 Y149.81 E12.33347
G1 X141.654 Y148.885 E12.36296
G1 X142.175 Y147.877 E12.39809
G1 X142.578 Y147.508 E12.41501
G1 X142.578 Y144.445 E12.50986
G1 X142.807 Y143.513 E12.53958
G1 X142.956 Y143.226 E12.54959
G0 F540 X143.323 Y142.516
G0 F12000 X143.646 Y142.761
G1 F600 X144.317 Y142.137 E12.57796
G1 X145.209 Y141.605 E12.61012
G1 X146.114 Y141.455 E12.63853
G1 X153.966 Y141.435 E12.88167
G1 X154.801 Y141.64 E12.90829
G1 X155.696 Y142.103 E12.9395
G1 X156.32 Y142.774 E12.96787
G1 X156.852 Y143.666 E13.00003
G1 X157.002 Y144.571 E13.02844
G1 X157.02 Y147.654 E13.1239
G1 X157.465 Y148.142 E13.14435
G1 X157.976 Y148.995 E13.17514
G1 X158.172 Y149.97 E13.20594
G1 X158.172 Y155.547 E13.37863
G1 X157.967 Y156.382 E13.40526
G1 X157.504 Y157.277 E13.43646
G1 X156.833 Y157.901 E13.46483
G1 X155.941 Y158.433 E13.49699
G1 X155.036 Y158.583 E13.5254
G1 X144.884 Y158.603 E13.83976
G1 X144.049 Y158.398 E13.86638
G1 X143.154 Y157.935 E13.89758
G1 X142.53 Y157.264 E13.92596
G1 X141.998 Y156.372 E13.95812
G1 X141.848 Y155.467 E13.98652
G1 X141.828 Y149.859 E14.16018
G1 X142.033 Y149.022 E14.18686
G1 X142.496 Y148.125 E14.21812
G1 X142.978 Y147.684 E14.23835
G1 X142.978 Y144.491 E14.33722
G1 X143.183 Y143.656 E14.36384
G1 X143.279 Y143.472 E14.37027
G0 F540 X143.646 Y142.761
G0 F12000 X143.969 Y143.006
G1 F600 X144.556 Y142.461 E14.39507
G1 X145.349 Y141.988 E14.42367
G1 X146.18 Y141.85 E14.44975
G1 X153.92 Y141.835 E14.68942
G1 X154.658 Y142.016 E14.71295
G1 X155.451 Y142.426 E14.74059
G1 X155.996 Y143.013 E14.7654
G1 X156.469 Y143.806 E14.79399
G1 X156.607 Y144.637 E14.82007
G1 X156.621 Y147.81 E14.91833
G1 X157.142 Y148.381 E14.94226
G1 X157.598 Y149.142 E14.96973
G1 X157.772 Y150.009 E14.99711
G1 X157.772 Y155.501 E15.16718
G1 X157.591 Y156.239 E15.19071
G1 X157.181 Y157.032 E15.21835
G1 X156.594 Y157.577 E15.24315
G1 X155.801 Y158.05 E15.27174
G1 X154.97 Y158.188 E15.29783
G1 X144.93 Y158.203 E15.60872
G1 X144.192 Y158.022 E15.63225
G1 X143.399 Y157.612 E15.65989
G1 X142.854 Y157.025 E15.68469
G1 X142.381 Y156.232 E15.71329
G1 X142.243 Y155.401 E15.73937
G1 X142.228 Y149.904 E15.90959
G1 X142.409 Y149.166 E15.93312
G1 X142.819 Y148.371 E15.96081
G1 X143.378 Y147.86 E15.98427
G1 X143.378 Y144.537 E16.08716
G1 X143.559 Y143.799 E16.11069
G1 X143.602 Y143.717 E16.11356
G0 F540 X143.969 Y143.006
G0 F12000 X144.292 Y143.251
G1 F600 X144.795 Y142.785 E16.13479
G1 X145.489 Y142.371 E16.15982
G1 X146.246 Y142.245 E16.18358
G1 X153.87 Y142.235 E16.41966
G1 X154.519 Y142.394 E16.44035
G1 X155.206 Y142.749 E16.46429
G1 X155.672 Y143.252 E16.48553
G1 X156.086 Y143.946 E16.51055
G1 X156.212 Y144.703 E16.53431
G1 X156.222 Y148.048 E16.63789
G1 X156.412 Y148.174 E16.64495
G1 X156.819 Y148.62 E16.66365
G1 X157.22 Y149.289 E16.6878
G1 X157.372 Y150.048 E16.71177
G1 X157.372 Y155.451 E16.87907
G1 X157.213 Y156.1 E16.89976
G1 X156.858 Y156.787 E16.92371
G1 X156.355 Y157.253 E16.94494
G1 X155.661 Y157.667 E16.96997
G1 X154.904 Y157.793 E16.99373
G1 X144.98 Y157.803 E17.30103
G1 X144.331 Y157.644 E17.32172
G1 X143.644 Y157.289 E17.34566
G1 X143.178 Y156.786 E17.3669
G1 X142.764 Y156.092 E17.39192
G1 X142.638 Y155.335 E17.41568
G1 X142.628 Y149.954 E17.58231
G1 X142.787 Y149.305 E17.603
G1 X143.142 Y148.618 E17.62694
G1 X143.619 Y148.178 E17.64704
G1 X143.778 Y148.073 E17.65294
G1 X143.778 Y144.587 E17.76088
G1 X143.931 Y143.964 E17.78075
G0 F540 X143.937 Y143.938
G0 X144.292 Y143.251
G0 F12000 X144.615 Y143.497
G1 F600 X145.034 Y143.109 E17.79843
G1 X145.629 Y142.754 E17.81988
G1 X146.312 Y142.64 E17.84133
G1 X153.82 Y142.635 E18.07381
G1 X154.38 Y142.772 E18.09166
G1 X154.96 Y143.072 E18.11188
G1 X155.348 Y143.491 E18.12957
G1 X155.703 Y144.086 E18.15102
G1 X155.817 Y144.769 E18.17246
G1 X155.822 Y148.294 E18.28162
G1 X156.116 Y148.443 E18.29182
G1 X156.496 Y148.86 E18.30929
G1 X156.842 Y149.436 E18.3301
G1 X156.972 Y150.086 E18.35062
G1 X156.972 Y155.401 E18.5152
G1 X156.835 Y155.961 E18.53306
G1 X156.535 Y156.541 E18.55328
G1 X156.116 Y156.929 E18.57096
G1 X155.521 Y157.284 E18.59241
G1 X154.838 Y157.398 E18.61385
G1 X145.03 Y157.403 E18.91756
G1 X144.47 Y157.266 E18.93541
G1 X143.89 Y156.966 E18.95563
G1 X143.502 Y156.547 E18.97332
G1 X143.147 Y155.952 E18.99477
G1 X143.033 Y155.269 E19.01621
G1 X143.028 Y150.004 E19.17924
G1 X143.165 Y149.444 E19.1971
G1 X143.465 Y148.864 E19.21732
G1 X143.89 Y148.472 E19.23522
G1 X144.178 Y148.3 E19.24561
G1 X144.178 Y144.637 E19.35903
G1 X144.28 Y144.22 E19.37233
G0 F540 X144.315 Y144.077
G0 X144.615 Y143.497
G0 F12000 X144.938 Y143.743
G1 F600 X145.276 Y143.43 E19.38659
G1 X145.767 Y143.137 E19.40429
G1 X146.378 Y143.035 E19.42348
G1 X153.77 Y143.035 E19.65237
G1 X154.241 Y143.15 E19.66738
G1 X154.714 Y143.395 E19.68388
G1 X155.027 Y143.733 E19.69814
G1 X155.32 Y144.224 E19.71585
G1 X155.422 Y144.835 E19.73503
G1 X155.422 Y148.54 E19.84976
G1 X155.87 Y148.766 E19.86529
G1 X156.175 Y149.101 E19.87932
G1 X156.463 Y149.582 E19.89668
G1 X156.572 Y150.125 E19.91383
G1 X156.572 Y155.351 E20.07566
G1 X156.457 Y155.822 E20.09067
G1 X156.212 Y156.295 E20.10716
G1 X155.874 Y156.608 E20.12143
G1 X155.383 Y156.901 E20.13913
G1 X154.772 Y157.003 E20.15832
G1 X145.08 Y157.003 E20.45843
G1 X144.609 Y156.888 E20.47344
G1 X144.136 Y156.643 E20.48994
G1 X143.823 Y156.305 E20.5042
G1 X143.53 Y155.814 E20.52191
G1 X143.428 Y155.203 E20.54109
G1 X143.428 Y150.054 E20.70053
G1 X143.543 Y149.583 E20.71554
G1 X143.788 Y149.11 E20.73204
G1 X144.128 Y148.796 E20.74637
G1 X144.578 Y148.528 E20.76259
G1 X144.578 Y144.687 E20.88152
G1 X144.63 Y144.476 E20.88825
G0 F540 X144.693 Y144.216
G0 X144.938 Y143.743
G0 F12000 X145.261 Y143.989
G1 F600 X145.518 Y143.751 E20.8991
G1 X145.905 Y143.52 E20.91305
G1 X146.378 Y143.435 E20.92794
G1 X153.72 Y143.435 E21.15528
G1 X154.102 Y143.528 E21.16746
G1 X154.468 Y143.718 E21.18023
G1 X154.706 Y143.975 E21.19107
G1 X154.937 Y144.362 E21.20503
G1 X155.022 Y144.835 E21.21991
G1 X155.022 Y148.839 E21.34389
G1 X155.296 Y148.918 E21.35272
G1 X155.623 Y149.089 E21.36415
G1 X155.854 Y149.342 E21.37476
G1 X156.085 Y149.728 E21.38869
G1 X156.172 Y150.163 E21.40242
G1 X156.172 Y155.301 E21.56152
G1 X156.079 Y155.683 E21.5737
G1 X155.889 Y156.049 E21.58647
G1 X155.632 Y156.287 E21.59731
G1 X155.245 Y156.518 E21.61127
G1 X154.772 Y156.603 E21.62615
G1 X145.13 Y156.603 E21.92472
G1 X144.748 Y156.51 E21.93689
G1 X144.382 Y156.32 E21.94966
G1 X144.144 Y156.063 E21.96051
G1 X143.913 Y155.676 E21.97446
G1 X143.828 Y155.203 E21.98934
G1 X143.828 Y150.104 E22.14724
G1 X143.921 Y149.722 E22.15941
G1 X144.111 Y149.356 E22.17218
G1 X144.368 Y149.118 E22.18303
G1 X144.679 Y148.933 E22.19423
G1 X144.978 Y148.843 E22.2039
G1 X144.978 Y144.737 E22.33104
G1 X144.98 Y144.732 E22.33121
G0 F540 X145.071 Y144.355
G0 X145.261 Y143.989
G0 F12000 X145.585 Y144.234
G1 F600 X145.723 Y144.095 E22.33727
G1 X146.05 Y143.9 E22.34906
G1 X146.378 Y143.835 E22.35942
G1 X153.671 Y143.835 E22.58525
G1 X153.96 Y143.905 E22.59446
G1 X154.223 Y144.042 E22.60364
G1 X154.362 Y144.18 E22.6097
G1 X154.557 Y144.507 E22.62149
G1 X154.622 Y144.835 E22.63185
G1 X154.622 Y149.202 E22.76707
G1 X154.866 Y149.213 E22.77463
G1 X155.11 Y149.272 E22.78241
G1 X155.375 Y149.411 E22.79167
G1 X155.511 Y149.547 E22.79763
G1 X155.706 Y149.873 E22.80939
G1 X155.772 Y150.202 E22.81978
G1 X155.772 Y155.252 E22.97616
G1 X155.702 Y155.541 E22.98536
G1 X155.565 Y155.804 E22.99455
G1 X155.427 Y155.943 E23.00061
G1 X155.1 Y156.138 E23.0124
G1 X154.772 Y156.203 E23.02276
G1 X145.179 Y156.203 E23.3198
G1 X144.89 Y156.133 E23.32901
G1 X144.627 Y155.996 E23.33819
G1 X144.488 Y155.858 E23.34426
G1 X144.293 Y155.531 E23.35605
G1 X144.228 Y155.203 E23.3664
G1 X144.228 Y150.153 E23.52278
G1 X144.298 Y149.864 E23.53199
G1 X144.435 Y149.601 E23.54117
G1 X144.573 Y149.462 E23.54723
G1 X144.843 Y149.301 E23.55697
G1 X145.135 Y149.213 E23.56641
G1 X145.378 Y149.202 E23.57394
G1 X145.378 Y144.993 E23.70428
G0 F540 X145.378 Y144.786
G0 X145.448 Y144.497
G0 X145.585 Y144.234
G0 F12000 X146.217 Y144.716
G1 F600 X146.378 Y144.635 E23.70986
G1 X153.622 Y144.635 E23.93417
G1 X153.741 Y144.674 E23.93805
G1 X153.822 Y144.835 E23.94363
G1 X153.822 Y150.003 E24.10365
G1 X154.772 Y150.002 E24.13307
G1 X154.89 Y150.041 E24.13692
G1 X154.972 Y150.202 E24.14251
G1 X154.972 Y155.203 E24.29737
G1 X154.933 Y155.322 E24.30125
G1 X154.772 Y155.403 E24.30683
G1 X145.228 Y155.403 E24.60236
G1 X145.109 Y155.364 E24.60624
G1 X145.028 Y155.203 E24.61182
G1 X145.028 Y150.202 E24.76668
G1 X145.067 Y150.083 E24.77055
G1 X145.228 Y150.002 E24.77614
G1 X146.178 Y150.003 E24.80555
G1 X146.178 Y145.51 E24.94468
G0 F540 X146.178 Y144.835
G0 X146.217 Y144.716
G0 F12000 X145.928 Y144.439
G1 F600 X146.198 Y144.278 E24.95441
G1 X146.378 Y144.235 E24.96014
G1 X153.622 Y144.235 E25.18446
G1 X153.866 Y144.294 E25.19223
G1 X154.018 Y144.385 E25.19771
G1 X154.179 Y144.655 E25.20745
G1 X154.222 Y144.835 E25.21318
G1 X154.222 Y149.603 E25.36082
G1 X154.772 Y149.602 E25.37785
G1 X155.016 Y149.661 E25.38563
