;FLAVOR:Marlin
;TIME:3266
;Filament used: 1.50032m
;Layer height: 0.1
;MINX:81.79
;MINY:81.281
;MINZ:0.2
;MAXX:118.225
;MAXY:122.215
;MAXZ:17.9
;Generated with Cura_SteamEngine 5.4.0
M82 ;absolute extrusion mode
;SET_LED LED=WS2812 RED=0 GREEN=0.1 BLUE=0.2; #color teal
M140 S80.0 ; set bed temp  ; set bed temperature and continue 
M104 S250.0   ; set hot end temperature and continue
M106 S190; fan on for correct PID
G4  P3000 ; wait 3 sec
G28 ; Home all axes
G1 Z10 F300 ; Z raise
;G1 X20 Y20 F3000 ; go to parking pos.
M109 S250.0   ; wait for hot end temperature to reach e.g. 210 °C
M106 S0; fan off
	;SET_LED LED=WS2812 RED=0.18 GREEN=0 BLUE=0.20 ; color Purple
G29 ;Activate bed leveling compensation
	;SET_LED LED=WS2812 RED=0.2 GREEN=0.1 BLUE=0 ; color Orange - printing color
G4  P1000 ; wait a second
; prime nozzle

;G1 X190 Y30 F7200 ; move to start
;G1 Z0.3 F800 ; Move to layer height
;G92 E0.0 
;G1 X190 Y170 E20 F800 ; print prime line
;G1 X189 Y170 F7200 ; move to start
;G1 X189 Y30 E40 F800 ; print prime line

G1 X30 Y190 F7200 ; move to start
G1 Z0.3 F800 ; Move to layer height
G92 E0.0 
G1 X170 Y189 E20 F800 ; print prime line
G1 X170 Y188 F7200 ; move to start
G1 X30 Y188 E40 F800 ; print prime line
G92 E0
G92 E0
G1 F1800 E-0.3
;LAYER_COUNT:178
;LAYER:0
M107 P1
G1 F600 Z0.4
G0 F7200 X84.298 Y83.405 Z0.4
;TYPE:SKIRT
G1 F600 Z0.2
G1 F720 E0
G1 F1800 X85.495 Y82.483 E0.05654
G1 X86.075 Y82.164 E0.0813
G1 X87.33 Y81.657 E0.13195
G1 X88.534 Y81.38 E0.17818
G1 X89.658 Y81.281 E0.2204
G1 X110.145 Y81.342 E0.98698
G1 X110.806 Y81.443 E1.012
G1 X112.735 Y81.934 E1.08648
G1 X113.221 Y82.125 E1.10602
G1 X114.62 Y82.88 E1.1655
G1 X115.394 Y83.46 E1.20169
G1 X116.106 Y84.143 E1.23861
G1 X116.926 Y85.198 E1.2886
G1 X116.99 Y85.3 E1.29311
G1 X117.614 Y86.507 E1.34395
G1 X118.008 Y87.72 E1.39167
G1 X118.166 Y88.615 E1.42568
G1 X118.225 Y89.503 E1.45898
G1 X118.171 Y96.336 E1.71466
G1 X118.036 Y97.199 E1.74735
G1 X117.822 Y98.01 E1.77873
G1 X117.581 Y98.643 E1.80408
G1 X116.825 Y100.022 E1.86292
G1 X116.282 Y100.722 E1.89607
G1 X115.413 Y101.585 E1.94189
G1 X115.486 Y101.645 E1.94543
G1 X116.33 Y102.487 E1.99004
G1 X116.87 Y103.189 E2.02318
G1 X117.402 Y104.107 E2.06288
G1 X117.648 Y104.663 E2.08563
G1 X118.136 Y106.454 E2.15509
G1 X118.186 Y106.868 E2.17069
G1 X118.204 Y114.342 E2.45035
G1 X118.071 Y115.403 E2.49036
G1 X117.872 Y116.219 E2.52179
G1 X117.562 Y117.086 E2.55624
G1 X117.134 Y117.921 E2.59135
G1 X116.551 Y118.776 E2.63007
G1 X115.652 Y119.754 E2.67978
G1 X114.67 Y120.538 E2.7268
G1 X113.73 Y121.106 E2.76789
G1 X113.24 Y121.33 E2.78805
G1 X112.336 Y121.66 E2.82406
G1 X110.626 Y122.095 E2.89008
G1 X110.13 Y122.165 E2.90883
G1 X89.544 Y122.215 E3.67911
G1 X87.902 Y122.007 E3.74104
G1 X87.306 Y121.846 E3.76414
G1 X86.531 Y121.551 E3.79517
G1 X85.213 Y120.826 E3.85145
G1 X84.652 Y120.404 E3.87772
G1 X83.547 Y119.298 E3.93622
G1 X83.189 Y118.826 E3.95839
G1 X82.598 Y117.819 E4.00207
G1 X82.352 Y117.263 E4.02482
G1 X81.864 Y115.472 E4.09428
G1 X81.814 Y115.058 E4.10989
G1 X81.79 Y107.306 E4.39995
G1 X81.956 Y105.981 E4.44992
G1 X82.147 Y105.253 E4.47808
G1 X82.471 Y104.41 E4.51187
G1 X83.17 Y103.151 E4.56575
G1 X83.677 Y102.491 E4.59689
G1 X84.594 Y101.581 E4.64523
G1 X84.508 Y101.509 E4.64943
G1 X83.547 Y100.532 E4.70071
G1 X83.189 Y100.06 E4.72287
G1 X82.598 Y99.053 E4.76656
G1 X82.352 Y98.497 E4.78931
G1 X81.864 Y96.706 E4.85877
G1 X81.814 Y96.292 E4.87437
G1 X81.79 Y88.882 E5.15164
G1 X81.956 Y87.557 E5.20161
G1 X82.147 Y86.829 E5.22977
G1 X82.498 Y85.928 E5.26595
G1 X83.145 Y84.766 E5.31571
G1 X83.818 Y83.896 E5.35687
G1 X84.298 Y83.405 E5.38256
G0 F7200 X84.62 Y83.72
G1 F1800 X85.714 Y82.876 E5.43427
G1 X86.245 Y82.581 E5.45699
G1 X87.431 Y82.096 E5.50494
G1 X88.635 Y81.819 E5.55117
G1 X89.657 Y81.731 E5.58955
G1 X110.079 Y81.787 E6.35369
G1 X110.696 Y81.879 E6.37704
G1 X112.57 Y82.353 E6.44937
G1 X113.056 Y82.544 E6.4689
G1 X114.351 Y83.241 E6.52393
G1 X115.082 Y83.785 E6.55803
G1 X115.794 Y84.468 E6.59495
G1 X116.548 Y85.442 E6.64103
G1 X116.59 Y85.507 E6.64393
G1 X117.214 Y86.714 E6.69477
G1 X117.565 Y87.8 E6.73748
G1 X117.717 Y88.645 E6.7696
G1 X117.775 Y89.5 E6.80167
G1 X117.726 Y96.266 E7.05484
G1 X117.591 Y97.129 E7.08753
G1 X117.401 Y97.85 E7.11543
G1 X117.16 Y98.483 E7.14077
G1 X116.468 Y99.748 E7.19472
G1 X115.964 Y100.403 E7.22565
G1 X115.12 Y101.245 E7.27026
G1 X114.673 Y101.583 E7.29122
G1 X115.168 Y101.964 E7.3146
G1 X116.012 Y102.806 E7.35921
G1 X116.481 Y103.416 E7.388
G1 X116.99 Y104.289 E7.42581
G1 X117.236 Y104.845 E7.44856
G1 X117.689 Y106.508 E7.51305
G1 X117.739 Y106.922 E7.52866
G1 X117.757 Y114.286 E7.8042
G1 X117.624 Y115.347 E7.84421
G1 X117.448 Y116.067 E7.87194
G1 X117.138 Y116.934 E7.9064
G1 X116.762 Y117.667 E7.93722
G1 X116.179 Y118.522 E7.97594
G1 X115.322 Y119.448 E8.02315
G1 X114.391 Y120.185 E8.06758
G1 X113.542 Y120.697 E8.10468
G1 X113.086 Y120.907 E8.12347
G1 X112.182 Y121.237 E8.15948
G1 X110.563 Y121.649 E8.22199
G1 X110.067 Y121.719 E8.24073
G1 X89.543 Y121.765 E9.00869
G1 X88.018 Y121.572 E9.06621
G1 X87.466 Y121.425 E9.08758
G1 X86.691 Y121.13 E9.11861
G1 X85.484 Y120.466 E9.17016
G1 X84.923 Y120.044 E9.19642
G1 X83.906 Y119.026 E9.25027
G1 X83.548 Y118.554 E9.27243
G1 X83.01 Y117.637 E9.31221
G1 X82.764 Y117.081 E9.33496
G1 X82.311 Y115.418 E9.39946
G1 X82.261 Y115.004 E9.41506
G1 X82.237 Y107.362 E9.70101
G1 X82.403 Y106.037 E9.75097
G1 X82.567 Y105.414 E9.77508
G1 X82.891 Y104.571 E9.80887
G1 X83.528 Y103.423 E9.858
G1 X83.994 Y102.81 E9.88681
G1 X84.981 Y101.83 E9.93885
G1 X85.328 Y101.574 E9.95499
G1 X84.828 Y101.193 E9.97851
G1 X83.906 Y100.26 E10.02759
G1 X83.548 Y99.788 E10.04976
G1 X83.01 Y98.871 E10.08954
G1 X82.764 Y98.315 E10.11229
G1 X82.311 Y96.652 E10.17678
G1 X82.261 Y96.238 E10.19238
G1 X82.237 Y88.938 E10.46553
G1 X82.403 Y87.613 E10.5155
G1 X82.567 Y86.99 E10.5396
G1 X82.891 Y86.147 E10.5734
G1 X83.538 Y84.985 E10.62316
G1 X84.14 Y84.211 E10.65985
G1 X84.62 Y83.72 E10.68554
G0 F7200 X84.942 Y84.035
G1 F1800 X85.988 Y83.233 E10.73486
G1 X86.417 Y82.997 E10.75318
G1 X87.534 Y82.534 E10.79843
G1 X88.674 Y82.267 E10.84224
G1 X89.656 Y82.181 E10.87912
G1 X110.013 Y82.232 E11.64084
G1 X110.63 Y82.324 E11.66418
G1 X112.405 Y82.772 E11.73268
G1 X112.891 Y82.963 E11.75222
G1 X114.137 Y83.637 E11.80522
G1 X114.77 Y84.11 E11.83479
G1 X115.482 Y84.793 E11.87171
G1 X116.191 Y85.716 E11.91526
G1 X116.786 Y86.854 E11.96331
G1 X117.122 Y87.881 E12.00374
G1 X117.268 Y88.676 E12.03398
G1 X117.325 Y89.497 E12.06478
G1 X117.281 Y96.196 E12.31544
G1 X117.146 Y97.059 E12.34813
G1 X116.98 Y97.69 E12.37254
G1 X116.739 Y98.323 E12.39789
G1 X116.11 Y99.475 E12.447
G1 X115.646 Y100.084 E12.47565
G1 X114.802 Y100.926 E12.52026
G1 X114.141 Y101.418 E12.55109
G1 X113.835 Y101.593 E12.56428
G1 X114.237 Y101.818 E12.58152
G1 X114.85 Y102.283 E12.6103
G1 X115.694 Y103.125 E12.65491
G1 X116.093 Y103.644 E12.67941
G1 X116.578 Y104.471 E12.71528
G1 X116.824 Y105.027 E12.73803
G1 X117.242 Y106.562 E12.79756
G1 X117.292 Y106.976 E12.81316
G1 X117.307 Y114.287 E13.08672
G1 X117.187 Y115.241 E13.1227
G1 X117.024 Y115.915 E13.14865
G1 X116.714 Y116.782 E13.1831
G1 X116.389 Y117.415 E13.20973
G1 X115.847 Y118.218 E13.24598
G1 X115.042 Y119.096 E13.29055
G1 X114.158 Y119.8 E13.33283
G1 X113.352 Y120.289 E13.36811
G1 X112.931 Y120.485 E13.38548
G1 X112.07 Y120.801 E13.4198
G1 X110.5 Y121.203 E13.48044
G1 X110.004 Y121.273 E13.49918
G1 X89.542 Y121.315 E14.26483
G1 X88.134 Y121.137 E14.31793
G1 X87.582 Y120.99 E14.3393
G1 X86.907 Y120.735 E14.3663
G1 X85.755 Y120.106 E14.41542
G1 X85.194 Y119.684 E14.44168
G1 X84.265 Y118.754 E14.49087
G1 X83.907 Y118.282 E14.51303
G1 X83.422 Y117.455 E14.54891
G1 X83.176 Y116.899 E14.57166
G1 X82.758 Y115.364 E14.63119
G1 X82.708 Y114.95 E14.64679
G1 X82.687 Y107.361 E14.93075
G1 X82.839 Y106.15 E14.97642
G1 X82.988 Y105.573 E14.99872
G1 X83.285 Y104.788 E15.03012
G1 X83.888 Y103.693 E15.0769
G1 X84.312 Y103.128 E15.10333
G1 X85.248 Y102.192 E15.15286
G1 X85.859 Y101.742 E15.18125
G1 X86.162 Y101.569 E15.19431
G1 X85.816 Y101.378 E15.2091
G1 X85.147 Y100.876 E15.24039
G1 X84.265 Y99.988 E15.28722
G1 X83.907 Y99.516 E15.30939
G1 X83.422 Y98.689 E15.34526
G1 X83.176 Y98.133 E15.36801
G1 X82.758 Y96.598 E15.42754
G1 X82.708 Y96.184 E15.44314
G1 X82.687 Y88.937 E15.71431
G1 X82.839 Y87.726 E15.75998
G1 X82.988 Y87.149 E15.78228
G1 X83.285 Y86.364 E15.81368
G1 X83.894 Y85.26 E15.86086
G1 X84.462 Y84.526 E15.89559
G1 X84.942 Y84.035 E15.92128
G0 F7200 X85.264 Y84.35
G1 F1800 X86.208 Y83.626 E15.96579
G1 X86.589 Y83.413 E15.98213
G1 X87.706 Y82.95 E16.02737
G1 X88.714 Y82.715 E16.0661
G1 X89.655 Y82.631 E16.10145
G1 X109.948 Y82.677 E16.86077
G1 X110.521 Y82.761 E16.88244
G1 X112.24 Y83.191 E16.94874
G1 X112.726 Y83.382 E16.96828
G1 X113.869 Y83.999 E17.01688
G1 X114.458 Y84.435 E17.0443
G1 X115.17 Y85.118 E17.08122
G1 X115.833 Y85.989 E17.12218
G1 X116.359 Y86.996 E17.16469
G1 X116.679 Y87.962 E17.20276
G1 X116.825 Y88.757 E17.23301
G1 X116.875 Y89.494 E17.26065
G1 X116.836 Y96.126 E17.50881
G1 X116.701 Y96.989 E17.54149
G1 X116.559 Y97.532 E17.56249
G1 X116.343 Y98.109 E17.58555
G1 X115.75 Y99.204 E17.63214
G1 X115.328 Y99.765 E17.65841
G1 X114.484 Y100.607 E17.70302
G1 X113.918 Y101.027 E17.72939
G1 X113.292 Y101.385 E17.75637
G1 X112.841 Y101.574 E17.77467
G1 X112.926 Y101.61 E17.77812
G1 X113.967 Y102.178 E17.8225
G1 X114.532 Y102.602 E17.84893
G1 X115.376 Y103.444 E17.89354
G1 X115.734 Y103.916 E17.9157
G1 X116.166 Y104.653 E17.94767
G1 X116.412 Y105.209 E17.97042
G1 X116.795 Y106.616 E18.02498
G1 X116.845 Y107.03 E18.04058
G1 X116.857 Y114.288 E18.31216
G1 X116.749 Y115.137 E18.34418
G1 X116.6 Y115.763 E18.36826
G1 X116.29 Y116.63 E18.40271
G1 X116.016 Y117.163 E18.42514
G1 X115.474 Y117.966 E18.46139
G1 X114.712 Y118.79 E18.50338
G1 X113.925 Y119.415 E18.54099
G1 X113.119 Y119.904 E18.57626
G1 X112.775 Y120.063 E18.59044
G1 X111.958 Y120.365 E18.62304
G1 X110.437 Y120.757 E18.68181
G1 X109.941 Y120.827 E18.70055
G1 X89.541 Y120.865 E19.46387
G1 X88.25 Y120.702 E19.51256
G1 X87.698 Y120.555 E19.53394
G1 X87.121 Y120.339 E19.55699
G1 X86.026 Y119.746 E19.60358
G1 X85.465 Y119.324 E19.62985
G1 X84.624 Y118.482 E19.67438
G1 X84.266 Y118.01 E19.69655
G1 X83.834 Y117.273 E19.72851
G1 X83.588 Y116.717 E19.75126
G1 X83.205 Y115.31 E19.80582
G1 X83.155 Y114.896 E19.82143
G1 X83.137 Y107.36 E20.10341
G1 X83.275 Y106.261 E20.14485
G1 X83.41 Y105.73 E20.16535
G1 X83.68 Y105.004 E20.19434
G1 X84.248 Y103.963 E20.23871
G1 X84.672 Y103.398 E20.26514
G1 X85.516 Y102.553 E20.30983
G1 X86.082 Y102.133 E20.3362
G1 X86.708 Y101.775 E20.36318
G1 X87.155 Y101.588 E20.38132
G1 X86.084 Y101.017 E20.42673
G1 X85.465 Y100.558 E20.45556
G1 X84.624 Y99.716 E20.50009
G1 X84.266 Y99.244 E20.52226
G1 X83.834 Y98.507 E20.55422
G1 X83.588 Y97.951 E20.57697
G1 X83.205 Y96.544 E20.63154
G1 X83.155 Y96.13 E20.64714
G1 X83.137 Y88.936 E20.91632
G1 X83.275 Y87.837 E20.95777
G1 X83.41 Y87.306 E20.97827
G1 X83.68 Y86.58 E21.00725
G1 X84.251 Y85.534 E21.05184
G1 X84.784 Y84.841 E21.08456
G1 X85.264 Y84.35 E21.11025
G0 F7200 X85.586 Y84.665
G1 F1800 X86.428 Y84.019 E21.14996
G1 X86.809 Y83.806 E21.16629
G1 X87.81 Y83.388 E21.20688
G1 X88.755 Y83.163 E21.24323
G1 X89.654 Y83.081 E21.27701
G1 X109.885 Y83.123 E22.03401
G1 X110.413 Y83.198 E22.05396
G1 X112.075 Y83.61 E22.11803
G1 X112.561 Y83.801 E22.13757
G1 X113.603 Y84.362 E22.18185
G1 X114.146 Y84.76 E22.20704
G1 X114.858 Y85.443 E22.24396
G1 X115.435 Y86.2 E22.27957
G1 X115.932 Y87.139 E22.31933
G1 X116.236 Y88.043 E22.35501
G1 X116.382 Y88.838 E22.38526
G1 X116.425 Y89.492 E22.40978
G1 X116.391 Y96.056 E22.6554
G1 X116.256 Y96.919 E22.68808
G1 X116.136 Y97.377 E22.70579
G1 X115.946 Y97.896 E22.72648
G1 X115.39 Y98.933 E22.7705
G1 X114.968 Y99.494 E22.79677
G1 X114.214 Y100.247 E22.83664
G1 X113.695 Y100.636 E22.86091
G1 X113.069 Y100.994 E22.88789
G1 X112.216 Y101.344 E22.92239
G1 X111.527 Y101.529 E22.94909
G1 X111.122 Y101.59 E22.96441
G1 X111.554 Y101.642 E22.98069
G1 X112.045 Y101.763 E22.99962
G1 X112.712 Y102.006 E23.02618
G1 X113.697 Y102.538 E23.06807
G1 X114.262 Y102.962 E23.0945
G1 X115.017 Y103.716 E23.13442
G1 X115.375 Y104.188 E23.15659
G1 X115.754 Y104.835 E23.18465
G1 X116 Y105.391 E23.2074
G1 X116.348 Y106.67 E23.25699
G1 X116.398 Y107.084 E23.2726
G1 X116.41 Y114.233 E23.5401
G1 X116.311 Y115.034 E23.5703
G1 X116.176 Y115.611 E23.59247
G1 X115.866 Y116.478 E23.62692
G1 X115.643 Y116.911 E23.64515
G1 X115.101 Y117.714 E23.6814
G1 X114.431 Y118.439 E23.71833
G1 X113.691 Y119.031 E23.75379
G1 X112.929 Y119.496 E23.7872
G1 X112.618 Y119.641 E23.80004
G1 X111.845 Y119.929 E23.8309
G1 X110.374 Y120.311 E23.88777
G1 X109.878 Y120.381 E23.90651
G1 X89.54 Y120.415 E24.66751
G1 X88.365 Y120.267 E24.71183
G1 X87.853 Y120.132 E24.73164
G1 X87.334 Y119.942 E24.75232
G1 X86.297 Y119.386 E24.79635
G1 X85.736 Y118.964 E24.82261
G1 X84.983 Y118.21 E24.86249
G1 X84.625 Y117.738 E24.88465
G1 X84.246 Y117.091 E24.91271
G1 X84 Y116.535 E24.93546
G1 X83.652 Y115.256 E24.98506
G1 X83.602 Y114.842 E25.00066
G1 X83.587 Y107.359 E25.28066
G1 X83.712 Y106.37 E25.31796
G1 X83.833 Y105.884 E25.3367
G1 X84.076 Y105.218 E25.36322
G1 X84.608 Y104.233 E25.40511
G1 X85.032 Y103.668 E25.43154
G1 X85.786 Y102.913 E25.47147
G1 X86.305 Y102.524 E25.49574
G1 X86.931 Y102.166 E25.52272
G1 X87.784 Y101.816 E25.55722
G1 X88.473 Y101.631 E25.58392
G1 X88.891 Y101.569 E25.59973
G1 X88.306 Y101.489 E25.62182
G1 X87.853 Y101.366 E25.63938
G1 X87.334 Y101.176 E25.66006
G1 X86.297 Y100.62 E25.70409
G1 X85.736 Y100.198 E25.73036
G1 X84.983 Y99.444 E25.77023
G1 X84.625 Y98.972 E25.7924
G1 X84.246 Y98.325 E25.82046
G1 X84 Y97.769 E25.84321
G1 X83.652 Y96.49 E25.8928
G1 X83.602 Y96.076 E25.90841
G1 X83.587 Y88.935 E26.17561
G1 X83.712 Y87.946 E26.21291
G1 X83.833 Y87.46 E26.23165
G1 X84.076 Y86.794 E26.25817
G1 X84.609 Y85.807 E26.30015
G1 X85.106 Y85.156 E26.33079
G1 X85.586 Y84.665 E26.35648
G0 F7200 X85.908 Y84.98
G1 F1800 X86.651 Y84.41 E26.39152
G1 X86.985 Y84.22 E26.4059
G1 X87.916 Y83.825 E26.44374
G1 X88.797 Y83.611 E26.47767
G1 X89.653 Y83.531 E26.50984
G1 X109.822 Y83.569 E27.26451
G1 X110.35 Y83.644 E27.28447
G1 X111.91 Y84.029 E27.34459
G1 X112.396 Y84.22 E27.36413
G1 X113.339 Y84.727 E27.40419
G1 X113.834 Y85.085 E27.42705
G1 X114.546 Y85.768 E27.46397
G1 X115.038 Y86.413 E27.49432
G1 X115.506 Y87.285 E27.53135
G1 X115.794 Y88.126 E27.56462
G1 X115.933 Y88.868 E27.59286
G1 X115.975 Y89.49 E27.61619
G1 X115.946 Y95.986 E27.85926
G1 X115.811 Y96.849 E27.89194
G1 X115.713 Y97.222 E27.90637
G1 X115.523 Y97.741 E27.92705
G1 X115.03 Y98.662 E27.96614
G1 X114.608 Y99.223 E27.99241
G1 X113.942 Y99.888 E28.02762
G1 X113.47 Y100.246 E28.04979
G1 X112.896 Y100.578 E28.0746
G1 X112.099 Y100.909 E28.10689
G1 X111.41 Y101.094 E28.13359
G1 X110.826 Y101.177 E28.15566
G1 X89.538 Y101.199 E28.9522
G1 X88.423 Y101.055 E28.99427
G1 X88.008 Y100.943 E29.01036
G1 X87.489 Y100.753 E29.03104
G1 X86.568 Y100.26 E29.07012
G1 X86.007 Y99.838 E29.09639
G1 X85.342 Y99.172 E29.13161
G1 X84.984 Y98.7 E29.15377
G1 X84.658 Y98.143 E29.17792
G1 X84.412 Y97.587 E29.20067
G1 X84.099 Y96.436 E29.2453
G1 X84.049 Y96.022 E29.26091
G1 X84.037 Y88.934 E29.52612
G1 X84.149 Y88.055 E29.55928
G1 X84.27 Y87.569 E29.57802
G1 X84.473 Y87.006 E29.60041
G1 X84.968 Y86.079 E29.63974
G1 X85.428 Y85.471 E29.66826
G1 X85.908 Y84.98 E29.69396
G0 F7200 X86.23 Y85.295
G1 F1800 X86.877 Y84.799 E29.72446
G1 X87.163 Y84.633 E29.73683
G1 X88.025 Y84.262 E29.77195
G1 X88.84 Y84.059 E29.80338
G1 X89.652 Y83.981 E29.8339
G1 X109.759 Y84.015 E30.58626
G1 X110.287 Y84.09 E30.60621
G1 X111.745 Y84.448 E30.66239
G1 X112.231 Y84.639 E30.68193
G1 X113.125 Y85.123 E30.71996
G1 X113.568 Y85.448 E30.74052
G1 X114.188 Y86.041 E30.77263
G1 X114.68 Y86.686 E30.80298
G1 X115.08 Y87.431 E30.83462
G1 X115.368 Y88.272 E30.86788
G1 X115.484 Y88.899 E30.89174
G1 X115.525 Y89.488 E30.91383
G1 X115.501 Y95.916 E31.15436
G1 X115.366 Y96.779 E31.18704
G1 X115.29 Y97.067 E31.19818
G1 X115.1 Y97.586 E31.21886
