;FLAVOR:Marlin
;TIME:1827
;Filament used: 1.33003m
;Layer height: 0.2
;MINX:47.7
;MINY:47.7
;MINZ:0.2
;MAXX:152.3
;MAXY:152.3
;MAXZ:3
;Generated with Cura_SteamEngine 5.4.0
M82 ;absolute extrusion mode
M140 S70.0 ; set bed temp  ; set bed temperature and continue 
M104 S220.0   ; set hot end temperature and continue
M106 S190; fan on for correct PID
G4  P3000 ; wait 3 sec
;G1 X20 Y20 F3000 ; go to parking pos.
M109 S220.0   ; wait for hot end temperature to reach e.g. 210 °C
M106 S0; fan off
G28 ; Home all axes
G1 Z10 F300 ; Z raise
;BED_MESH_CALIBRATE PROFILE=mesh1 METHOD=automatic
G4  P1000 ; wait a second
; prime nozzle

;G1 X190 Y30 F7200 ; move to start
;G1 Z0.3 F800 ; Move to layer height
;G92 E0.0 
;G1 X190 Y170 E20 F800 ; print prime line
;G1 X189 Y170 F7200 ; move to start
;G1 X189 Y30 E40 F800 ; print prime line

;G1 X190 Y30 F7200 ; move to start
;G1 Z0.3 F800 ; Move to layer height
;G92 E0.0 
;G1 X185 Y170 E20 F800 ; print prime line
;G1 X184 Y170 F7200 ; move to start
;G1 X184 Y30 E40 F800 ; print prime line

G1 X30 Y185 F7200 ; move to start
G1 Z0.3 F800 ; Move to layer height
G92 E0.0 
G1 X170 Y185 E20 F800 ; print prime line
G1 X170 Y184 F7200 ; move to start
G1 X30 Y184 E40 F800 ; print prime line
G92 E0
G92 E0
G1 F1800 E-0.2
;LAYER_COUNT:14
;LAYER:0
M107 P1
M205 X10 Y10
G1 F600 Z0.4
;MESH:CalibrationCombined.stl
G0 F5760 X99.357 Y144.231 Z0.4
;TYPE:WALL-OUTER
G1 F600 Z0.2
G1 F720 E0
G1 F1800 X99.43 Y143.965 E0.00917
G1 X99.529 Y143.756 E0.01687
G1 X99.671 Y143.56 E0.02492
G1 X99.836 Y143.399 E0.03258
G1 X100.006 Y143.279 E0.0395
G1 X100.245 Y143.169 E0.04826
G1 X100.465 Y143.109 E0.05584
G1 X100.685 Y143.09 E0.06318
G1 X102.796 Y143.089 E0.1334
G1 X102.831 Y143.068 E0.13475
G1 X102.841 Y143.028 E0.13613
G1 X102.84 Y126.935 E0.67138
G1 X102.857 Y126.731 E0.67819
G1 X102.93 Y126.465 E0.68736
G1 X103.029 Y126.256 E0.69506
G1 X103.171 Y126.06 E0.70311
G1 X103.336 Y125.899 E0.71077
G1 X103.538 Y125.761 E0.71891
G1 X103.745 Y125.669 E0.72644
G1 X103.981 Y125.607 E0.73456
G1 X104.185 Y125.59 E0.74137
G1 X106.301 Y125.589 E0.81175
G1 X106.335 Y125.566 E0.81311
G1 X106.34 Y111.177 E1.29169
G1 X106.359 Y110.963 E1.29884
G1 X106.424 Y110.73 E1.30688
G1 X106.511 Y110.537 E1.31392
G1 X106.66 Y110.322 E1.32263
G1 X106.822 Y110.16 E1.33024
G1 X107.013 Y110.024 E1.33804
G1 X107.23 Y109.924 E1.34599
G1 X107.462 Y109.86 E1.354
G1 X107.701 Y109.84 E1.36197
G1 X116.804 Y109.838 E1.66474
G1 X116.827 Y109.824 E1.66563
G1 X116.839 Y109.797 E1.66662
G1 X116.84 Y107.685 E1.73686
G1 X116.857 Y107.481 E1.74367
G1 X116.93 Y107.215 E1.75285
G1 X117.029 Y107.006 E1.76054
G1 X117.171 Y106.81 E1.76859
G1 X117.322 Y106.66 E1.77567
G1 X117.506 Y106.529 E1.78318
G1 X117.745 Y106.419 E1.79193
G1 X117.963 Y106.359 E1.79945
G1 X118.185 Y106.34 E1.80686
G1 X134.296 Y106.339 E2.34271
G1 X134.331 Y106.318 E2.34407
G1 X134.341 Y106.278 E2.34544
G1 X134.34 Y104.185 E2.41506
G1 X134.357 Y103.981 E2.42187
G1 X134.43 Y103.715 E2.43104
G1 X134.529 Y103.506 E2.43873
G1 X134.671 Y103.31 E2.44678
G1 X134.836 Y103.149 E2.45445
G1 X135.006 Y103.029 E2.46137
G1 X135.245 Y102.919 E2.47012
G1 X135.463 Y102.859 E2.47764
G1 X135.685 Y102.84 E2.48505
G1 X151.791 Y102.838 E3.02074
G1 X151.829 Y102.821 E3.02212
G1 X151.841 Y102.773 E3.02377
G1 X151.834 Y100.685 E3.09322
G1 X151.805 Y100.665 E3.09439
G1 X144.435 Y100.66 E3.33952
G1 X144.231 Y100.643 E3.34633
G1 X143.965 Y100.57 E3.3555
G1 X143.756 Y100.471 E3.36319
G1 X143.56 Y100.329 E3.37124
G1 X143.421 Y100.19 E3.37778
G1 X143.262 Y99.963 E3.387
G1 X143.178 Y99.784 E3.39357
G1 X143.11 Y99.534 E3.40219
G1 X143.091 Y99.316 E3.40947
G1 X143.085 Y97.192 E3.48011
G1 X143.06 Y97.165 E3.48134
G1 X126.935 Y97.16 E4.01766
G1 X126.731 Y97.143 E4.02447
G1 X126.465 Y97.07 E4.03364
G1 X126.256 Y96.971 E4.04133
G1 X126.06 Y96.829 E4.04938
G1 X125.921 Y96.69 E4.05592
G1 X125.762 Y96.463 E4.06514
G1 X125.678 Y96.284 E4.07172
G1 X125.608 Y96.018 E4.08086
G1 X125.591 Y95.816 E4.08761
G1 X125.59 Y93.709 E4.15768
G1 X125.583 Y93.685 E4.15852
G1 X125.563 Y93.665 E4.15946
G1 X107.685 Y93.66 E4.75408
G1 X107.48 Y93.643 E4.76092
G1 X107.23 Y93.576 E4.76953
G1 X107.029 Y93.485 E4.77687
G1 X106.822 Y93.34 E4.78528
G1 X106.66 Y93.178 E4.7929
G1 X106.512 Y92.963 E4.80158
G1 X106.416 Y92.75 E4.80935
G1 X106.36 Y92.536 E4.81671
G1 X106.341 Y92.3 E4.82458
G1 X106.34 Y74.461 E5.41791
G1 X106.325 Y74.424 E5.41924
G1 X106.299 Y74.415 E5.42015
G1 X104.186 Y74.41 E5.49043
G1 X103.981 Y74.393 E5.49727
G1 X103.715 Y74.32 E5.50645
G1 X103.506 Y74.221 E5.51414
G1 X103.31 Y74.079 E5.52219
G1 X103.171 Y73.94 E5.52873
G1 X103.012 Y73.713 E5.53794
G1 X102.928 Y73.534 E5.54452
G1 X102.86 Y73.286 E5.55307
G1 X102.841 Y73.066 E5.56042
G1 X102.839 Y56.945 E6.0966
G1 X102.814 Y56.915 E6.0979
G1 X100.685 Y56.91 E6.16871
G1 X100.465 Y56.891 E6.17606
G1 X100.215 Y56.82 E6.1847
G1 X100.006 Y56.721 E6.19239
G1 X99.81 Y56.579 E6.20044
G1 X99.671 Y56.44 E6.20698
G1 X99.512 Y56.213 E6.2162
G1 X99.428 Y56.035 E6.22275
G1 X99.36 Y55.786 E6.23133
G1 X99.341 Y55.566 E6.23868
G1 X99.334 Y48.185 E6.48417
G1 X99.305 Y48.165 E6.48534
G1 X97.184 Y48.167 E6.55589
G1 X97.165 Y48.185 E6.55676
G1 X97.16 Y64.315 E7.09324
G1 X97.141 Y64.537 E7.10065
G1 X97.07 Y64.785 E7.10923
G1 X96.971 Y64.994 E7.11693
G1 X96.829 Y65.19 E7.12498
G1 X96.664 Y65.351 E7.13264
G1 X96.494 Y65.471 E7.13956
G1 X96.255 Y65.581 E7.14831
G1 X96.019 Y65.643 E7.15643
G1 X95.815 Y65.66 E7.16324
G1 X93.695 Y65.661 E7.23375
G1 X93.664 Y65.686 E7.23508
G1 X93.66 Y81.815 E7.77153
G1 X93.64 Y82.038 E7.77897
G1 X93.57 Y82.285 E7.78751
G1 X93.481 Y82.478 E7.79458
G1 X93.34 Y82.678 E7.80272
G1 X93.164 Y82.851 E7.81093
G1 X92.994 Y82.971 E7.81785
G1 X92.755 Y83.081 E7.8266
G1 X92.519 Y83.143 E7.83472
G1 X92.315 Y83.16 E7.84153
G1 X90.212 Y83.161 E7.91147
G1 X90.173 Y83.175 E7.91285
G1 X90.164 Y83.199 E7.9137
G1 X90.16 Y92.323 E8.21717
G1 X90.141 Y92.537 E8.22431
G1 X90.076 Y92.77 E8.23236
G1 X89.989 Y92.963 E8.2394
G1 X89.84 Y93.178 E8.2481
G1 X89.678 Y93.34 E8.25572
G1 X89.487 Y93.476 E8.26352
G1 X89.27 Y93.576 E8.27147
G1 X89.038 Y93.64 E8.27947
G1 X88.798 Y93.66 E8.28748
G1 X74.467 Y93.66 E8.76413
G1 X74.431 Y93.668 E8.76536
G1 X74.415 Y93.701 E8.76658
G1 X74.41 Y95.814 E8.83686
G1 X74.393 Y96.019 E8.8437
G1 X74.32 Y96.285 E8.85287
G1 X74.221 Y96.494 E8.86056
G1 X74.079 Y96.69 E8.86861
G1 X73.914 Y96.851 E8.87628
G1 X73.744 Y96.971 E8.8832
G1 X73.505 Y97.081 E8.89195
G1 X73.287 Y97.141 E8.89947
G1 X73.065 Y97.16 E8.90689
G1 X56.945 Y97.161 E9.44304
G1 X56.914 Y97.186 E9.44436
G1 X56.91 Y99.315 E9.51517
G1 X56.891 Y99.535 E9.52252
G1 X56.82 Y99.785 E9.53116
G1 X56.721 Y99.994 E9.53885
G1 X56.579 Y100.19 E9.5469
G1 X56.414 Y100.351 E9.55457
G1 X56.244 Y100.471 E9.56149
G1 X56.005 Y100.581 E9.57024
G1 X55.787 Y100.641 E9.57776
G1 X55.565 Y100.66 E9.58517
G1 X48.212 Y100.661 E9.82974
G1 X48.182 Y100.668 E9.83076
G1 X48.165 Y100.688 E9.83163
G1 X48.163 Y102.81 E9.90221
G1 X48.186 Y102.836 E9.90337
G1 X64.315 Y102.84 E10.43982
G1 X64.519 Y102.857 E10.44663
G1 X64.785 Y102.93 E10.4558
G1 X64.994 Y103.029 E10.46349
G1 X65.19 Y103.171 E10.47154
G1 X65.329 Y103.31 E10.47808
G1 X65.488 Y103.537 E10.4873
G1 X65.572 Y103.716 E10.49388
G1 X65.642 Y103.982 E10.50303
G1 X65.659 Y104.184 E10.50977
G1 X65.665 Y106.314 E10.58061
G1 X65.687 Y106.334 E10.5816
G1 X81.815 Y106.34 E11.11802
G1 X82.019 Y106.357 E11.12483
G1 X82.285 Y106.43 E11.134
G1 X82.478 Y106.519 E11.14107
G1 X82.678 Y106.66 E11.14921
G1 X82.846 Y106.829 E11.15714
G1 X82.988 Y107.037 E11.16551
G1 X83.072 Y107.216 E11.17209
G1 X83.142 Y107.482 E11.18124
G1 X83.16 Y107.7 E11.18851
G1 X83.161 Y109.787 E11.25793
G1 X83.168 Y109.818 E11.25898
G1 X83.201 Y109.836 E11.26023
G1 X88.815 Y109.84 E11.44696
G1 X89.019 Y109.857 E11.45377
G1 X89.27 Y109.924 E11.46241
G1 X89.471 Y110.015 E11.46974
G1 X89.678 Y110.16 E11.47815
G1 X89.84 Y110.322 E11.48577
G1 X89.988 Y110.537 E11.49445
G1 X90.084 Y110.75 E11.50222
G1 X90.14 Y110.964 E11.50958
G1 X90.159 Y111.2 E11.51745
G1 X90.162 Y116.804 E11.70384
G1 X90.187 Y116.835 E11.70517
G1 X92.314 Y116.84 E11.77591
G1 X92.519 Y116.857 E11.78276
G1 X92.785 Y116.93 E11.79193
G1 X92.994 Y117.029 E11.79962
G1 X93.18 Y117.162 E11.80723
G1 X93.341 Y117.323 E11.8148
G1 X93.48 Y117.521 E11.82285
G1 X93.579 Y117.732 E11.8306
G1 X93.642 Y117.982 E11.83917
G1 X93.659 Y118.184 E11.84592
G1 X93.664 Y134.305 E12.3821
G1 X93.691 Y134.335 E12.38344
G1 X95.815 Y134.34 E12.45409
G1 X96.019 Y134.357 E12.4609
G1 X96.285 Y134.43 E12.47007
G1 X96.494 Y134.529 E12.47776
G1 X96.69 Y134.671 E12.48581
G1 X96.829 Y134.81 E12.49235
G1 X96.97 Y135.007 E12.50041
G1 X97.084 Y135.25 E12.50934
G1 X97.142 Y135.482 E12.51729
G1 X97.159 Y135.684 E12.52403
G1 X97.161 Y151.787 E13.05962
G1 X97.169 Y151.82 E13.06075
G1 X97.186 Y151.835 E13.0615
G1 X99.279 Y151.84 E13.13112
G1 X99.318 Y151.833 E13.13244
G1 X99.335 Y151.813 E13.13331
G1 X99.34 Y144.435 E13.3787
G1 X99.357 Y144.231 E13.38551
G0 F5760 X99.41 Y144.038
G1 F1800 E13.18551
G0 F5760 X98.923 Y143.906
G0 X98.767 Y151.267
G0 X97.733 Y151.267
G0 X97.429 Y134.684
G0 X95.864 Y133.781
G0 X94.233 Y133.767
G0 X93.965 Y117.24
G0 X92.363 Y116.281
G0 X90.733 Y116.265
G0 X90.289 Y109.985
G0 X88.832 Y109.279
G0 X83.732 Y109.264
G0 X83.259 Y106.449
G0 X81.864 Y105.781
G0 X66.234 Y105.766
G0 X65.724 Y102.913
G0 X64.364 Y102.281
G0 X48.733 Y102.264
G0 X48.733 Y101.232
G0 X56.736 Y100.81
G0 X57.471 Y99.296
G0 X57.481 Y97.732
G0 X74.069 Y97.428
G0 X74.969 Y95.863
G0 X74.985 Y94.232
G0 X89.791 Y93.947
G0 X90.719 Y92.372
G0 X90.736 Y83.732
G0 X93.247 Y83.326
G0 X94.155 Y81.898
G0 X94.034 Y82.108
;TYPE:WALL-INNER
G1 F720 E13.38551
G1 F1800 X93.967 Y82.361 E13.39422
G1 X93.934 Y82.451 E13.3974
G1 X93.827 Y82.678 E13.40575
G1 X93.646 Y82.936 E13.41623
G1 X93.473 Y83.112 E13.42444
G1 X93.395 Y83.178 E13.42784
G1 X93.225 Y83.298 E13.43476
G1 X93.128 Y83.353 E13.43847
G1 X92.861 Y83.467 E13.44813
G1 X92.662 Y83.522 E13.45499
G1 X92.552 Y83.542 E13.45871
G1 X92.348 Y83.559 E13.46552
G1 X90.564 Y83.56 E13.52486
G1 X90.56 Y92.324 E13.81635
G1 X90.535 Y92.605 E13.82573
G1 X90.452 Y92.908 E13.83618
G1 X90.326 Y93.181 E13.84618
G1 X90.161 Y93.417 E13.85576
G1 X89.956 Y93.628 E13.86554
G1 X89.655 Y93.84 E13.87779
G1 X89.408 Y93.952 E13.88681
G1 X89.109 Y94.034 E13.89712
G1 X88.824 Y94.06 E13.90664
G1 X74.813 Y94.06 E14.37265
G1 X74.808 Y95.847 E14.43208
G1 X74.792 Y96.052 E14.43892
G1 X74.772 Y96.162 E14.44264
G1 X74.717 Y96.361 E14.44951
G1 X74.603 Y96.628 E14.45916
G1 X74.548 Y96.725 E14.46287
G1 X74.428 Y96.895 E14.46979
G1 X74.223 Y97.112 E14.47972
G1 X74.145 Y97.178 E14.48312
G1 X73.975 Y97.298 E14.49004
G1 X73.878 Y97.353 E14.49375
G1 X73.611 Y97.467 E14.50341
G1 X73.356 Y97.535 E14.51218
G1 X73.048 Y97.56 E14.52246
G1 X57.309 Y97.56 E15.04594
G1 X57.308 Y99.348 E15.10541
G1 X57.285 Y99.601 E15.11386
G1 X57.217 Y99.861 E15.1228
G1 X57.103 Y100.128 E15.13246
G1 X57.048 Y100.225 E15.13616
G1 X56.928 Y100.395 E15.14309
G1 X56.723 Y100.612 E15.15301
G1 X56.645 Y100.678 E15.15641
G1 X56.475 Y100.798 E15.16333
G1 X56.378 Y100.853 E15.16704
G1 X56.111 Y100.967 E15.1767
G1 X55.856 Y101.035 E15.18548
G1 X55.598 Y101.059 E15.19409
G1 X48.561 Y101.06 E15.42815
G1 X48.561 Y102.436 E15.47391
G1 X64.348 Y102.441 E15.99899
G1 X64.552 Y102.458 E16.0058
G1 X64.662 Y102.478 E16.00952
G1 X64.861 Y102.533 E16.01638
G1 X65.128 Y102.647 E16.02604
G1 X65.225 Y102.702 E16.02975
G1 X65.395 Y102.822 E16.03667
G1 X65.612 Y103.027 E16.0466
G1 X65.679 Y103.107 E16.05007
G1 X65.798 Y103.277 E16.05697
G1 X65.934 Y103.546 E16.067
G1 X65.971 Y103.648 E16.07061
G1 X66.023 Y103.846 E16.07741
G1 X66.04 Y103.948 E16.08085
G1 X66.059 Y104.2 E16.08926
G1 X66.062 Y105.938 E16.14706
G1 X81.848 Y105.942 E16.67211
G1 X82.108 Y105.966 E16.68079
G1 X82.361 Y106.033 E16.6895
G1 X82.451 Y106.066 E16.69269
G1 X82.678 Y106.173 E16.70103
G1 X82.936 Y106.354 E16.71152
G1 X83.155 Y106.575 E16.72186
G1 X83.298 Y106.777 E16.7301
G1 X83.434 Y107.046 E16.74012
G1 X83.471 Y107.148 E16.74373
G1 X83.541 Y107.448 E16.75398
G1 X83.56 Y107.7 E16.76238
G1 X83.56 Y109.436 E16.82012
G1 X88.824 Y109.44 E16.9952
G1 X89.109 Y109.466 E17.00472
G1 X89.408 Y109.548 E17.01503
G1 X89.655 Y109.66 E17.02405
G1 X89.917 Y109.839 E17.03461
G1 X90.161 Y110.083 E17.04608
G1 X90.325 Y110.319 E17.05564
G1 X90.454 Y110.594 E17.06575
G1 X90.534 Y110.896 E17.07614
G1 X90.558 Y111.151 E17.08466
G1 X90.561 Y116.436 E17.26044
G1 X92.347 Y116.441 E17.31984
G1 X92.552 Y116.458 E17.32668
G1 X92.662 Y116.478 E17.3304
G1 X92.861 Y116.533 E17.33727
G1 X93.128 Y116.647 E17.34692
G1 X93.225 Y116.702 E17.35063
G1 X93.425 Y116.845 E17.35881
G1 X93.647 Y117.065 E17.3692
G1 X93.826 Y117.32 E17.37957
G1 X93.955 Y117.596 E17.3897
G1 X94.023 Y117.846 E17.39832
G1 X94.04 Y117.948 E17.40175
G1 X94.059 Y118.2 E17.41016
G1 X94.061 Y133.939 E17.93364
G1 X95.848 Y133.941 E17.99308
G1 X96.052 Y133.958 E17.99989
G1 X96.162 Y133.978 E18.0036
G1 X96.361 Y134.033 E18.01047
G1 X96.628 Y134.147 E18.02013
G1 X96.725 Y134.202 E18.02384
G1 X96.895 Y134.322 E18.03076
G1 X97.112 Y134.527 E18.04069
G1 X97.179 Y134.607 E18.04416
G1 X97.298 Y134.778 E18.05109
G1 X97.433 Y135.046 E18.06107
G1 X97.471 Y135.148 E18.06469
G1 X97.523 Y135.346 E18.0715
G1 X97.54 Y135.448 E18.07493
G1 X97.559 Y135.701 E18.08337
G1 X97.561 Y151.439 E18.60682
G1 X98.939 Y151.439 E18.65265
G1 X98.941 Y144.402 E18.88671
G1 X98.958 Y144.198 E18.89351
G1 X98.978 Y144.088 E18.89723
G1 X99.033 Y143.889 E18.9041
G1 X99.147 Y143.622 E18.91376
G1 X99.202 Y143.525 E18.91746
G1 X99.322 Y143.355 E18.92439
G1 X99.527 Y143.138 E18.93431
G1 X99.605 Y143.072 E18.93771
G1 X99.775 Y142.952 E18.94463
G1 X99.872 Y142.897 E18.94834
G1 X100.139 Y142.783 E18.958
G1 X100.338 Y142.728 E18.96487
G1 X100.448 Y142.708 E18.96858
G1 X100.701 Y142.69 E18.97702
G1 X102.441 Y142.689 E19.03489
G1 X102.442 Y126.902 E19.55997
G1 X102.458 Y126.698 E19.56678
G1 X102.478 Y126.588 E19.57049
G1 X102.533 Y126.389 E19.57736
G1 X102.647 Y126.122 E19.58702
G1 X102.702 Y126.025 E19.59073
G1 X102.822 Y125.855 E19.59765
G1 X103.027 Y125.638 E19.60758
G1 X103.105 Y125.572 E19.61097
G1 X103.289 Y125.443 E19.61845
G1 X103.549 Y125.316 E19.62807
G1 X103.838 Y125.228 E19.63812
G1 X103.948 Y125.208 E19.64184
G1 X104.201 Y125.19 E19.65028
G1 X105.939 Y125.187 E19.70808
G1 X105.94 Y111.176 E20.17409
G1 X105.965 Y110.895 E20.18347
G1 X106.048 Y110.592 E20.19392
G1 X106.174 Y110.319 E20.20392
G1 X106.339 Y110.083 E20.2135
G1 X106.544 Y109.872 E20.22328
G1 X106.845 Y109.66 E20.23553
G1 X107.092 Y109.548 E20.24455
G1 X107.391 Y109.466 E20.25486
G1 X107.676 Y109.44 E20.26438
G1 X116.439 Y109.439 E20.55584
G1 X116.441 Y107.652 E20.61527
G1 X116.458 Y107.448 E20.62208
G1 X116.478 Y107.338 E20.6258
G1 X116.533 Y107.139 E20.63267
G1 X116.647 Y106.872 E20.64233
G1 X116.702 Y106.775 E20.64603
G1 X116.845 Y106.575 E20.65421
G1 X117.064 Y106.354 E20.66456
G1 X117.275 Y106.202 E20.67321
G1 X117.372 Y106.147 E20.67692
G1 X117.639 Y106.033 E20.68657
G1 X117.894 Y105.965 E20.69535
G1 X118.152 Y105.942 E20.70397
G1 X133.94 Y105.939 E21.22908
G1 X133.941 Y104.152 E21.28851
G1 X133.958 Y103.948 E21.29532
G1 X133.978 Y103.838 E21.29904
G1 X134.033 Y103.639 E21.30591
G1 X134.147 Y103.372 E21.31556
G1 X134.202 Y103.275 E21.31927
G1 X134.388 Y103.027 E21.32958
G1 X134.605 Y102.822 E21.33951
G1 X134.775 Y102.702 E21.34643
G1 X134.872 Y102.647 E21.35014
G1 X135.139 Y102.533 E21.3598
G1 X135.394 Y102.465 E21.36858
G1 X135.652 Y102.441 E21.37719
G1 X151.441 Y102.44 E21.90234
G1 X151.441 Y101.063 E21.94814
G1 X144.402 Y101.059 E22.18225
G1 X144.198 Y101.042 E22.18906
G1 X144.088 Y101.022 E22.19278
G1 X143.889 Y100.967 E22.19965
G1 X143.622 Y100.853 E22.20931
G1 X143.526 Y100.798 E22.21298
G1 X143.355 Y100.678 E22.21993
G1 X143.138 Y100.473 E22.22986
G1 X143.071 Y100.393 E22.23333
G1 X142.952 Y100.223 E22.24023
G1 X142.816 Y99.954 E22.25026
G1 X142.779 Y99.852 E22.25387
G1 X142.709 Y99.552 E22.26411
G1 X142.691 Y99.3 E22.27252
G1 X142.69 Y97.561 E22.33036
G1 X126.952 Y97.561 E22.85381
G1 X126.698 Y97.542 E22.86228
G1 X126.588 Y97.522 E22.866
