;FLAVOR:Marlin
;TIME:784
;Filament used: 0.60925m
;Layer height: 0.2
;MINX:73.024
;MINY:88.705
;MINZ:0.2
;MAXX:126.976
;MAXY:111.295
;MAXZ:4.6
;Generated with Cura_SteamEngine 5.4.0
M82 ;absolute extrusion mode
M140 S70.0 ; set bed temp  ; set bed temperature and continue 
M104 S220.0   ; set hot end temperature and continue
M106 S190; fan on for correct PID
G4  P3000 ; wait 3 sec
;G1 X20 Y20 F3000 ; go to parking pos.
M109 S220.0   ; wait for hot end temperature to reach e.g. 210 °C
M106 S0; fan off
G28 ; Home all axes
G1 Z10 F300 ; Z raise
;BED_MESH_CALIBRATE PROFILE=mesh1 METHOD=automatic
G4  P1000 ; wait a second
; prime nozzle

;G1 X190 Y30 F7200 ; move to start
;G1 Z0.3 F800 ; Move to layer height
;G92 E0.0 
;G1 X190 Y170 E20 F800 ; print prime line
;G1 X189 Y170 F7200 ; move to start
;G1 X189 Y30 E40 F800 ; print prime line

;G1 X190 Y30 F7200 ; move to start
;G1 Z0.3 F800 ; Move to layer height
;G92 E0.0 
;G1 X185 Y170 E20 F800 ; print prime line
;G1 X184 Y170 F7200 ; move to start
;G1 X184 Y30 E40 F800 ; print prime line

G1 X30 Y185 F7200 ; move to start
G1 Z0.3 F800 ; Move to layer height
G92 E0.0 
G1 X170 Y185 E20 F800 ; print prime line
G1 X170 Y184 F7200 ; move to start
G1 X30 Y184 E40 F800 ; print prime line
G92 E0
G92 E0
G1 F1800 E-2
;LAYER_COUNT:22
;LAYER:0
M107 P1
M205 X10 Y10
G1 F600 Z0.4
;MESH:PSUendpanel.stl
G0 F5760 X104.013 Y88.706 Z0.4
;TYPE:WALL-OUTER
G1 F600 Z0.2
G1 F720 E0
G1 F1500 X96.188 Y88.705 E0.26026
G1 X96.188 Y92.505 E0.38665
G1 X96.18 Y92.562 E0.38856
G1 X96.148 Y92.626 E0.39094
G1 X96.083 Y92.682 E0.3938
G1 X96.023 Y92.703 E0.39591
G1 X89.063 Y92.705 E0.6274
G1 X88.968 Y92.682 E0.63065
G1 X88.902 Y92.626 E0.63353
G1 X88.87 Y92.562 E0.63591
G1 X88.863 Y92.505 E0.63782
G1 X88.863 Y88.706 E0.76418
G1 X81.039 Y88.705 E1.0244
G1 X81.038 Y95.666 E1.25593
G1 X118.863 Y95.666 E2.51399
G1 X118.863 Y88.705 E2.74552
G1 X111.038 Y88.705 E3.00578
G1 X111.038 Y92.505 E3.13217
G1 X111.03 Y92.562 E3.13408
G1 X110.998 Y92.626 E3.13646
G1 X110.933 Y92.682 E3.13931
G1 X110.873 Y92.703 E3.14143
G1 X104.213 Y92.705 E3.36294
G1 X104.118 Y92.682 E3.36619
G1 X104.052 Y92.626 E3.36907
G1 X104.02 Y92.562 E3.37145
G1 X104.013 Y92.505 E3.37336
G1 X104.013 Y88.706 E3.49972
G0 F5760 X103.813 Y88.706
G1 F1800 E1.49972
G0 F5760 X103.344 Y89.206
G0 X96.428 Y89.206
G0 X96.416 Y92.933
G0 X88.635 Y92.933
G0 X88.625 Y89.579
G0 X88.194 Y89.206
G0 X88.463 Y89.106
;TYPE:WALL-INNER
G1 F720 E3.49972
G1 F1500 X81.439 Y89.105 E3.73333
G1 X81.438 Y95.266 E3.93825
G1 X118.463 Y95.266 E5.16971
G1 X118.463 Y89.105 E5.37462
G1 X111.438 Y89.105 E5.60827
G1 X111.438 Y92.505 E5.72136
G1 X111.414 Y92.674 E5.72704
G1 X111.318 Y92.866 E5.73418
G1 X111.121 Y93.035 E5.74281
G1 X110.942 Y93.097 E5.74911
G1 X110.838 Y93.105 E5.75258
G1 X104.213 Y93.105 E5.97293
G1 X103.93 Y93.035 E5.98262
G1 X103.732 Y92.866 E5.99128
G1 X103.636 Y92.674 E5.99842
G1 X103.613 Y92.505 E6.00409
G1 X103.613 Y89.106 E6.11715
G1 X96.588 Y89.105 E6.3508
G1 X96.588 Y92.505 E6.46388
G1 X96.564 Y92.674 E6.46956
G1 X96.468 Y92.866 E6.4767
G1 X96.271 Y93.035 E6.48533
G1 X96.092 Y93.097 E6.49163
G1 X95.988 Y93.105 E6.4951
G1 X89.063 Y93.105 E6.72543
G1 X88.78 Y93.035 E6.73513
G1 X88.582 Y92.866 E6.74378
G1 X88.486 Y92.674 E6.75092
G1 X88.463 Y92.505 E6.7566
G1 X88.463 Y89.106 E6.86965
G1 F1800 E4.86965
G0 F5760 X88.194 Y89.206
G0 X88.625 Y89.666
G0 X88.635 Y92.933
G0 X96.416 Y92.933
G0 X96.76 Y89.277
G0 X103.441 Y89.278
G0 X103.539 Y92.701
G0 X103.22 Y92.762
;TYPE:SKIN
G1 F720 E6.86965
G1 F1500 X103.189 Y92.535 E6.87822
G1 X103.188 Y89.531 E6.99062
G1 X97.013 Y89.531 E7.22168
G1 X97.011 Y92.536 E7.33412
G1 X96.979 Y92.763 E7.34269
G1 X96.958 Y92.832 E7.34539
G1 X96.83 Y93.087 E7.35607
G1 X96.776 Y93.157 E7.35938
G1 X96.513 Y93.384 E7.37238
G1 X96.438 Y93.427 E7.37561
G1 X96.2 Y93.508 E7.38502
G1 X96.007 Y93.53 E7.39229
G1 X89.009 Y93.524 E7.65414
G1 X88.631 Y93.431 E7.6687
G1 X88.538 Y93.383 E7.67262
G1 X88.274 Y93.157 E7.68562
G1 X88.219 Y93.087 E7.68895
G1 X88.092 Y92.832 E7.69961
G1 X88.07 Y92.762 E7.70236
G1 X88.039 Y92.535 E7.71093
G1 X88.038 Y89.531 E7.82333
G1 X81.864 Y89.531 E8.05435
G1 X81.864 Y94.841 E8.25304
G1 X118.038 Y94.841 E9.60658
G1 X118.038 Y89.53 E9.80531
G1 X111.863 Y89.53 E10.03636
G1 X111.861 Y92.536 E10.14884
G1 X111.829 Y92.763 E10.15742
G1 X111.808 Y92.832 E10.16012
G1 X111.68 Y93.087 E10.17079
G1 X111.626 Y93.157 E10.1741
G1 X111.363 Y93.384 E10.1871
G1 X111.288 Y93.427 E10.19033
G1 X111.05 Y93.508 E10.19974
G1 X110.857 Y93.53 E10.20701
G1 X104.159 Y93.524 E10.45763
G1 X103.781 Y93.431 E10.4722
G1 X103.688 Y93.383 E10.47611
G1 X103.424 Y93.157 E10.48912
G1 X103.369 Y93.087 E10.49245
G1 X103.242 Y92.832 E10.50311
G1 X103.22 Y92.762 E10.50585
G1 F1800 E8.50585
G0 F5760 X103.539 Y92.701
G0 X103.441 Y89.278
G0 X96.76 Y89.277
G0 X96.469 Y92.733
G0 X96.316 Y93.126
G0 X96.807 Y93.725
G1 F720 E10.50585
G1 F1500 X96.622 Y93.836 E10.51393
G1 F1513.5 X96.245 Y93.956 E10.5286
G1 F1548.2 X96.04 Y93.969 E10.53605
G1 F1566.1 X89.04 Y93.97 E10.78691
G1 F1548.2 X88.906 Y93.959 E10.79178
G1 F1513.5 X88.468 Y93.849 E10.80853
G1 F1500 X88.247 Y93.726 E10.818
G1 X87.982 Y93.5 E10.83103
G1 X87.816 Y93.289 E10.84107
G1 X87.675 Y92.999 E10.85314
G1 X87.622 Y92.821 E10.86009
G1 X87.592 Y92.595 E10.86862
G1 X87.588 Y89.981 E10.96643
G1 X82.314 Y89.981 E11.16377
G1 X82.314 Y94.391 E11.32878
G1 F1503.3 X88.456 Y94.391 E11.55809
G1 F1537.6 X89.063 Y94.4 E11.58025
G1 F1569.8 X96.021 Y94.401 E11.82903
G1 F1534.1 X96.771 Y94.39 E11.85647
G1 F1503.3 X103.606 Y94.391 E12.11165
G1 F1537.6 X104.213 Y94.4 E12.13381
G1 F1569.8 X110.871 Y94.401 E12.37187
G1 F1534.1 X111.621 Y94.39 E12.39931
G1 F1500 X117.588 Y94.391 E12.62258
G1 X117.588 Y89.98 E12.78763
G1 X112.313 Y89.98 E12.98501
G1 X112.308 Y92.597 E13.08293
G1 X112.268 Y92.865 E13.09307
G1 X112.228 Y92.995 E13.09816
G1 X112.08 Y93.292 E13.11058
G1 X111.951 Y93.465 E13.11865
G1 X111.657 Y93.725 E13.13334
G1 X111.472 Y93.836 E13.14141
G1 F1513.5 X111.095 Y93.956 E13.15608
G1 F1548.2 X110.89 Y93.969 E13.16353
G1 F1566.1 X104.19 Y93.97 E13.40364
G1 F1548.2 X104.056 Y93.959 E13.40852
G1 F1513.5 X103.618 Y93.849 E13.42526
G1 F1500 X103.397 Y93.726 E13.43473
G1 X103.132 Y93.5 E13.44776
G1 X102.966 Y93.289 E13.45781
G1 X102.825 Y92.999 E13.46987
G1 X102.772 Y92.821 E13.47682
G1 X102.742 Y92.595 E13.48535
G1 X102.738 Y89.981 E13.58316
G1 X97.463 Y89.981 E13.78054
G1 X97.458 Y92.597 E13.87842
G1 X97.418 Y92.865 E13.88856
G1 X97.378 Y92.995 E13.89365
G1 X97.23 Y93.292 E13.90607
G1 X97.101 Y93.465 E13.91414
G1 X96.807 Y93.725 E13.92883
G1 F1800 E11.92883
G1 F600 Z0.4
G0 F5760 X87.137 Y90.431 Z0.4
G1 F600 Z0.2
G1 F720 E13.92883
G1 F1500 X87.137 Y90.431
G1 X82.764 Y90.431 E14.09246
G1 X82.764 Y93.941 E14.22379
G1 X87.803 Y93.94 E14.41234
G1 X87.661 Y93.814 E14.41944
G1 X87.491 Y93.611 E14.42935
G1 X87.426 Y93.515 E14.43369
G1 X87.244 Y93.131 E14.44959
G1 X87.174 Y92.876 E14.45948
G1 X87.145 Y92.655 E14.46782
G1 X87.137 Y90.431 E14.55104
G1 F1800 E12.55104
G1 F600 Z0.4
G0 F5760 X83.214 Y90.881 Z0.4
G1 F600 Z0.2
G1 F720 E14.55104
G1 F1500 X83.214 Y93.49 E14.64866
G1 X86.917 Y93.488 E14.78722
G1 X86.809 Y93.252 E14.79693
G1 X86.727 Y92.935 E14.80918
G1 X86.698 Y92.715 E14.81749
G1 X86.69 Y90.881 E14.88611
G1 X83.214 Y90.881 E15.01618
G1 F1800 E13.01618
G1 F600 Z0.4
G0 F5760 X86.242 Y91.331 Z0.4
G1 F600 Z0.2
G1 F720 E15.01618
G1 F1500 X83.664 Y91.331 E15.11264
G1 X83.664 Y93.04 E15.17659
G1 X86.29 Y93.038 E15.27484
G1 X86.251 Y92.774 E15.28483
G1 X86.242 Y91.331 E15.33882
G1 F1800 E13.33882
G1 F600 Z0.4
G0 F5760 X84.204 Y92.5 Z0.4
G1 F600 Z0.2
G1 F720 E15.33882
G1 F1073.1 X85.713 Y92.499 E15.41775
G1 X85.706 Y91.87 E15.45065
G1 X84.204 Y91.871 E15.5292
G1 F1071.4 X84.204 Y92.5 E15.56215
G1 F1800 E13.56215
G1 F600 Z0.4
G0 F5760 X102.811 Y93.814 Z0.4
G1 F600 Z0.2
G1 F720 E15.56215
G1 F1500 X102.625 Y93.589 E15.57308
G1 X102.563 Y93.49 E15.57745
G1 X102.394 Y93.131 E15.5923
G1 X102.324 Y92.876 E15.60219
G1 X102.295 Y92.655 E15.61053
G1 X102.287 Y90.431 E15.69375
G1 X97.913 Y90.431 E15.85741
G1 X97.904 Y92.663 E15.94093
G1 X97.847 Y93.005 E15.9539
G1 X97.763 Y93.239 E15.96321
G1 X97.615 Y93.524 E15.97522
G1 X97.462 Y93.735 E15.98497
G1 X97.378 Y93.826 E15.98961
G1 X97.247 Y93.94 E15.99611
G1 X102.953 Y93.94 E16.20961
G1 X102.811 Y93.814 E16.21671
G1 F1800 E14.21671
G1 F600 Z0.4
G0 F5760 X98.355 Y92.663 Z0.4
G1 F600 Z0.2
G1 F720 E16.21671
G1 F1500 X98.272 Y93.156 E16.23542
G1 X98.141 Y93.489 E16.24881
G1 X102.065 Y93.487 E16.39564
G1 X101.972 Y93.287 E16.40389
G1 X101.877 Y92.935 E16.41753
G1 X101.848 Y92.715 E16.42584
G1 X101.84 Y90.881 E16.49446
G1 X98.363 Y90.881 E16.62456
G1 X98.355 Y92.663 E16.69124
G1 F1800 E14.69124
G1 F600 Z0.4
G0 F5760 X101.401 Y92.774 Z0.4
G1 F600 Z0.2
G1 F720 E16.69124
G1 F1500 X101.401 Y92.774
G1 X101.392 Y91.331 E16.74523
G1 X98.813 Y91.331 E16.84173
G1 X98.809 Y92.626 E16.89019
G1 X98.751 Y93.037 E16.90572
G1 X101.439 Y93.037 E17.0063
G1 X101.401 Y92.774 E17.01624
G1 F1800 E15.01624
G1 F600 Z0.4
G0 F5760 X100.856 Y91.87 Z0.4
G1 F600 Z0.2
G1 F720 E17.01624
G1 F1074.8 X99.35 Y91.87 E17.09488
G1 X99.349 Y92.498 E17.12768
G1 X100.862 Y92.498 E17.20668
G1 F1073.1 X100.856 Y91.87 E17.23953
G1 F1800 E15.23953
G1 F600 Z0.4
G0 F5760 X112.465 Y93.524 Z0.4
G1 F600 Z0.2
G1 F720 E17.23953
G1 F1500 X112.312 Y93.735 E17.24928
G1 X112.228 Y93.826 E17.25392
G1 X112.097 Y93.94 E17.26042
G1 X117.138 Y93.94 E17.44904
G1 X117.138 Y90.43 E17.58037
G1 X112.763 Y90.43 E17.74408
G1 X112.754 Y92.663 E17.82763
G1 X112.697 Y93.005 E17.8406
G1 X112.613 Y93.239 E17.84991
G1 X112.465 Y93.524 E17.86192
G1 F1800 E15.86192
G1 F600 Z0.4
G0 F5760 X116.688 Y90.88 Z0.4
G1 F600 Z0.2
G1 F720 E17.86192
G1 F1500 X116.688 Y90.88
G1 X113.213 Y90.88 E17.99195
G1 X113.205 Y92.663 E18.05867
G1 X113.122 Y93.156 E18.07737
G1 X112.991 Y93.489 E18.09076
G1 X116.688 Y93.49 E18.22909
G1 X116.688 Y90.88 E18.32675
G1 F1800 E16.32675
G1 F600 Z0.4
G0 F5760 X113.663 Y91.33 Z0.4
G1 F600 Z0.2
G1 F720 E18.32675
G1 F1500 X113.659 Y92.626 E18.37525
G1 X113.601 Y93.037 E18.39078
G1 X116.238 Y93.04 E18.48945
G1 X116.238 Y91.33 E18.55343
G1 X113.663 Y91.33 E18.64978
G0 F5760 X114.201 Y91.869
G1 F1073.1 X114.199 Y92.496 E18.68258
G1 X115.698 Y92.5 E18.76098
G1 F1071.4 X115.698 Y91.87 E18.79398
G1 F1073.1 X114.201 Y91.869 E18.87228
G1 F1800 E16.87228
G1 F600 Z0.4
G0 F5760 X90.201 Y108.715 Z0.4
;TYPE:WALL-OUTER
G1 F600 Z0.2
G1 F720 E18.87228
G1 F1500 X90.135 Y108.74 E18.87462
G1 X79.9 Y108.742 E19.21504
G1 X79.8 Y108.716 E19.21848
G1 X79.733 Y108.653 E19.22154
G1 X79.702 Y108.577 E19.22427
G1 X79.705 Y108.493 E19.22706
G1 X81.976 Y103.943 E19.3962
G1 X73.024 Y103.943 E19.69394
G1 X75.295 Y108.493 E19.86308
G1 X75.301 Y111.294 E19.95624
G1 X124.7 Y111.295 E21.59926
G1 X124.705 Y108.493 E21.69245
G1 X126.976 Y103.943 E21.86159
G1 X118.024 Y103.943 E22.15933
G1 X120.295 Y108.493 E22.32847
G1 X120.296 Y108.586 E22.33156
G1 X120.267 Y108.654 E22.33402
G1 X120.2 Y108.716 E22.33706
G1 X120.135 Y108.74 E22.33936
G1 X109.9 Y108.742 E22.67978
G1 X109.799 Y108.715 E22.68326
G1 X109.732 Y108.652 E22.68632
G1 X109.7 Y108.56 E22.68956
G1 X109.702 Y108.513 E22.69112
G1 X109.721 Y108.452 E22.69325
G1 X111.976 Y103.943 E22.86093
G1 X103.024 Y103.943 E23.15867
G1 X105.279 Y108.452 E23.32635
G1 X105.298 Y108.513 E23.32848
G1 X105.296 Y108.583 E23.3308
G1 X105.268 Y108.652 E23.33328
G1 X105.201 Y108.715 E23.33634
G1 X105.135 Y108.74 E23.33869
G1 X94.9 Y108.742 E23.6791
G1 X94.799 Y108.715 E23.68258
G1 X94.732 Y108.652 E23.68564
G1 X94.7 Y108.56 E23.68888
G1 X94.702 Y108.513 E23.69045
G1 X94.721 Y108.452 E23.69257
G1 X96.976 Y103.943 E23.86025
G1 X88.024 Y103.943 E24.15799
G1 X90.279 Y108.452 E24.32567
G1 X90.298 Y108.513 E24.3278
G1 X90.296 Y108.583 E24.33013
G1 X90.268 Y108.652 E24.3326
G1 X90.201 Y108.715 E24.33566
G0 F5760 X90.135 Y108.74
G0 X90.005 Y108.74
G0 X90.204 Y109.134
;TYPE:WALL-INNER
G1 F1500 X90.1 Y109.142 E24.33913
G1 X79.9 Y109.142 E24.67839
G1 X79.6 Y109.063 E24.6887
G1 X79.4 Y108.875 E24.69783
G1 X79.314 Y108.672 E24.70517
G1 X79.3 Y108.542 E24.70951
G1 X79.317 Y108.396 E24.7144
G1 X79.363 Y108.273 E24.71877
G1 X81.328 Y104.343 E24.86491
G1 X73.672 Y104.343 E25.11955
G1 X75.637 Y108.273 E25.26569
G1 X75.683 Y108.396 E25.27006
G1 X75.7 Y108.542 E25.27495
G1 X75.701 Y110.894 E25.35318
G1 X124.3 Y110.895 E26.96959
G1 X124.3 Y108.542 E27.04785
G1 X124.317 Y108.396 E27.05274
G1 X124.363 Y108.273 E27.0571
G1 X126.328 Y104.343 E27.20324
G1 X118.672 Y104.343 E27.45788
G1 X120.637 Y108.273 E27.60402
G1 X120.683 Y108.396 E27.60839
G1 X120.7 Y108.542 E27.61328
G1 X120.686 Y108.672 E27.61763
G1 X120.6 Y108.876 E27.62499
G1 X120.4 Y109.063 E27.6341
G1 X120.204 Y109.134 E27.64103
G1 X120.1 Y109.142 E27.6445
G1 X109.9 Y109.142 E27.98376
G1 X109.597 Y109.061 E27.99419
G1 X109.397 Y108.87 E28.00339
G1 X109.312 Y108.665 E28.01077
G1 X109.302 Y108.595 E28.01312
G1 X109.306 Y108.455 E28.01778
G1 X109.363 Y108.273 E28.02412
G1 X111.328 Y104.343 E28.17026
G1 X103.672 Y104.343 E28.4249
G1 X105.637 Y108.273 E28.57104
G1 X105.694 Y108.455 E28.57739
G1 X105.698 Y108.595 E28.58204
G1 X105.688 Y108.665 E28.5844
G1 X105.603 Y108.87 E28.59178
G1 X105.403 Y109.061 E28.60097
G1 X105.204 Y109.134 E28.60802
G1 X105.1 Y109.142 E28.61149
G1 X94.9 Y109.142 E28.95075
G1 X94.597 Y109.061 E28.96118
G1 X94.397 Y108.87 E28.97038
G1 X94.312 Y108.665 E28.97776
G1 X94.302 Y108.595 E28.98011
G1 X94.306 Y108.455 E28.98477
G1 X94.363 Y108.273 E28.99111
G1 X96.328 Y104.343 E29.13725
G1 X88.672 Y104.343 E29.39189
G1 X90.637 Y108.273 E29.53803
G1 X90.694 Y108.455 E29.54438
G1 X90.698 Y108.595 E29.54903
G1 X90.688 Y108.665 E29.55139
G1 X90.603 Y108.87 E29.55877
G1 X90.403 Y109.061 E29.56797
G1 X90.204 Y109.134 E29.57502
G1 F1800 E27.57502
G0 F5760 X80.748 Y108.958
G0 X79.219 Y108.963
G0 X79.302 Y108.761
G0 X81.039 Y104.522
G0 X73.961 Y104.522
G0 X75.8 Y108.642
G0 X76.025 Y108.1
;TYPE:SKIN
G1 F720 E29.57502
G1 F1500 X76.097 Y108.294 E29.58276
G1 X76.124 Y108.518 E29.5912
G1 X76.126 Y110.468 E29.66417
G1 X123.875 Y110.47 E31.45082
G1 X123.876 Y108.514 E31.52401
G1 X123.903 Y108.294 E31.5323
G1 X123.975 Y108.1 E31.54005
G1 X125.64 Y104.768 E31.67942
G1 X119.36 Y104.768 E31.9144
G1 X121.025 Y108.1 E32.05378
G1 X121.097 Y108.294 E32.06152
G1 X121.125 Y108.542 E32.07086
G1 X121.1 Y108.764 E32.07922
G1 X120.975 Y109.073 E32.09169
G1 X120.921 Y109.151 E32.09524
G1 X120.653 Y109.402 E32.10898
G1 X120.576 Y109.449 E32.11236
G1 X120.316 Y109.543 E32.1227
G1 X120.119 Y109.567 E32.13013
G1 X109.901 Y109.567 E32.51246
G1 X109.842 Y109.56 E32.51468
G1 X109.437 Y109.45 E32.53039
G1 X109.341 Y109.396 E32.53451
G1 X109.073 Y109.142 E32.54832
G1 X109.019 Y109.064 E32.55187
G1 X108.895 Y108.752 E32.56444
G1 X108.878 Y108.635 E32.56886
G1 X108.887 Y108.388 E32.57811
G1 X108.968 Y108.116 E32.58873
G1 X110.639 Y104.769 E32.72871
G1 X104.361 Y104.769 E32.96361
G1 X106.032 Y108.116 E33.10359
G1 X106.113 Y108.388 E33.11421
G1 X106.122 Y108.635 E33.12346
G1 X106.105 Y108.752 E33.12788
G1 X105.981 Y109.065 E33.14048
G1 X105.927 Y109.143 E33.14403
G1 X105.658 Y109.398 E33.1579
G1 X105.582 Y109.446 E33.16126
G1 X105.318 Y109.543 E33.17179
G1 X105.256 Y109.557 E33.17416
G1 X105.118 Y109.567 E33.17934
G1 X94.901 Y109.567 E33.56164
G1 X94.842 Y109.56 E33.56386
G1 X94.437 Y109.45 E33.57956
G1 X94.341 Y109.396 E33.58368
G1 X94.073 Y109.142 E33.5975
G1 X94.019 Y109.064 E33.60105
G1 X93.895 Y108.752 E33.61361
G1 X93.878 Y108.635 E33.61804
G1 X93.887 Y108.388 E33.62729
G1 X93.968 Y108.116 E33.6379
G1 X95.639 Y104.769 E33.77788
G1 X89.361 Y104.769 E34.01279
G1 X91.032 Y108.116 E34.15277
G1 X91.113 Y108.388 E34.16339
G1 X91.122 Y108.635 E34.17263
G1 X91.105 Y108.752 E34.17706
G1 X90.981 Y109.065 E34.18966
G1 X90.927 Y109.143 E34.19321
G1 X90.658 Y109.398 E34.20707
G1 X90.582 Y109.446 E34.21044
G1 X90.318 Y109.543 E34.22096
G1 X90.256 Y109.557 E34.22334
G1 X90.118 Y109.567 E34.22852
G1 X79.899 Y109.567 E34.61089
G1 X79.841 Y109.56 E34.61307
G1 X79.441 Y109.454 E34.62856
G1 X79.344 Y109.401 E34.63269
G1 X79.079 Y109.152 E34.6463
